( Made using CamBam - http://www.cambam.co.uk )
( CalleClesDaile 4/14/2020 12:04:41 AM )
( T0 : 2.0 )
G21 G90 G64 G40
G0 Z3.0
( T0 : 2.0 )
T0 M6
( Contour1 )
G17
M3 S1000
G0 X14.5244 Y29.6714
G0 Z1.0
G1 F20.0 Z-1.0
G1 F150.0 X9.5245 Y29.6452
G3 X8.5298 Y28.64 I0.0052 J-1.0
G1 X8.5507 Y24.64
G1 X4.5508 Y24.619
G3 X3.556 Y23.6138 I0.0052 J-1.0
G1 X3.6609 Y3.6141
G3 X4.6661 Y2.6194 I1.0 J0.0052
G1 X14.666 Y2.6718
G3 X15.6607 Y3.677 I-0.0052 J1.0
G1 X15.6398 Y7.6769
G1 X19.6397 Y7.6979
G3 X20.6344 Y8.7031 I-0.0052 J1.0
G1 X20.582 Y18.703
G3 X19.5768 Y19.6978 I-1.0 J-0.0052
G1 X15.5768 Y19.6768
G1 X15.5297 Y28.6767
G3 X14.5244 Y29.6714 I-1.0 J-0.0052
G1 F20.0 Z-2.0
G1 F150.0 X9.5245 Y29.6452
G3 X8.5298 Y28.64 I0.0052 J-1.0
G1 X8.5507 Y24.64
G1 X4.5508 Y24.619
G3 X3.556 Y23.6138 I0.0052 J-1.0
G1 X3.6609 Y3.6141
G3 X4.6661 Y2.6194 I1.0 J0.0052
G1 X14.666 Y2.6718
G3 X15.6607 Y3.677 I-0.0052 J1.0
G1 X15.6398 Y7.6769
G1 X19.6397 Y7.6979
G3 X20.6344 Y8.7031 I-0.0052 J1.0
G1 X20.582 Y18.703
G3 X19.5768 Y19.6978 I-1.0 J-0.0052
G1 X15.5768 Y19.6768
G1 X15.5297 Y28.6767
G3 X14.5244 Y29.6714 I-1.0 J-0.0052
G1 F20.0 Z-3.0
G1 F150.0 X9.5245 Y29.6452
G3 X8.5298 Y28.64 I0.0052 J-1.0
G1 X8.5507 Y24.64
G1 X4.5508 Y24.619
G3 X3.556 Y23.6138 I0.0052 J-1.0
G1 X3.5724 Y20.4926
G1 X3.5803 Y18.9926 Z-2.0
G1 X3.5908 Y16.9926
G1 X3.5986 Y15.4926 Z-3.0
G1 X3.6609 Y3.6141
G3 X4.6661 Y2.6194 I1.0 J0.0052
G1 X7.1661 Y2.6325
G1 X8.6661 Y2.6403 Z-2.0
G1 X10.666 Y2.6508
G1 X12.166 Y2.6587 Z-3.0
G1 X14.666 Y2.6718
G3 X15.6607 Y3.677 I-0.0052 J1.0
G1 X15.6398 Y7.6769
G1 X19.6397 Y7.6979
G3 X20.6344 Y8.7031 I-0.0052 J1.0
G1 X20.582 Y18.703
G3 X19.5768 Y19.6978 I-1.0 J-0.0052
G1 X15.5768 Y19.6768
G1 X15.5672 Y21.5134
G1 X15.5594 Y23.0134 Z-2.0
G1 X15.5489 Y25.0134
G1 X15.541 Y26.5134 Z-3.0
G1 X15.5297 Y28.6767
G3 X14.5244 Y29.6714 I-1.0 J-0.0052
G1 F20.0 Z-4.0
G1 F150.0 X9.5245 Y29.6452
G3 X8.5298 Y28.64 I0.0052 J-1.0
G1 X8.5507 Y24.64
G1 X4.5508 Y24.619
G3 X3.556 Y23.6138 I0.0052 J-1.0
G1 X3.5724 Y20.4926
G1 X3.5803 Y18.9926 Z-2.0
G1 X3.5908 Y16.9926
G1 X3.5986 Y15.4926 Z-4.0
G1 X3.6609 Y3.6141
G3 X4.6661 Y2.6194 I1.0 J0.0052
G1 X7.1661 Y2.6325
G1 X8.6661 Y2.6403 Z-2.0
G1 X10.666 Y2.6508
G1 X12.166 Y2.6587 Z-4.0
G1 X14.666 Y2.6718
G3 X15.6607 Y3.677 I-0.0052 J1.0
G1 X15.6398 Y7.6769
G1 X19.6397 Y7.6979
G3 X20.6344 Y8.7031 I-0.0052 J1.0
G1 X20.582 Y18.703
G3 X19.5768 Y19.6978 I-1.0 J-0.0052
G1 X15.5768 Y19.6768
G1 X15.5672 Y21.5134
G1 X15.5594 Y23.0134 Z-2.0
G1 X15.5489 Y25.0134
G1 X15.541 Y26.5134 Z-4.0
G1 X15.5297 Y28.6767
G3 X14.5244 Y29.6714 I-1.0 J-0.0052
G1 F20.0 Z-5.0
G1 F150.0 X9.5245 Y29.6452
G3 X8.5298 Y28.64 I0.0052 J-1.0
G1 X8.5507 Y24.64
G1 X4.5508 Y24.619
G3 X3.556 Y23.6138 I0.0052 J-1.0
G1 X3.5724 Y20.4926
G1 X3.5803 Y18.9926 Z-2.0
G1 X3.5908 Y16.9926
G1 X3.5986 Y15.4926 Z-5.0
G1 X3.6609 Y3.6141
G3 X4.6661 Y2.6194 I1.0 J0.0052
G1 X7.1661 Y2.6325
G1 X8.6661 Y2.6403 Z-2.0
G1 X10.666 Y2.6508
G1 X12.166 Y2.6587 Z-5.0
G1 X14.666 Y2.6718
G3 X15.6607 Y3.677 I-0.0052 J1.0
G1 X15.6398 Y7.6769
G1 X19.6397 Y7.6979
G3 X20.6344 Y8.7031 I-0.0052 J1.0
G1 X20.582 Y18.703
G3 X19.5768 Y19.6978 I-1.0 J-0.0052
G1 X15.5768 Y19.6768
G1 X15.5672 Y21.5134
G1 X15.5594 Y23.0134 Z-2.0
G1 X15.5489 Y25.0134
G1 X15.541 Y26.5134 Z-5.0
G1 X15.5297 Y28.6767
G3 X14.5244 Y29.6714 I-1.0 J-0.0052
G0 F200
( Contour2 )
S1000
G0 Z3.0
G0 X32.9635 Y9.3668
G0 Z1.0
G1 F20.0 Z-1.0
G2 F150.0 X33.2135 Y8.9338 I-0.25 J-0.433
G2 X32.9635 Y8.5008 I-0.5 J0.0
G2 X32.4635 I-0.25 J0.433
G2 X32.2135 Y8.9338 I0.25 J0.433
G2 X32.4635 Y9.3668 I0.5 J0.0
G2 X32.9635 I0.25 J-0.433
G1 F20.0 Z-2.0
G2 F150.0 X33.2135 Y8.9338 I-0.25 J-0.433
G2 X32.9635 Y8.5008 I-0.5 J0.0
G2 X32.4635 I-0.25 J0.433
G2 X32.2135 Y8.9338 I0.25 J0.433
G2 X32.4635 Y9.3668 I0.5 J0.0
G2 X32.9635 I0.25 J-0.433
G1 F20.0 Z-3.0
G2 F150.0 X33.2135 Y8.9338 I-0.25 J-0.433
G2 X32.9635 Y8.5008 I-0.5 J0.0
G2 X32.4635 I-0.25 J0.433
G2 X32.2135 Y8.9338 I0.25 J0.433
G2 X32.4635 Y9.3668 I0.5 J0.0
G2 X32.9635 I0.25 J-0.433
G1 F20.0 Z-4.0
G2 F150.0 X33.2135 Y8.9338 I-0.25 J-0.433
G2 X32.9635 Y8.5008 I-0.5 J0.0
G2 X32.4635 I-0.25 J0.433
G2 X32.2135 Y8.9338 I0.25 J0.433
G2 X32.4635 Y9.3668 I0.5 J0.0
G2 X32.9635 I0.25 J-0.433
G1 F20.0 Z-5.0
G2 F150.0 X33.2135 Y8.9338 I-0.25 J-0.433
G2 X32.9635 Y8.5008 I-0.5 J0.0
G2 X32.4635 I-0.25 J0.433
G2 X32.2135 Y8.9338 I0.25 J0.433
G2 X32.4635 Y9.3668 I0.5 J0.0
G2 X32.9635 I0.25 J-0.433
G0 Z3.0
G0 X52.2137 Y8.9447
G0 Z1.0
G1 F20.0 Z-1.0
G2 F150.0 X52.4635 Y9.3668 I0.4999 J-0.011
G2 X52.9635 I0.25 J-0.433
G2 X53.2135 Y8.9338 I-0.25 J-0.433
G2 X52.9635 Y8.5008 I-0.5 J0.0
G2 X52.4635 I-0.25 J0.433
G2 X52.2135 Y8.9338 I0.25 J0.433
G2 X52.2137 Y8.9447 I0.5 J0.0
G1 F20.0 Z-2.0
G2 F150.0 X52.4635 Y9.3668 I0.4999 J-0.011
G2 X52.9635 I0.25 J-0.433
G2 X53.2135 Y8.9338 I-0.25 J-0.433
G2 X52.9635 Y8.5008 I-0.5 J0.0
G2 X52.4635 I-0.25 J0.433
G2 X52.2135 Y8.9338 I0.25 J0.433
G2 X52.2137 Y8.9447 I0.5 J0.0
G1 F20.0 Z-3.0
G2 F150.0 X52.4635 Y9.3668 I0.4999 J-0.011
G2 X52.9635 I0.25 J-0.433
G2 X53.2135 Y8.9338 I-0.25 J-0.433
G2 X52.9635 Y8.5008 I-0.5 J0.0
G2 X52.4635 I-0.25 J0.433
G2 X52.2135 Y8.9338 I0.25 J0.433
G2 X52.2137 Y8.9447 I0.5 J0.0
G1 F20.0 Z-4.0
G2 F150.0 X52.4635 Y9.3668 I0.4999 J-0.011
G2 X52.9635 I0.25 J-0.433
G2 X53.2135 Y8.9338 I-0.25 J-0.433
G2 X52.9635 Y8.5008 I-0.5 J0.0
G2 X52.4635 I-0.25 J0.433
G2 X52.2135 Y8.9338 I0.25 J0.433
G2 X52.2137 Y8.9447 I0.5 J0.0
G1 F20.0 Z-5.0
G2 F150.0 X52.4635 Y9.3668 I0.4999 J-0.011
G2 X52.9635 I0.25 J-0.433
G2 X53.2135 Y8.9338 I-0.25 J-0.433
G2 X52.9635 Y8.5008 I-0.5 J0.0
G2 X52.4635 I-0.25 J0.433
G2 X52.2135 Y8.9338 I0.25 J0.433
G2 X52.2137 Y8.9447 I0.5 J0.0
G0 F200
( Contour3 )
S1000
G0 Z3.0
G0 X83.7135 Y13.9338
G0 Z1.0
G1 F20.0 Z-1.0
G1 F150.0 Y18.9338
G3 X82.7135 Y19.9338 I-1.0 J0.0
G1 X67.7135
G3 X66.7135 Y18.9338 I0.0 J-1.0
G1 Y14.9338
G1 X38.7135
G1 Y18.9338
G3 X37.7135 Y19.9338 I-1.0 J0.0
G1 X22.7135
G3 X21.7135 Y18.9338 I0.0 J-1.0
G1 Y3.9338
G3 X22.7135 Y2.9338 I1.0 J0.0
G1 X82.7135
G3 X83.7135 Y3.9338 I0.0 J1.0
G1 Y8.9338
G3 X82.7135 Y9.9338 I-1.0 J0.0
G1 X78.7135
G1 Y12.9338
G1 X82.7135
G3 X83.7135 Y13.9338 I0.0 J1.0
G1 F20.0 Z-2.0
G1 F150.0 Y18.9338
G3 X82.7135 Y19.9338 I-1.0 J0.0
G1 X67.7135
G3 X66.7135 Y18.9338 I0.0 J-1.0
G1 Y14.9338
G1 X38.7135
G1 Y18.9338
G3 X37.7135 Y19.9338 I-1.0 J0.0
G1 X22.7135
G3 X21.7135 Y18.9338 I0.0 J-1.0
G1 Y3.9338
G3 X22.7135 Y2.9338 I1.0 J0.0
G1 X82.7135
G3 X83.7135 Y3.9338 I0.0 J1.0
G1 Y8.9338
G3 X82.7135 Y9.9338 I-1.0 J0.0
G1 X78.7135
G1 Y12.9338
G1 X82.7135
G3 X83.7135 Y13.9338 I0.0 J1.0
G1 F20.0 Z-3.0
G1 F150.0 Y18.9338
G3 X82.7135 Y19.9338 I-1.0 J0.0
G1 X77.5
G1 X76.0 Z-2.0
G1 X74.0
G1 X72.5 Z-3.0
G1 X67.7135
G3 X66.7135 Y18.9338 I0.0 J-1.0
G1 Y14.9338
G1 X38.7135
G1 Y18.9338
G3 X37.7135 Y19.9338 I-1.0 J0.0
G1 X34.5
G1 X33.0 Z-2.0
G1 X31.0
G1 X29.5 Z-3.0
G1 X22.7135
G3 X21.7135 Y18.9338 I0.0 J-1.0
G1 Y3.9338
G3 X22.7135 Y2.9338 I1.0 J0.0
G1 X28.5
G1 X30.0 Z-2.0
G1 X32.0
G1 X33.5 Z-3.0
G1 X73.5
G1 X75.0 Z-2.0
G1 X77.0
G1 X78.5 Z-3.0
G1 X82.7135
G3 X83.7135 Y3.9338 I0.0 J1.0
G1 Y8.9338
G3 X82.7135 Y9.9338 I-1.0 J0.0
G1 X78.7135
G1 Y12.9338
G1 X82.7135
G3 X83.7135 Y13.9338 I0.0 J1.0
G1 F20.0 Z-4.0
G1 F150.0 Y18.9338
G3 X82.7135 Y19.9338 I-1.0 J0.0
G1 X77.5
G1 X76.0 Z-2.0
G1 X74.0
G1 X72.5 Z-4.0
G1 X67.7135
G3 X66.7135 Y18.9338 I0.0 J-1.0
G1 Y14.9338
G1 X38.7135
G1 Y18.9338
G3 X37.7135 Y19.9338 I-1.0 J0.0
G1 X34.5
G1 X33.0 Z-2.0
G1 X31.0
G1 X29.5 Z-4.0
G1 X22.7135
G3 X21.7135 Y18.9338 I0.0 J-1.0
G1 Y3.9338
G3 X22.7135 Y2.9338 I1.0 J0.0
G1 X28.5
G1 X30.0 Z-2.0
G1 X32.0
G1 X33.5 Z-4.0
G1 X73.5
G1 X75.0 Z-2.0
G1 X77.0
G1 X78.5 Z-4.0
G1 X82.7135
G3 X83.7135 Y3.9338 I0.0 J1.0
G1 Y8.9338
G3 X82.7135 Y9.9338 I-1.0 J0.0
G1 X78.7135
G1 Y12.9338
G1 X82.7135
G3 X83.7135 Y13.9338 I0.0 J1.0
G1 F20.0 Z-5.0
G1 F150.0 Y18.9338
G3 X82.7135 Y19.9338 I-1.0 J0.0
G1 X77.5
G1 X76.0 Z-2.0
G1 X74.0
G1 X72.5 Z-5.0
G1 X67.7135
G3 X66.7135 Y18.9338 I0.0 J-1.0
G1 Y14.9338
G1 X38.7135
G1 Y18.9338
G3 X37.7135 Y19.9338 I-1.0 J0.0
G1 X34.5
G1 X33.0 Z-2.0
G1 X31.0
G1 X29.5 Z-5.0
G1 X22.7135
G3 X21.7135 Y18.9338 I0.0 J-1.0
G1 Y3.9338
G3 X22.7135 Y2.9338 I1.0 J0.0
G1 X28.5
G1 X30.0 Z-2.0
G1 X32.0
G1 X33.5 Z-5.0
G1 X73.5
G1 X75.0 Z-2.0
G1 X77.0
G1 X78.5 Z-5.0
G1 X82.7135
G3 X83.7135 Y3.9338 I0.0 J1.0
G1 Y8.9338
G3 X82.7135 Y9.9338 I-1.0 J0.0
G1 X78.7135
G1 Y12.9338
G1 X82.7135
G3 X83.7135 Y13.9338 I0.0 J1.0
G0 F200
( Contour4 )
S1000
G0 Z3.0
G0 X92.362 Y25.3151
G0 Z1.0
G1 F20.0 Z-1.0
G1 F150.0 X88.362 Y25.2942
G3 X87.3673 Y24.2889 I0.0052 J-1.0
G1 X87.4721 Y4.2892
G3 X88.4774 Y3.2945 I1.0 J0.0052
G1 X98.4772 Y3.3469
G3 X99.472 Y4.3521 I-0.0052 J1.0
G1 X99.451 Y8.3521
G1 X103.4509 Y8.373
G3 X104.4457 Y9.3783 I-0.0052 J1.0
G1 X104.3933 Y19.3781
G3 X103.388 Y20.3729 I-1.0 J-0.0052
G1 X99.3881 Y20.3519
G1 X99.3409 Y29.3518
G3 X98.3357 Y30.3465 I-1.0 J-0.0052
G1 X93.3357 Y30.3203
G3 X92.341 Y29.3151 I0.0052 J-1.0
G1 X92.362 Y25.3151
G1 F20.0 Z-2.0
G1 F150.0 X88.362 Y25.2942
G3 X87.3673 Y24.2889 I0.0052 J-1.0
G1 X87.4721 Y4.2892
G3 X88.4774 Y3.2945 I1.0 J0.0052
G1 X98.4772 Y3.3469
G3 X99.472 Y4.3521 I-0.0052 J1.0
G1 X99.451 Y8.3521
G1 X103.4509 Y8.373
G3 X104.4457 Y9.3783 I-0.0052 J1.0
G1 X104.3933 Y19.3781
G3 X103.388 Y20.3729 I-1.0 J-0.0052
G1 X99.3881 Y20.3519
G1 X99.3409 Y29.3518
G3 X98.3357 Y30.3465 I-1.0 J-0.0052
G1 X93.3357 Y30.3203
G3 X92.341 Y29.3151 I0.0052 J-1.0
G1 X92.362 Y25.3151
G1 F20.0 Z-3.0
G1 F150.0 X88.362 Y25.2942
G3 X87.3673 Y24.2889 I0.0052 J-1.0
G1 X87.3979 Y18.4557
G1 X87.4057 Y16.9557 Z-2.0
G1 X87.4162 Y14.9557
G1 X87.4241 Y13.4558 Z-3.0
G1 X87.4721 Y4.2892
G3 X88.4774 Y3.2945 I1.0 J0.0052
G1 X91.4983 Y3.3103
G1 X92.9983 Y3.3182 Z-2.0
G1 X94.9983 Y3.3287
G1 X96.4983 Y3.3365 Z-3.0
G1 X98.4772 Y3.3469
G3 X99.472 Y4.3521 I-0.0052 J1.0
G1 X99.451 Y8.3521
G1 X103.4509 Y8.373
G3 X104.4457 Y9.3783 I-0.0052 J1.0
G1 X104.3933 Y19.3781
G3 X103.388 Y20.3729 I-1.0 J-0.0052
G1 X99.3881 Y20.3519
G1 X99.3768 Y22.5019
G1 X99.369 Y24.0019 Z-2.0
G1 X99.3585 Y26.0019
G1 X99.3506 Y27.5019 Z-3.0
G1 X99.3409 Y29.3518
G3 X98.3357 Y30.3465 I-1.0 J-0.0052
G1 X93.3357 Y30.3203
G3 X92.341 Y29.3151 I0.0052 J-1.0
G1 X92.362 Y25.3151
G1 F20.0 Z-4.0
G1 F150.0 X88.362 Y25.2942
G3 X87.3673 Y24.2889 I0.0052 J-1.0
G1 X87.3979 Y18.4557
G1 X87.4057 Y16.9557 Z-2.0
G1 X87.4162 Y14.9557
G1 X87.4241 Y13.4558 Z-4.0
G1 X87.4721 Y4.2892
G3 X88.4774 Y3.2945 I1.0 J0.0052
G1 X91.4983 Y3.3103
G1 X92.9983 Y3.3182 Z-2.0
G1 X94.9983 Y3.3287
G1 X96.4983 Y3.3365 Z-4.0
G1 X98.4772 Y3.3469
G3 X99.472 Y4.3521 I-0.0052 J1.0
G1 X99.451 Y8.3521
G1 X103.4509 Y8.373
G3 X104.4457 Y9.3783 I-0.0052 J1.0
G1 X104.3933 Y19.3781
G3 X103.388 Y20.3729 I-1.0 J-0.0052
G1 X99.3881 Y20.3519
G1 X99.3768 Y22.5019
G1 X99.369 Y24.0019 Z-2.0
G1 X99.3585 Y26.0019
G1 X99.3506 Y27.5019 Z-4.0
G1 X99.3409 Y29.3518
G3 X98.3357 Y30.3465 I-1.0 J-0.0052
G1 X93.3357 Y30.3203
G3 X92.341 Y29.3151 I0.0052 J-1.0
G1 X92.362 Y25.3151
G1 F20.0 Z-5.0
G1 F150.0 X88.362 Y25.2942
G3 X87.3673 Y24.2889 I0.0052 J-1.0
G1 X87.3979 Y18.4557
G1 X87.4057 Y16.9557 Z-2.0
G1 X87.4162 Y14.9557
G1 X87.4241 Y13.4558 Z-5.0
G1 X87.4721 Y4.2892
G3 X88.4774 Y3.2945 I1.0 J0.0052
G1 X91.4983 Y3.3103
G1 X92.9983 Y3.3182 Z-2.0
G1 X94.9983 Y3.3287
G1 X96.4983 Y3.3365 Z-5.0
G1 X98.4772 Y3.3469
G3 X99.472 Y4.3521 I-0.0052 J1.0
G1 X99.451 Y8.3521
G1 X103.4509 Y8.373
G3 X104.4457 Y9.3783 I-0.0052 J1.0
G1 X104.3933 Y19.3781
G3 X103.388 Y20.3729 I-1.0 J-0.0052
G1 X99.3881 Y20.3519
G1 X99.3768 Y22.5019
G1 X99.369 Y24.0019 Z-2.0
G1 X99.3585 Y26.0019
G1 X99.3506 Y27.5019 Z-5.0
G1 X99.3409 Y29.3518
G3 X98.3357 Y30.3465 I-1.0 J-0.0052
G1 X93.3357 Y30.3203
G3 X92.341 Y29.3151 I0.0052 J-1.0
G1 X92.362 Y25.3151
G0 F200
( Contour5 )
S1000
G0 Z3.0
G0 X116.7748 Y10.0419
G0 Z1.0
G1 F20.0 Z-1.0
G2 F150.0 X117.0248 Y9.6089 I-0.25 J-0.433
G2 X116.7748 Y9.1759 I-0.5 J0.0
G2 X116.2748 I-0.25 J0.433
G2 X116.0248 Y9.6089 I0.25 J0.433
G2 X116.2748 Y10.0419 I0.5 J0.0
G2 X116.7748 I0.25 J-0.433
G1 F20.0 Z-2.0
G2 F150.0 X117.0248 Y9.6089 I-0.25 J-0.433
G2 X116.7748 Y9.1759 I-0.5 J0.0
G2 X116.2748 I-0.25 J0.433
G2 X116.0248 Y9.6089 I0.25 J0.433
G2 X116.2748 Y10.0419 I0.5 J0.0
G2 X116.7748 I0.25 J-0.433
G1 F20.0 Z-3.0
G2 F150.0 X117.0248 Y9.6089 I-0.25 J-0.433
G2 X116.7748 Y9.1759 I-0.5 J0.0
G2 X116.2748 I-0.25 J0.433
G2 X116.0248 Y9.6089 I0.25 J0.433
G2 X116.2748 Y10.0419 I0.5 J0.0
G2 X116.7748 I0.25 J-0.433
G1 F20.0 Z-4.0
G2 F150.0 X117.0248 Y9.6089 I-0.25 J-0.433
G2 X116.7748 Y9.1759 I-0.5 J0.0
G2 X116.2748 I-0.25 J0.433
G2 X116.0248 Y9.6089 I0.25 J0.433
G2 X116.2748 Y10.0419 I0.5 J0.0
G2 X116.7748 I0.25 J-0.433
G1 F20.0 Z-5.0
G2 F150.0 X117.0248 Y9.6089 I-0.25 J-0.433
G2 X116.7748 Y9.1759 I-0.5 J0.0
G2 X116.2748 I-0.25 J0.433
G2 X116.0248 Y9.6089 I0.25 J0.433
G2 X116.2748 Y10.0419 I0.5 J0.0
G2 X116.7748 I0.25 J-0.433
G0 Z3.0
G0 X136.0249 Y9.6199
G0 Z1.0
G1 F20.0 Z-1.0
G2 F150.0 X136.2748 Y10.0419 I0.4999 J-0.011
G2 X136.7748 I0.25 J-0.433
G2 X137.0248 Y9.6089 I-0.25 J-0.433
G2 X136.7748 Y9.1759 I-0.5 J0.0
G2 X136.2748 I-0.25 J0.433
G2 X136.0248 Y9.6089 I0.25 J0.433
G2 X136.0249 Y9.6199 I0.5 J0.0
G1 F20.0 Z-2.0
G2 F150.0 X136.2748 Y10.0419 I0.4999 J-0.011
G2 X136.7748 I0.25 J-0.433
G2 X137.0248 Y9.6089 I-0.25 J-0.433
G2 X136.7748 Y9.1759 I-0.5 J0.0
G2 X136.2748 I-0.25 J0.433
G2 X136.0248 Y9.6089 I0.25 J0.433
G2 X136.0249 Y9.6199 I0.5 J0.0
G1 F20.0 Z-3.0
G2 F150.0 X136.2748 Y10.0419 I0.4999 J-0.011
G2 X136.7748 I0.25 J-0.433
G2 X137.0248 Y9.6089 I-0.25 J-0.433
G2 X136.7748 Y9.1759 I-0.5 J0.0
G2 X136.2748 I-0.25 J0.433
G2 X136.0248 Y9.6089 I0.25 J0.433
G2 X136.0249 Y9.6199 I0.5 J0.0
G1 F20.0 Z-4.0
G2 F150.0 X136.2748 Y10.0419 I0.4999 J-0.011
G2 X136.7748 I0.25 J-0.433
G2 X137.0248 Y9.6089 I-0.25 J-0.433
G2 X136.7748 Y9.1759 I-0.5 J0.0
G2 X136.2748 I-0.25 J0.433
G2 X136.0248 Y9.6089 I0.25 J0.433
G2 X136.0249 Y9.6199 I0.5 J0.0
G1 F20.0 Z-5.0
G2 F150.0 X136.2748 Y10.0419 I0.4999 J-0.011
G2 X136.7748 I0.25 J-0.433
G2 X137.0248 Y9.6089 I-0.25 J-0.433
G2 X136.7748 Y9.1759 I-0.5 J0.0
G2 X136.2748 I-0.25 J0.433
G2 X136.0248 Y9.6089 I0.25 J0.433
G2 X136.0249 Y9.6199 I0.5 J0.0
G0 F200
( Contour6 )
S1000
G0 Z3.0
G0 X167.5248 Y14.6089
G0 Z1.0
G1 F20.0 Z-1.0
G1 F150.0 Y19.6089
G3 X166.5248 Y20.6089 I-1.0 J0.0
G1 X151.5248
G3 X150.5248 Y19.6089 I0.0 J-1.0
G1 Y15.6089
G1 X122.5248
G1 Y19.6089
G3 X121.5248 Y20.6089 I-1.0 J0.0
G1 X106.5248
G3 X105.5248 Y19.6089 I0.0 J-1.0
G1 Y4.6089
G3 X106.5248 Y3.6089 I1.0 J0.0
G1 X166.5248
G3 X167.5248 Y4.6089 I0.0 J1.0
G1 Y9.6089
G3 X166.5248 Y10.6089 I-1.0 J0.0
G1 X162.5248
G1 Y13.6089
G1 X166.5248
G3 X167.5248 Y14.6089 I0.0 J1.0
G1 F20.0 Z-2.0
G1 F150.0 Y19.6089
G3 X166.5248 Y20.6089 I-1.0 J0.0
G1 X151.5248
G3 X150.5248 Y19.6089 I0.0 J-1.0
G1 Y15.6089
G1 X122.5248
G1 Y19.6089
G3 X121.5248 Y20.6089 I-1.0 J0.0
G1 X106.5248
G3 X105.5248 Y19.6089 I0.0 J-1.0
G1 Y4.6089
G3 X106.5248 Y3.6089 I1.0 J0.0
G1 X166.5248
G3 X167.5248 Y4.6089 I0.0 J1.0
G1 Y9.6089
G3 X166.5248 Y10.6089 I-1.0 J0.0
G1 X162.5248
G1 Y13.6089
G1 X166.5248
G3 X167.5248 Y14.6089 I0.0 J1.0
G1 F20.0 Z-3.0
G1 F150.0 Y19.6089
G3 X166.5248 Y20.6089 I-1.0 J0.0
G1 X160.5
G1 X159.0 Z-2.0
G1 X157.0
G1 X155.5 Z-3.0
G1 X151.5248
G3 X150.5248 Y19.6089 I0.0 J-1.0
G1 Y15.6089
G1 X122.5248
G1 Y19.6089
G3 X121.5248 Y20.6089 I-1.0 J0.0
G1 X114.0248
G1 X112.5248 Z-2.0
G1 X110.5248
G1 X109.0248 Z-3.0
G1 X106.5248
G3 X105.5248 Y19.6089 I0.0 J-1.0
G1 Y4.6089
G3 X106.5248 Y3.6089 I1.0 J0.0
G1 X108.5
G1 X110.0 Z-2.0
G1 X112.0
G1 X113.5 Z-3.0
G1 X156.5
G1 X158.0 Z-2.0
G1 X160.0
G1 X161.5 Z-3.0
G1 X166.5248
G3 X167.5248 Y4.6089 I0.0 J1.0
G1 Y9.6089
G3 X166.5248 Y10.6089 I-1.0 J0.0
G1 X162.5248
G1 Y13.6089
G1 X166.5248
G3 X167.5248 Y14.6089 I0.0 J1.0
G1 F20.0 Z-4.0
G1 F150.0 Y19.6089
G3 X166.5248 Y20.6089 I-1.0 J0.0
G1 X160.5
G1 X159.0 Z-2.0
G1 X157.0
G1 X155.5 Z-4.0
G1 X151.5248
G3 X150.5248 Y19.6089 I0.0 J-1.0
G1 Y15.6089
G1 X122.5248
G1 Y19.6089
G3 X121.5248 Y20.6089 I-1.0 J0.0
G1 X114.0248
G1 X112.5248 Z-2.0
G1 X110.5248
G1 X109.0248 Z-4.0
G1 X106.5248
G3 X105.5248 Y19.6089 I0.0 J-1.0
G1 Y4.6089
G3 X106.5248 Y3.6089 I1.0 J0.0
G1 X108.5
G1 X110.0 Z-2.0
G1 X112.0
G1 X113.5 Z-4.0
G1 X156.5
G1 X158.0 Z-2.0
G1 X160.0
G1 X161.5 Z-4.0
G1 X166.5248
G3 X167.5248 Y4.6089 I0.0 J1.0
G1 Y9.6089
G3 X166.5248 Y10.6089 I-1.0 J0.0
G1 X162.5248
G1 Y13.6089
G1 X166.5248
G3 X167.5248 Y14.6089 I0.0 J1.0
G1 F20.0 Z-5.0
G1 F150.0 Y19.6089
G3 X166.5248 Y20.6089 I-1.0 J0.0
G1 X160.5
G1 X159.0 Z-2.0
G1 X157.0
G1 X155.5 Z-5.0
G1 X151.5248
G3 X150.5248 Y19.6089 I0.0 J-1.0
G1 Y15.6089
G1 X122.5248
G1 Y19.6089
G3 X121.5248 Y20.6089 I-1.0 J0.0
G1 X114.0248
G1 X112.5248 Z-2.0
G1 X110.5248
G1 X109.0248 Z-5.0
G1 X106.5248
G3 X105.5248 Y19.6089 I0.0 J-1.0
G1 Y4.6089
G3 X106.5248 Y3.6089 I1.0 J0.0
G1 X108.5
G1 X110.0 Z-2.0
G1 X112.0
G1 X113.5 Z-5.0
G1 X156.5
G1 X158.0 Z-2.0
G1 X160.0
G1 X161.5 Z-5.0
G1 X166.5248
G3 X167.5248 Y4.6089 I0.0 J1.0
G1 Y9.6089
G3 X166.5248 Y10.6089 I-1.0 J0.0
G1 X162.5248
G1 Y13.6089
G1 X166.5248
G3 X167.5248 Y14.6089 I0.0 J1.0
G0 F200
( Contour7 )
S1000
G0 Z3.0
G0 X166.2715 Y34.8784
G0 Z1.0
G1 F20.0 Z-1.0
G1 F150.0 X162.2715
G1 Y42.8784
G1 X166.2715
G3 X167.2715 Y43.8784 I0.0 J1.0
G1 Y48.8784
G3 X166.2715 Y49.8784 I-1.0 J0.0
G1 X106.2715
G3 X105.2715 Y48.8784 I0.0 J-1.0
G1 Y28.8784
G3 X106.2715 Y27.8784 I1.0 J0.0
G1 X120.2715
G1 Y23.8784
G3 X121.2715 Y22.8784 I1.0 J0.0
G1 X151.2715
G3 X152.2715 Y23.8784 I0.0 J1.0
G1 Y27.8784
G1 X166.2715
G3 X167.2715 Y28.8784 I0.0 J1.0
G1 Y33.8784
G3 X166.2715 Y34.8784 I-1.0 J0.0
G1 F20.0 Z-2.0
G1 F150.0 X162.2715
G1 Y42.8784
G1 X166.2715
G3 X167.2715 Y43.8784 I0.0 J1.0
G1 Y48.8784
G3 X166.2715 Y49.8784 I-1.0 J0.0
G1 X106.2715
G3 X105.2715 Y48.8784 I0.0 J-1.0
G1 Y28.8784
G3 X106.2715 Y27.8784 I1.0 J0.0
G1 X120.2715
G1 Y23.8784
G3 X121.2715 Y22.8784 I1.0 J0.0
G1 X151.2715
G3 X152.2715 Y23.8784 I0.0 J1.0
G1 Y27.8784
G1 X166.2715
G3 X167.2715 Y28.8784 I0.0 J1.0
G1 Y33.8784
G3 X166.2715 Y34.8784 I-1.0 J0.0
G1 F20.0 Z-3.0
G1 F150.0 X162.2715
G1 Y42.8784
G1 X166.2715
G3 X167.2715 Y43.8784 I0.0 J1.0
G1 Y48.8784
G3 X166.2715 Y49.8784 I-1.0 J0.0
G1 X153.7715
G1 X152.2715 Z-2.0
G1 X150.2715
G1 X148.7715 Z-3.0
G1 X113.7715
G1 X112.2715 Z-2.0
G1 X110.2715
G1 X108.7715 Z-3.0
G1 X106.2715
G3 X105.2715 Y48.8784 I0.0 J-1.0
G1 Y41.5
G1 Y40.0 Z-2.0
G1 Y38.0
G1 Y36.5 Z-3.0
G1 Y28.8784
G3 X106.2715 Y27.8784 I1.0 J0.0
G1 X109.5
G1 X111.0 Z-2.0
G1 X113.0
G1 X114.5 Z-3.0
G1 X120.2715
G1 Y23.8784
G3 X121.2715 Y22.8784 I1.0 J0.0
G1 X151.2715
G3 X152.2715 Y23.8784 I0.0 J1.0
G1 Y27.8784
G1 X155.5
G1 X157.0 Z-2.0
G1 X159.0
G1 X160.5 Z-3.0
G1 X166.2715
G3 X167.2715 Y28.8784 I0.0 J1.0
G1 Y33.8784
G3 X166.2715 Y34.8784 I-1.0 J0.0
G1 F20.0 Z-4.0
G1 F150.0 X162.2715
G1 Y42.8784
G1 X166.2715
G3 X167.2715 Y43.8784 I0.0 J1.0
G1 Y48.8784
G3 X166.2715 Y49.8784 I-1.0 J0.0
G1 X153.7715
G1 X152.2715 Z-2.0
G1 X150.2715
G1 X148.7715 Z-4.0
G1 X113.7715
G1 X112.2715 Z-2.0
G1 X110.2715
G1 X108.7715 Z-4.0
G1 X106.2715
G3 X105.2715 Y48.8784 I0.0 J-1.0
G1 Y41.5
G1 Y40.0 Z-2.0
G1 Y38.0
G1 Y36.5 Z-4.0
G1 Y28.8784
G3 X106.2715 Y27.8784 I1.0 J0.0
G1 X109.5
G1 X111.0 Z-2.0
G1 X113.0
G1 X114.5 Z-4.0
G1 X120.2715
G1 Y23.8784
G3 X121.2715 Y22.8784 I1.0 J0.0
G1 X151.2715
G3 X152.2715 Y23.8784 I0.0 J1.0
G1 Y27.8784
G1 X155.5
G1 X157.0 Z-2.0
G1 X159.0
G1 X160.5 Z-4.0
G1 X166.2715
G3 X167.2715 Y28.8784 I0.0 J1.0
G1 Y33.8784
G3 X166.2715 Y34.8784 I-1.0 J0.0
G1 F20.0 Z-5.0
G1 F150.0 X162.2715
G1 Y42.8784
G1 X166.2715
G3 X167.2715 Y43.8784 I0.0 J1.0
G1 Y48.8784
G3 X166.2715 Y49.8784 I-1.0 J0.0
G1 X153.7715
G1 X152.2715 Z-2.0
G1 X150.2715
G1 X148.7715 Z-5.0
G1 X113.7715
G1 X112.2715 Z-2.0
G1 X110.2715
G1 X108.7715 Z-5.0
G1 X106.2715
G3 X105.2715 Y48.8784 I0.0 J-1.0
G1 Y41.5
G1 Y40.0 Z-2.0
G1 Y38.0
G1 Y36.5 Z-5.0
G1 Y28.8784
G3 X106.2715 Y27.8784 I1.0 J0.0
G1 X109.5
G1 X111.0 Z-2.0
G1 X113.0
G1 X114.5 Z-5.0
G1 X120.2715
G1 Y23.8784
G3 X121.2715 Y22.8784 I1.0 J0.0
G1 X151.2715
G3 X152.2715 Y23.8784 I0.0 J1.0
G1 Y27.8784
G1 X155.5
G1 X157.0 Z-2.0
G1 X159.0
G1 X160.5 Z-5.0
G1 X166.2715
G3 X167.2715 Y28.8784 I0.0 J1.0
G1 Y33.8784
G3 X166.2715 Y34.8784 I-1.0 J0.0
G0 F200
( Contour8 )
S1000
G0 Z3.0
G0 X82.4603 Y34.2033
G0 Z1.0
G1 F20.0 Z-1.0
G1 F150.0 X78.4603
G1 Y42.2033
G1 X82.4603
G3 X83.4603 Y43.2033 I0.0 J1.0
G1 Y48.2033
G3 X82.4603 Y49.2033 I-1.0 J0.0
G1 X22.4603
G3 X21.4603 Y48.2033 I0.0 J-1.0
G1 Y28.2033
G3 X22.4603 Y27.2033 I1.0 J0.0
G1 X36.4603
G1 Y23.2033
G3 X37.4603 Y22.2033 I1.0 J0.0
G1 X67.4603
G3 X68.4603 Y23.2033 I0.0 J1.0
G1 Y27.2033
G1 X82.4603
G3 X83.4603 Y28.2033 I0.0 J1.0
G1 Y33.2033
G3 X82.4603 Y34.2033 I-1.0 J0.0
G1 F20.0 Z-2.0
G1 F150.0 X78.4603
G1 Y42.2033
G1 X82.4603
G3 X83.4603 Y43.2033 I0.0 J1.0
G1 Y48.2033
G3 X82.4603 Y49.2033 I-1.0 J0.0
G1 X22.4603
G3 X21.4603 Y48.2033 I0.0 J-1.0
G1 Y28.2033
G3 X22.4603 Y27.2033 I1.0 J0.0
G1 X36.4603
G1 Y23.2033
G3 X37.4603 Y22.2033 I1.0 J0.0
G1 X67.4603
G3 X68.4603 Y23.2033 I0.0 J1.0
G1 Y27.2033
G1 X82.4603
G3 X83.4603 Y28.2033 I0.0 J1.0
G1 Y33.2033
G3 X82.4603 Y34.2033 I-1.0 J0.0
G1 F20.0 Z-3.0
G1 F150.0 X78.4603
G1 Y42.2033
G1 X82.4603
G3 X83.4603 Y43.2033 I0.0 J1.0
G1 Y48.2033
G3 X82.4603 Y49.2033 I-1.0 J0.0
G1 X73.5
G1 X72.0 Z-2.0
G1 X70.0
G1 X68.5 Z-3.0
G1 X31.5
G1 X30.0 Z-2.0
G1 X28.0
G1 X26.5 Z-3.0
G1 X22.4603
G3 X21.4603 Y48.2033 I0.0 J-1.0
G1 Y40.5
G1 Y39.0 Z-2.0
G1 Y37.0
G1 Y35.5 Z-3.0
G1 Y28.2033
G3 X22.4603 Y27.2033 I1.0 J0.0
G1 X24.5
G1 X26.0 Z-2.0
G1 X28.0
G1 X29.5 Z-3.0
G1 X36.4603
G1 Y23.2033
G3 X37.4603 Y22.2033 I1.0 J0.0
G1 X67.4603
G3 X68.4603 Y23.2033 I0.0 J1.0
G1 Y27.2033
G1 X73.5
G1 X75.0 Z-2.0
G1 X77.0
G1 X78.5 Z-3.0
G1 X82.4603
G3 X83.4603 Y28.2033 I0.0 J1.0
G1 Y33.2033
G3 X82.4603 Y34.2033 I-1.0 J0.0
G1 F20.0 Z-4.0
G1 F150.0 X78.4603
G1 Y42.2033
G1 X82.4603
G3 X83.4603 Y43.2033 I0.0 J1.0
G1 Y48.2033
G3 X82.4603 Y49.2033 I-1.0 J0.0
G1 X73.5
G1 X72.0 Z-2.0
G1 X70.0
G1 X68.5 Z-4.0
G1 X31.5
G1 X30.0 Z-2.0
G1 X28.0
G1 X26.5 Z-4.0
G1 X22.4603
G3 X21.4603 Y48.2033 I0.0 J-1.0
G1 Y40.5
G1 Y39.0 Z-2.0
G1 Y37.0
G1 Y35.5 Z-4.0
G1 Y28.2033
G3 X22.4603 Y27.2033 I1.0 J0.0
G1 X24.5
G1 X26.0 Z-2.0
G1 X28.0
G1 X29.5 Z-4.0
G1 X36.4603
G1 Y23.2033
G3 X37.4603 Y22.2033 I1.0 J0.0
G1 X67.4603
G3 X68.4603 Y23.2033 I0.0 J1.0
G1 Y27.2033
G1 X73.5
G1 X75.0 Z-2.0
G1 X77.0
G1 X78.5 Z-4.0
G1 X82.4603
G3 X83.4603 Y28.2033 I0.0 J1.0
G1 Y33.2033
G3 X82.4603 Y34.2033 I-1.0 J0.0
G1 F20.0 Z-5.0
G1 F150.0 X78.4603
G1 Y42.2033
G1 X82.4603
G3 X83.4603 Y43.2033 I0.0 J1.0
G1 Y48.2033
G3 X82.4603 Y49.2033 I-1.0 J0.0
G1 X73.5
G1 X72.0 Z-2.0
G1 X70.0
G1 X68.5 Z-5.0
G1 X31.5
G1 X30.0 Z-2.0
G1 X28.0
G1 X26.5 Z-5.0
G1 X22.4603
G3 X21.4603 Y48.2033 I0.0 J-1.0
G1 Y40.5
G1 Y39.0 Z-2.0
G1 Y37.0
G1 Y35.5 Z-5.0
G1 Y28.2033
G3 X22.4603 Y27.2033 I1.0 J0.0
G1 X24.5
G1 X26.0 Z-2.0
G1 X28.0
G1 X29.5 Z-5.0
G1 X36.4603
G1 Y23.2033
G3 X37.4603 Y22.2033 I1.0 J0.0
G1 X67.4603
G3 X68.4603 Y23.2033 I0.0 J1.0
G1 Y27.2033
G1 X73.5
G1 X75.0 Z-2.0
G1 X77.0
G1 X78.5 Z-5.0
G1 X82.4603
G3 X83.4603 Y28.2033 I0.0 J1.0
G1 Y33.2033
G3 X82.4603 Y34.2033 I-1.0 J0.0
G0 F200
( Contour9 )
S1000
G0 Z3.0
G0 X8.1002 Y75.2887
G0 Z1.0
G1 F20.0 Z-1.0
G1 F150.0 X4.1002 Y75.2677
G3 X3.1055 Y74.2625 I0.0052 J-1.0
G1 X3.2103 Y54.2628
G3 X4.2156 Y53.268 I1.0 J0.0052
G1 X14.2154 Y53.3204
G3 X15.2102 Y54.3257 I-0.0052 J1.0
G1 X15.1892 Y58.3256
G1 X19.1892 Y58.3466
G3 X20.1839 Y59.3518 I-0.0052 J1.0
G1 X20.1315 Y69.3517
G3 X19.1262 Y70.3464 I-1.0 J-0.0052
G1 X15.1263 Y70.3254
G1 X15.0791 Y79.3253
G3 X14.0739 Y80.3201 I-1.0 J-0.0052
G1 X9.074 Y80.2939
G3 X8.0792 Y79.2886 I0.0052 J-1.0
G1 X8.1002 Y75.2887
G1 F20.0 Z-2.0
G1 F150.0 X4.1002 Y75.2677
G3 X3.1055 Y74.2625 I0.0052 J-1.0
G1 X3.2103 Y54.2628
G3 X4.2156 Y53.268 I1.0 J0.0052
G1 X14.2154 Y53.3204
G3 X15.2102 Y54.3257 I-0.0052 J1.0
G1 X15.1892 Y58.3256
G1 X19.1892 Y58.3466
G3 X20.1839 Y59.3518 I-0.0052 J1.0
G1 X20.1315 Y69.3517
G3 X19.1262 Y70.3464 I-1.0 J-0.0052
G1 X15.1263 Y70.3254
G1 X15.0791 Y79.3253
G3 X14.0739 Y80.3201 I-1.0 J-0.0052
G1 X9.074 Y80.2939
G3 X8.0792 Y79.2886 I0.0052 J-1.0
G1 X8.1002 Y75.2887
G1 F20.0 Z-3.0
G1 F150.0 X4.1002 Y75.2677
G3 X3.1055 Y74.2625 I0.0052 J-1.0
G1 X3.1361 Y68.4292
G1 X3.1439 Y66.9292 Z-2.0
G1 X3.1544 Y64.9293
G1 X3.1623 Y63.4293 Z-3.0
G1 X3.2103 Y54.2628
G3 X4.2156 Y53.268 I1.0 J0.0052
G1 X6.4828 Y53.2799
G1 X7.9828 Y53.2878 Z-2.0
G1 X9.9827 Y53.2982
G1 X11.4827 Y53.3061 Z-3.0
G1 X14.2154 Y53.3204
G3 X15.2102 Y54.3257 I-0.0052 J1.0
G1 X15.1892 Y58.3256
G1 X19.1892 Y58.3466
G3 X20.1839 Y59.3518 I-0.0052 J1.0
G1 X20.1315 Y69.3517
G3 X19.1262 Y70.3464 I-1.0 J-0.0052
G1 X15.1263 Y70.3254
G1 X15.1097 Y73.4921
G1 X15.1018 Y74.992 Z-2.0
G1 X15.0913 Y76.992
G1 X15.0835 Y78.492 Z-3.0
G1 X15.0791 Y79.3253
G3 X14.0739 Y80.3201 I-1.0 J-0.0052
G1 X9.074 Y80.2939
G3 X8.0792 Y79.2886 I0.0052 J-1.0
G1 X8.1002 Y75.2887
G1 F20.0 Z-4.0
G1 F150.0 X4.1002 Y75.2677
G3 X3.1055 Y74.2625 I0.0052 J-1.0
G1 X3.1361 Y68.4292
G1 X3.1439 Y66.9292 Z-2.0
G1 X3.1544 Y64.9293
G1 X3.1623 Y63.4293 Z-4.0
G1 X3.2103 Y54.2628
G3 X4.2156 Y53.268 I1.0 J0.0052
G1 X6.4828 Y53.2799
G1 X7.9828 Y53.2878 Z-2.0
G1 X9.9827 Y53.2982
G1 X11.4827 Y53.3061 Z-4.0
G1 X14.2154 Y53.3204
G3 X15.2102 Y54.3257 I-0.0052 J1.0
G1 X15.1892 Y58.3256
G1 X19.1892 Y58.3466
G3 X20.1839 Y59.3518 I-0.0052 J1.0
G1 X20.1315 Y69.3517
G3 X19.1262 Y70.3464 I-1.0 J-0.0052
G1 X15.1263 Y70.3254
G1 X15.1097 Y73.4921
G1 X15.1018 Y74.992 Z-2.0
G1 X15.0913 Y76.992
G1 X15.0835 Y78.492 Z-4.0
G1 X15.0791 Y79.3253
G3 X14.0739 Y80.3201 I-1.0 J-0.0052
G1 X9.074 Y80.2939
G3 X8.0792 Y79.2886 I0.0052 J-1.0
G1 X8.1002 Y75.2887
G1 F20.0 Z-5.0
G1 F150.0 X4.1002 Y75.2677
G3 X3.1055 Y74.2625 I0.0052 J-1.0
G1 X3.1361 Y68.4292
G1 X3.1439 Y66.9292 Z-2.0
G1 X3.1544 Y64.9293
G1 X3.1623 Y63.4293 Z-5.0
G1 X3.2103 Y54.2628
G3 X4.2156 Y53.268 I1.0 J0.0052
G1 X6.4828 Y53.2799
G1 X7.9828 Y53.2878 Z-2.0
G1 X9.9827 Y53.2982
G1 X11.4827 Y53.3061 Z-5.0
G1 X14.2154 Y53.3204
G3 X15.2102 Y54.3257 I-0.0052 J1.0
G1 X15.1892 Y58.3256
G1 X19.1892 Y58.3466
G3 X20.1839 Y59.3518 I-0.0052 J1.0
G1 X20.1315 Y69.3517
G3 X19.1262 Y70.3464 I-1.0 J-0.0052
G1 X15.1263 Y70.3254
G1 X15.1097 Y73.4921
G1 X15.1018 Y74.992 Z-2.0
G1 X15.0913 Y76.992
G1 X15.0835 Y78.492 Z-5.0
G1 X15.0791 Y79.3253
G3 X14.0739 Y80.3201 I-1.0 J-0.0052
G1 X9.074 Y80.2939
G3 X8.0792 Y79.2886 I0.0052 J-1.0
G1 X8.1002 Y75.2887
G0 F200
( Contour10 )
S1000
G0 Z3.0
G0 X32.513 Y60.0154
G0 Z1.0
G1 F20.0 Z-1.0
G2 F150.0 X32.763 Y59.5824 I-0.25 J-0.433
G2 X32.513 Y59.1494 I-0.5 J0.0
G2 X32.013 I-0.25 J0.433
G2 X31.763 Y59.5824 I0.25 J0.433
G2 X32.013 Y60.0154 I0.5 J0.0
G2 X32.513 I0.25 J-0.433
G1 F20.0 Z-2.0
G2 F150.0 X32.763 Y59.5824 I-0.25 J-0.433
G2 X32.513 Y59.1494 I-0.5 J0.0
G2 X32.013 I-0.25 J0.433
G2 X31.763 Y59.5824 I0.25 J0.433
G2 X32.013 Y60.0154 I0.5 J0.0
G2 X32.513 I0.25 J-0.433
G1 F20.0 Z-3.0
G2 F150.0 X32.763 Y59.5824 I-0.25 J-0.433
G2 X32.513 Y59.1494 I-0.5 J0.0
G2 X32.013 I-0.25 J0.433
G2 X31.763 Y59.5824 I0.25 J0.433
G2 X32.013 Y60.0154 I0.5 J0.0
G2 X32.513 I0.25 J-0.433
G1 F20.0 Z-4.0
G2 F150.0 X32.763 Y59.5824 I-0.25 J-0.433
G2 X32.513 Y59.1494 I-0.5 J0.0
G2 X32.013 I-0.25 J0.433
G2 X31.763 Y59.5824 I0.25 J0.433
G2 X32.013 Y60.0154 I0.5 J0.0
G2 X32.513 I0.25 J-0.433
G1 F20.0 Z-5.0
G2 F150.0 X32.763 Y59.5824 I-0.25 J-0.433
G2 X32.513 Y59.1494 I-0.5 J0.0
G2 X32.013 I-0.25 J0.433
G2 X31.763 Y59.5824 I0.25 J0.433
G2 X32.013 Y60.0154 I0.5 J0.0
G2 X32.513 I0.25 J-0.433
G0 Z3.0
G0 X51.7631 Y59.5934
G0 Z1.0
G1 F20.0 Z-1.0
G2 F150.0 X52.013 Y60.0154 I0.4999 J-0.011
G2 X52.513 I0.25 J-0.433
G2 X52.763 Y59.5824 I-0.25 J-0.433
G2 X52.513 Y59.1494 I-0.5 J0.0
G2 X52.013 I-0.25 J0.433
G2 X51.763 Y59.5824 I0.25 J0.433
G2 X51.7631 Y59.5934 I0.5 J0.0
G1 F20.0 Z-2.0
G2 F150.0 X52.013 Y60.0154 I0.4999 J-0.011
G2 X52.513 I0.25 J-0.433
G2 X52.763 Y59.5824 I-0.25 J-0.433
G2 X52.513 Y59.1494 I-0.5 J0.0
G2 X52.013 I-0.25 J0.433
G2 X51.763 Y59.5824 I0.25 J0.433
G2 X51.7631 Y59.5934 I0.5 J0.0
G1 F20.0 Z-3.0
G2 F150.0 X52.013 Y60.0154 I0.4999 J-0.011
G2 X52.513 I0.25 J-0.433
G2 X52.763 Y59.5824 I-0.25 J-0.433
G2 X52.513 Y59.1494 I-0.5 J0.0
G2 X52.013 I-0.25 J0.433
G2 X51.763 Y59.5824 I0.25 J0.433
G2 X51.7631 Y59.5934 I0.5 J0.0
G1 F20.0 Z-4.0
G2 F150.0 X52.013 Y60.0154 I0.4999 J-0.011
G2 X52.513 I0.25 J-0.433
G2 X52.763 Y59.5824 I-0.25 J-0.433
G2 X52.513 Y59.1494 I-0.5 J0.0
G2 X52.013 I-0.25 J0.433
G2 X51.763 Y59.5824 I0.25 J0.433
G2 X51.7631 Y59.5934 I0.5 J0.0
G1 F20.0 Z-5.0
G2 F150.0 X52.013 Y60.0154 I0.4999 J-0.011
G2 X52.513 I0.25 J-0.433
G2 X52.763 Y59.5824 I-0.25 J-0.433
G2 X52.513 Y59.1494 I-0.5 J0.0
G2 X52.013 I-0.25 J0.433
G2 X51.763 Y59.5824 I0.25 J0.433
G2 X51.7631 Y59.5934 I0.5 J0.0
G0 F200
( Contour11 )
S1000
G0 Z3.0
G0 X82.263 Y60.5824
G0 Z1.0
G1 F20.0 Z-1.0
G1 F150.0 X78.263
G1 Y63.5824
G1 X82.263
G3 X83.263 Y64.5824 I0.0 J1.0
G1 Y69.5824
G3 X82.263 Y70.5824 I-1.0 J0.0
G1 X67.263
G3 X66.263 Y69.5824 I0.0 J-1.0
G1 Y65.5824
G1 X38.263
G1 Y69.5824
G3 X37.263 Y70.5824 I-1.0 J0.0
G1 X22.263
G3 X21.263 Y69.5824 I0.0 J-1.0
G1 Y54.5824
G3 X22.263 Y53.5824 I1.0 J0.0
G1 X82.263
G3 X83.263 Y54.5824 I0.0 J1.0
G1 Y59.5824
G3 X82.263 Y60.5824 I-1.0 J0.0
G1 F20.0 Z-2.0
G1 F150.0 X78.263
G1 Y63.5824
G1 X82.263
G3 X83.263 Y64.5824 I0.0 J1.0
G1 Y69.5824
G3 X82.263 Y70.5824 I-1.0 J0.0
G1 X67.263
G3 X66.263 Y69.5824 I0.0 J-1.0
G1 Y65.5824
G1 X38.263
G1 Y69.5824
G3 X37.263 Y70.5824 I-1.0 J0.0
G1 X22.263
G3 X21.263 Y69.5824 I0.0 J-1.0
G1 Y54.5824
G3 X22.263 Y53.5824 I1.0 J0.0
G1 X82.263
G3 X83.263 Y54.5824 I0.0 J1.0
G1 Y59.5824
G3 X82.263 Y60.5824 I-1.0 J0.0
G1 F20.0 Z-3.0
G1 F150.0 X78.263
G1 Y63.5824
G1 X82.263
G3 X83.263 Y64.5824 I0.0 J1.0
G1 Y69.5824
G3 X82.263 Y70.5824 I-1.0 J0.0
G1 X77.5
G1 X76.0 Z-2.0
G1 X74.0
G1 X72.5 Z-3.0
G1 X67.263
G3 X66.263 Y69.5824 I0.0 J-1.0
G1 Y65.5824
G1 X38.263
G1 Y69.5824
G3 X37.263 Y70.5824 I-1.0 J0.0
G1 X30.5
G1 X29.0 Z-2.0
G1 X27.0
G1 X25.5 Z-3.0
G1 X22.263
G3 X21.263 Y69.5824 I0.0 J-1.0
G1 Y54.5824
G3 X22.263 Y53.5824 I1.0 J0.0
G1 X26.5
G1 X28.0 Z-2.0
G1 X30.0
G1 X31.5 Z-3.0
G1 X68.5
G1 X70.0 Z-2.0
G1 X72.0
G1 X73.5 Z-3.0
G1 X82.263
G3 X83.263 Y54.5824 I0.0 J1.0
G1 Y59.5824
G3 X82.263 Y60.5824 I-1.0 J0.0
G1 F20.0 Z-4.0
G1 F150.0 X78.263
G1 Y63.5824
G1 X82.263
G3 X83.263 Y64.5824 I0.0 J1.0
G1 Y69.5824
G3 X82.263 Y70.5824 I-1.0 J0.0
G1 X77.5
G1 X76.0 Z-2.0
G1 X74.0
G1 X72.5 Z-4.0
G1 X67.263
G3 X66.263 Y69.5824 I0.0 J-1.0
G1 Y65.5824
G1 X38.263
G1 Y69.5824
G3 X37.263 Y70.5824 I-1.0 J0.0
G1 X30.5
G1 X29.0 Z-2.0
G1 X27.0
G1 X25.5 Z-4.0
G1 X22.263
G3 X21.263 Y69.5824 I0.0 J-1.0
G1 Y54.5824
G3 X22.263 Y53.5824 I1.0 J0.0
G1 X26.5
G1 X28.0 Z-2.0
G1 X30.0
G1 X31.5 Z-4.0
G1 X68.5
G1 X70.0 Z-2.0
G1 X72.0
G1 X73.5 Z-4.0
G1 X82.263
G3 X83.263 Y54.5824 I0.0 J1.0
G1 Y59.5824
G3 X82.263 Y60.5824 I-1.0 J0.0
G1 F20.0 Z-5.0
G1 F150.0 X78.263
G1 Y63.5824
G1 X82.263
G3 X83.263 Y64.5824 I0.0 J1.0
G1 Y69.5824
G3 X82.263 Y70.5824 I-1.0 J0.0
G1 X77.5
G1 X76.0 Z-2.0
G1 X74.0
G1 X72.5 Z-5.0
G1 X67.263
G3 X66.263 Y69.5824 I0.0 J-1.0
G1 Y65.5824
G1 X38.263
G1 Y69.5824
G3 X37.263 Y70.5824 I-1.0 J0.0
G1 X30.5
G1 X29.0 Z-2.0
G1 X27.0
G1 X25.5 Z-5.0
G1 X22.263
G3 X21.263 Y69.5824 I0.0 J-1.0
G1 Y54.5824
G3 X22.263 Y53.5824 I1.0 J0.0
G1 X26.5
G1 X28.0 Z-2.0
G1 X30.0
G1 X31.5 Z-5.0
G1 X68.5
G1 X70.0 Z-2.0
G1 X72.0
G1 X73.5 Z-5.0
G1 X82.263
G3 X83.263 Y54.5824 I0.0 J1.0
G1 Y59.5824
G3 X82.263 Y60.5824 I-1.0 J0.0
G0 F200
( Contour12 )
S1000
G0 Z3.0
G0 X91.9114 Y75.9638
G0 Z1.0
G1 F20.0 Z-1.0
G1 F150.0 X87.9115 Y75.9428
G3 X86.9167 Y74.9376 I0.0052 J-1.0
G1 X87.0216 Y54.9379
G3 X88.0268 Y53.9431 I1.0 J0.0052
G1 X98.0267 Y53.9956
G3 X99.0214 Y55.0008 I-0.0052 J1.0
G1 X99.0004 Y59.0007
G1 X103.0004 Y59.0217
G3 X103.9951 Y60.0269 I-0.0052 J1.0
G1 X103.9427 Y70.0268
G3 X102.9375 Y71.0215 I-1.0 J-0.0052
G1 X98.9375 Y71.0006
G1 X98.8904 Y80.0005
G3 X97.8851 Y80.9952 I-1.0 J-0.0052
G1 X92.8852 Y80.969
G3 X91.8905 Y79.9638 I0.0052 J-1.0
G1 X91.9114 Y75.9638
G1 F20.0 Z-2.0
G1 F150.0 X87.9115 Y75.9428
G3 X86.9167 Y74.9376 I0.0052 J-1.0
G1 X87.0216 Y54.9379
G3 X88.0268 Y53.9431 I1.0 J0.0052
G1 X98.0267 Y53.9956
G3 X99.0214 Y55.0008 I-0.0052 J1.0
G1 X99.0004 Y59.0007
G1 X103.0004 Y59.0217
G3 X103.9951 Y60.0269 I-0.0052 J1.0
G1 X103.9427 Y70.0268
G3 X102.9375 Y71.0215 I-1.0 J-0.0052
G1 X98.9375 Y71.0006
G1 X98.8904 Y80.0005
G3 X97.8851 Y80.9952 I-1.0 J-0.0052
G1 X92.8852 Y80.969
G3 X91.8905 Y79.9638 I0.0052 J-1.0
G1 X91.9114 Y75.9638
G1 F20.0 Z-3.0
G1 F150.0 X87.9115 Y75.9428
G3 X86.9167 Y74.9376 I0.0052 J-1.0
G1 X86.9473 Y69.1044
G1 X86.9552 Y67.6044 Z-2.0
G1 X86.9657 Y65.6044
G1 X86.9735 Y64.1044 Z-3.0
G1 X87.0216 Y54.9379
G3 X88.0268 Y53.9431 I1.0 J0.0052
G1 X91.4949 Y53.9613
G1 X92.9949 Y53.9692 Z-2.0
G1 X94.9949 Y53.9797
G1 X96.4949 Y53.9875 Z-3.0
G1 X98.0267 Y53.9956
G3 X99.0214 Y55.0008 I-0.0052 J1.0
G1 X99.0004 Y59.0007
G1 X103.0004 Y59.0217
G3 X103.9951 Y60.0269 I-0.0052 J1.0
G1 X103.9427 Y70.0268
G3 X102.9375 Y71.0215 I-1.0 J-0.0052
G1 X98.9375 Y71.0006
G1 X98.9297 Y72.5048
G1 X98.9218 Y74.0048 Z-2.0
G1 X98.9113 Y76.0048
G1 X98.9034 Y77.5048 Z-3.0
G1 X98.8904 Y80.0005
G3 X97.8851 Y80.9952 I-1.0 J-0.0052
G1 X92.8852 Y80.969
G3 X91.8905 Y79.9638 I0.0052 J-1.0
G1 X91.9114 Y75.9638
G1 F20.0 Z-4.0
G1 F150.0 X87.9115 Y75.9428
G3 X86.9167 Y74.9376 I0.0052 J-1.0
G1 X86.9473 Y69.1044
G1 X86.9552 Y67.6044 Z-2.0
G1 X86.9657 Y65.6044
G1 X86.9735 Y64.1044 Z-4.0
G1 X87.0216 Y54.9379
G3 X88.0268 Y53.9431 I1.0 J0.0052
G1 X91.4949 Y53.9613
G1 X92.9949 Y53.9692 Z-2.0
G1 X94.9949 Y53.9797
G1 X96.4949 Y53.9875 Z-4.0
G1 X98.0267 Y53.9956
G3 X99.0214 Y55.0008 I-0.0052 J1.0
G1 X99.0004 Y59.0007
G1 X103.0004 Y59.0217
G3 X103.9951 Y60.0269 I-0.0052 J1.0
G1 X103.9427 Y70.0268
G3 X102.9375 Y71.0215 I-1.0 J-0.0052
G1 X98.9375 Y71.0006
G1 X98.9297 Y72.5048
G1 X98.9218 Y74.0048 Z-2.0
G1 X98.9113 Y76.0048
G1 X98.9034 Y77.5048 Z-4.0
G1 X98.8904 Y80.0005
G3 X97.8851 Y80.9952 I-1.0 J-0.0052
G1 X92.8852 Y80.969
G3 X91.8905 Y79.9638 I0.0052 J-1.0
G1 X91.9114 Y75.9638
G1 F20.0 Z-5.0
G1 F150.0 X87.9115 Y75.9428
G3 X86.9167 Y74.9376 I0.0052 J-1.0
G1 X86.9473 Y69.1044
G1 X86.9552 Y67.6044 Z-2.0
G1 X86.9657 Y65.6044
G1 X86.9735 Y64.1044 Z-5.0
G1 X87.0216 Y54.9379
G3 X88.0268 Y53.9431 I1.0 J0.0052
G1 X91.4949 Y53.9613
G1 X92.9949 Y53.9692 Z-2.0
G1 X94.9949 Y53.9797
G1 X96.4949 Y53.9875 Z-5.0
G1 X98.0267 Y53.9956
G3 X99.0214 Y55.0008 I-0.0052 J1.0
G1 X99.0004 Y59.0007
G1 X103.0004 Y59.0217
G3 X103.9951 Y60.0269 I-0.0052 J1.0
G1 X103.9427 Y70.0268
G3 X102.9375 Y71.0215 I-1.0 J-0.0052
G1 X98.9375 Y71.0006
G1 X98.9297 Y72.5048
G1 X98.9218 Y74.0048 Z-2.0
G1 X98.9113 Y76.0048
G1 X98.9034 Y77.5048 Z-5.0
G1 X98.8904 Y80.0005
G3 X97.8851 Y80.9952 I-1.0 J-0.0052
G1 X92.8852 Y80.969
G3 X91.8905 Y79.9638 I0.0052 J-1.0
G1 X91.9114 Y75.9638
G0 F200
( Contour13 )
S1000
G0 Z3.0
G0 X116.3242 Y60.6906
G0 Z1.0
G1 F20.0 Z-1.0
G2 F150.0 X116.5742 Y60.2576 I-0.25 J-0.433
G2 X116.3242 Y59.8245 I-0.5 J0.0
G2 X115.8242 I-0.25 J0.433
G2 X115.5742 Y60.2576 I0.25 J0.433
G2 X115.8242 Y60.6906 I0.5 J0.0
G2 X116.3242 I0.25 J-0.433
G1 F20.0 Z-2.0
G2 F150.0 X116.5742 Y60.2576 I-0.25 J-0.433
G2 X116.3242 Y59.8245 I-0.5 J0.0
G2 X115.8242 I-0.25 J0.433
G2 X115.5742 Y60.2576 I0.25 J0.433
G2 X115.8242 Y60.6906 I0.5 J0.0
G2 X116.3242 I0.25 J-0.433
G1 F20.0 Z-3.0
G2 F150.0 X116.5742 Y60.2576 I-0.25 J-0.433
G2 X116.3242 Y59.8245 I-0.5 J0.0
G2 X115.8242 I-0.25 J0.433
G2 X115.5742 Y60.2576 I0.25 J0.433
G2 X115.8242 Y60.6906 I0.5 J0.0
G2 X116.3242 I0.25 J-0.433
G1 F20.0 Z-4.0
G2 F150.0 X116.5742 Y60.2576 I-0.25 J-0.433
G2 X116.3242 Y59.8245 I-0.5 J0.0
G2 X115.8242 I-0.25 J0.433
G2 X115.5742 Y60.2576 I0.25 J0.433
G2 X115.8242 Y60.6906 I0.5 J0.0
G2 X116.3242 I0.25 J-0.433
G1 F20.0 Z-5.0
G2 F150.0 X116.5742 Y60.2576 I-0.25 J-0.433
G2 X116.3242 Y59.8245 I-0.5 J0.0
G2 X115.8242 I-0.25 J0.433
G2 X115.5742 Y60.2576 I0.25 J0.433
G2 X115.8242 Y60.6906 I0.5 J0.0
G2 X116.3242 I0.25 J-0.433
G0 Z3.0
G0 X135.5744 Y60.2685
G0 Z1.0
G1 F20.0 Z-1.0
G2 F150.0 X135.8242 Y60.6906 I0.4999 J-0.011
G2 X136.3242 I0.25 J-0.433
G2 X136.5742 Y60.2576 I-0.25 J-0.433
G2 X136.3242 Y59.8245 I-0.5 J0.0
G2 X135.8242 I-0.25 J0.433
G2 X135.5742 Y60.2576 I0.25 J0.433
G2 X135.5744 Y60.2685 I0.5 J0.0
G1 F20.0 Z-2.0
G2 F150.0 X135.8242 Y60.6906 I0.4999 J-0.011
G2 X136.3242 I0.25 J-0.433
G2 X136.5742 Y60.2576 I-0.25 J-0.433
G2 X136.3242 Y59.8245 I-0.5 J0.0
G2 X135.8242 I-0.25 J0.433
G2 X135.5742 Y60.2576 I0.25 J0.433
G2 X135.5744 Y60.2685 I0.5 J0.0
G1 F20.0 Z-3.0
G2 F150.0 X135.8242 Y60.6906 I0.4999 J-0.011
G2 X136.3242 I0.25 J-0.433
G2 X136.5742 Y60.2576 I-0.25 J-0.433
G2 X136.3242 Y59.8245 I-0.5 J0.0
G2 X135.8242 I-0.25 J0.433
G2 X135.5742 Y60.2576 I0.25 J0.433
G2 X135.5744 Y60.2685 I0.5 J0.0
G1 F20.0 Z-4.0
G2 F150.0 X135.8242 Y60.6906 I0.4999 J-0.011
G2 X136.3242 I0.25 J-0.433
G2 X136.5742 Y60.2576 I-0.25 J-0.433
G2 X136.3242 Y59.8245 I-0.5 J0.0
G2 X135.8242 I-0.25 J0.433
G2 X135.5742 Y60.2576 I0.25 J0.433
G2 X135.5744 Y60.2685 I0.5 J0.0
G1 F20.0 Z-5.0
G2 F150.0 X135.8242 Y60.6906 I0.4999 J-0.011
G2 X136.3242 I0.25 J-0.433
G2 X136.5742 Y60.2576 I-0.25 J-0.433
G2 X136.3242 Y59.8245 I-0.5 J0.0
G2 X135.8242 I-0.25 J0.433
G2 X135.5742 Y60.2576 I0.25 J0.433
G2 X135.5744 Y60.2685 I0.5 J0.0
G0 F200
( Contour15 )
S1000
G0 Z3.0
G0 X166.0742 Y61.2576
G0 Z1.0
G1 F20.0 Z-1.0
G1 F150.0 X162.0742
G1 Y64.2576
G1 X166.0742
G3 X167.0742 Y65.2576 I0.0 J1.0
G1 Y70.2576
G3 X166.0742 Y71.2576 I-1.0 J0.0
G1 X151.0742
G3 X150.0742 Y70.2576 I0.0 J-1.0
G1 Y66.2576
G1 X122.0742
G1 Y70.2576
G3 X121.0742 Y71.2576 I-1.0 J0.0
G1 X106.0742
G3 X105.0742 Y70.2576 I0.0 J-1.0
G1 Y55.2576
G3 X106.0742 Y54.2576 I1.0 J0.0
G1 X166.0742
G3 X167.0742 Y55.2576 I0.0 J1.0
G1 Y60.2576
G3 X166.0742 Y61.2576 I-1.0 J0.0
G1 F20.0 Z-2.0
G1 F150.0 X162.0742
G1 Y64.2576
G1 X166.0742
G3 X167.0742 Y65.2576 I0.0 J1.0
G1 Y70.2576
G3 X166.0742 Y71.2576 I-1.0 J0.0
G1 X151.0742
G3 X150.0742 Y70.2576 I0.0 J-1.0
G1 Y66.2576
G1 X122.0742
G1 Y70.2576
G3 X121.0742 Y71.2576 I-1.0 J0.0
G1 X106.0742
G3 X105.0742 Y70.2576 I0.0 J-1.0
G1 Y55.2576
G3 X106.0742 Y54.2576 I1.0 J0.0
G1 X166.0742
G3 X167.0742 Y55.2576 I0.0 J1.0
G1 Y60.2576
G3 X166.0742 Y61.2576 I-1.0 J0.0
G1 F20.0 Z-3.0
G1 F150.0 X162.0742
G1 Y64.2576
G1 X166.0742
G3 X167.0742 Y65.2576 I0.0 J1.0
G1 Y70.2576
G3 X166.0742 Y71.2576 I-1.0 J0.0
G1 X158.5742
G1 X157.0742 Z-2.0
G1 X155.0742
G1 X153.5742 Z-3.0
G1 X151.0742
G3 X150.0742 Y70.2576 I0.0 J-1.0
G1 Y66.2576
G1 X122.0742
G1 Y70.2576
G3 X121.0742 Y71.2576 I-1.0 J0.0
G1 X114.5
G1 X113.0 Z-2.0
G1 X111.0
G1 X109.5 Z-3.0
G1 X106.0742
G3 X105.0742 Y70.2576 I0.0 J-1.0
G1 Y55.2576
G3 X106.0742 Y54.2576 I1.0 J0.0
G1 X109.5
G1 X111.0 Z-2.0
G1 X113.0
G1 X114.5 Z-3.0
G1 X148.5742
G1 X150.0742 Z-2.0
G1 X152.0742
G1 X153.5742 Z-3.0
G1 X166.0742
G3 X167.0742 Y55.2576 I0.0 J1.0
G1 Y60.2576
G3 X166.0742 Y61.2576 I-1.0 J0.0
G1 F20.0 Z-4.0
G1 F150.0 X162.0742
G1 Y64.2576
G1 X166.0742
G3 X167.0742 Y65.2576 I0.0 J1.0
G1 Y70.2576
G3 X166.0742 Y71.2576 I-1.0 J0.0
G1 X158.5742
G1 X157.0742 Z-2.0
G1 X155.0742
G1 X153.5742 Z-4.0
G1 X151.0742
G3 X150.0742 Y70.2576 I0.0 J-1.0
G1 Y66.2576
G1 X122.0742
G1 Y70.2576
G3 X121.0742 Y71.2576 I-1.0 J0.0
G1 X114.5
G1 X113.0 Z-2.0
G1 X111.0
G1 X109.5 Z-4.0
G1 X106.0742
G3 X105.0742 Y70.2576 I0.0 J-1.0
G1 Y55.2576
G3 X106.0742 Y54.2576 I1.0 J0.0
G1 X109.5
G1 X111.0 Z-2.0
G1 X113.0
G1 X114.5 Z-4.0
G1 X148.5742
G1 X150.0742 Z-2.0
G1 X152.0742
G1 X153.5742 Z-4.0
G1 X166.0742
G3 X167.0742 Y55.2576 I0.0 J1.0
G1 Y60.2576
G3 X166.0742 Y61.2576 I-1.0 J0.0
G1 F20.0 Z-5.0
G1 F150.0 X162.0742
G1 Y64.2576
G1 X166.0742
G3 X167.0742 Y65.2576 I0.0 J1.0
G1 Y70.2576
G3 X166.0742 Y71.2576 I-1.0 J0.0
G1 X158.5742
G1 X157.0742 Z-2.0
G1 X155.0742
G1 X153.5742 Z-5.0
G1 X151.0742
G3 X150.0742 Y70.2576 I0.0 J-1.0
G1 Y66.2576
G1 X122.0742
G1 Y70.2576
G3 X121.0742 Y71.2576 I-1.0 J0.0
G1 X114.5
G1 X113.0 Z-2.0
G1 X111.0
G1 X109.5 Z-5.0
G1 X106.0742
G3 X105.0742 Y70.2576 I0.0 J-1.0
G1 Y55.2576
G3 X106.0742 Y54.2576 I1.0 J0.0
G1 X109.5
G1 X111.0 Z-2.0
G1 X113.0
G1 X114.5 Z-5.0
G1 X148.5742
G1 X150.0742 Z-2.0
G1 X152.0742
G1 X153.5742 Z-5.0
G1 X166.0742
G3 X167.0742 Y55.2576 I0.0 J1.0
G1 Y60.2576
G3 X166.0742 Y61.2576 I-1.0 J0.0
G0 F200
( Contour16 )
S1000
G0 Z3.0
G0 X165.821 Y86.5271
G0 Z1.0
G1 F20.0 Z-1.0
G1 F150.0 X161.821
G1 Y94.5271
G1 X165.821
G3 X166.821 Y95.5271 I0.0 J1.0
G1 Y100.5271
G3 X165.821 Y101.5271 I-1.0 J0.0
G1 X105.821
G3 X104.821 Y100.5271 I0.0 J-1.0
G1 Y80.5271
G3 X105.821 Y79.5271 I1.0 J0.0
G1 X119.821
G1 Y75.5271
G3 X120.821 Y74.5271 I1.0 J0.0
G1 X150.821
G3 X151.821 Y75.5271 I0.0 J1.0
G1 Y79.5271
G1 X165.821
G3 X166.821 Y80.5271 I0.0 J1.0
G1 Y85.5271
G3 X165.821 Y86.5271 I-1.0 J0.0
G1 F20.0 Z-2.0
G1 F150.0 X161.821
G1 Y94.5271
G1 X165.821
G3 X166.821 Y95.5271 I0.0 J1.0
G1 Y100.5271
G3 X165.821 Y101.5271 I-1.0 J0.0
G1 X105.821
G3 X104.821 Y100.5271 I0.0 J-1.0
G1 Y80.5271
G3 X105.821 Y79.5271 I1.0 J0.0
G1 X119.821
G1 Y75.5271
G3 X120.821 Y74.5271 I1.0 J0.0
G1 X150.821
G3 X151.821 Y75.5271 I0.0 J1.0
G1 Y79.5271
G1 X165.821
G3 X166.821 Y80.5271 I0.0 J1.0
G1 Y85.5271
G3 X165.821 Y86.5271 I-1.0 J0.0
G1 F20.0 Z-3.0
G1 F150.0 X161.821
G1 Y94.5271
G1 X165.821
G3 X166.821 Y95.5271 I0.0 J1.0
G1 Y100.5271
G3 X165.821 Y101.5271 I-1.0 J0.0
G1 X160.5
G1 X159.0 Z-2.0
G1 X157.0
G1 X155.5 Z-3.0
G1 X119.5
G1 X118.0 Z-2.0
G1 X116.0
G1 X114.5 Z-3.0
G1 X105.821
G3 X104.821 Y100.5271 I0.0 J-1.0
G1 Y92.5
G1 Y91.0 Z-2.0
G1 Y89.0
G1 Y87.5 Z-3.0
G1 Y80.5271
G3 X105.821 Y79.5271 I1.0 J0.0
G1 X109.5
G1 X111.0 Z-2.0
G1 X113.0
G1 X114.5 Z-3.0
G1 X119.821
G1 Y75.5271
G3 X120.821 Y74.5271 I1.0 J0.0
G1 X150.821
G3 X151.821 Y75.5271 I0.0 J1.0
G1 Y79.5271
G1 X156.5
G1 X158.0 Z-2.0
G1 X160.0
G1 X161.5 Z-3.0
G1 X165.821
G3 X166.821 Y80.5271 I0.0 J1.0
G1 Y85.5271
G3 X165.821 Y86.5271 I-1.0 J0.0
G1 F20.0 Z-4.0
G1 F150.0 X161.821
G1 Y94.5271
G1 X165.821
G3 X166.821 Y95.5271 I0.0 J1.0
G1 Y100.5271
G3 X165.821 Y101.5271 I-1.0 J0.0
G1 X160.5
G1 X159.0 Z-2.0
G1 X157.0
G1 X155.5 Z-4.0
G1 X119.5
G1 X118.0 Z-2.0
G1 X116.0
G1 X114.5 Z-4.0
G1 X105.821
G3 X104.821 Y100.5271 I0.0 J-1.0
G1 Y92.5
G1 Y91.0 Z-2.0
G1 Y89.0
G1 Y87.5 Z-4.0
G1 Y80.5271
G3 X105.821 Y79.5271 I1.0 J0.0
G1 X109.5
G1 X111.0 Z-2.0
G1 X113.0
G1 X114.5 Z-4.0
G1 X119.821
G1 Y75.5271
G3 X120.821 Y74.5271 I1.0 J0.0
G1 X150.821
G3 X151.821 Y75.5271 I0.0 J1.0
G1 Y79.5271
G1 X156.5
G1 X158.0 Z-2.0
G1 X160.0
G1 X161.5 Z-4.0
G1 X165.821
G3 X166.821 Y80.5271 I0.0 J1.0
G1 Y85.5271
G3 X165.821 Y86.5271 I-1.0 J0.0
G1 F20.0 Z-5.0
G1 F150.0 X161.821
G1 Y94.5271
G1 X165.821
G3 X166.821 Y95.5271 I0.0 J1.0
G1 Y100.5271
G3 X165.821 Y101.5271 I-1.0 J0.0
G1 X160.5
G1 X159.0 Z-2.0
G1 X157.0
G1 X155.5 Z-5.0
G1 X119.5
G1 X118.0 Z-2.0
G1 X116.0
G1 X114.5 Z-5.0
G1 X105.821
G3 X104.821 Y100.5271 I0.0 J-1.0
G1 Y92.5
G1 Y91.0 Z-2.0
G1 Y89.0
G1 Y87.5 Z-5.0
G1 Y80.5271
G3 X105.821 Y79.5271 I1.0 J0.0
G1 X109.5
G1 X111.0 Z-2.0
G1 X113.0
G1 X114.5 Z-5.0
G1 X119.821
G1 Y75.5271
G3 X120.821 Y74.5271 I1.0 J0.0
G1 X150.821
G3 X151.821 Y75.5271 I0.0 J1.0
G1 Y79.5271
G1 X156.5
G1 X158.0 Z-2.0
G1 X160.0
G1 X161.5 Z-5.0
G1 X165.821
G3 X166.821 Y80.5271 I0.0 J1.0
G1 Y85.5271
G3 X165.821 Y86.5271 I-1.0 J0.0
G0 F200
( Contour17 )
S1000
G0 Z3.0
G0 X82.0097 Y85.852
G0 Z1.0
G1 F20.0 Z-1.0
G1 F150.0 X78.0097
G1 Y93.852
G1 X82.0097
G3 X83.0097 Y94.852 I0.0 J1.0
G1 Y99.852
G3 X82.0097 Y100.852 I-1.0 J0.0
G1 X22.0097
G3 X21.0097 Y99.852 I0.0 J-1.0
G1 Y79.852
G3 X22.0097 Y78.852 I1.0 J0.0
G1 X36.0097
G1 Y74.852
G3 X37.0097 Y73.852 I1.0 J0.0
G1 X67.0097
G3 X68.0097 Y74.852 I0.0 J1.0
G1 Y78.852
G1 X82.0097
G3 X83.0097 Y79.852 I0.0 J1.0
G1 Y84.852
G3 X82.0097 Y85.852 I-1.0 J0.0
G1 F20.0 Z-2.0
G1 F150.0 X78.0097
G1 Y93.852
G1 X82.0097
G3 X83.0097 Y94.852 I0.0 J1.0
G1 Y99.852
G3 X82.0097 Y100.852 I-1.0 J0.0
G1 X22.0097
G3 X21.0097 Y99.852 I0.0 J-1.0
G1 Y79.852
G3 X22.0097 Y78.852 I1.0 J0.0
G1 X36.0097
G1 Y74.852
G3 X37.0097 Y73.852 I1.0 J0.0
G1 X67.0097
G3 X68.0097 Y74.852 I0.0 J1.0
G1 Y78.852
G1 X82.0097
G3 X83.0097 Y79.852 I0.0 J1.0
G1 Y84.852
G3 X82.0097 Y85.852 I-1.0 J0.0
G1 F20.0 Z-3.0
G1 F150.0 X78.0097
G1 Y93.852
G1 X82.0097
G3 X83.0097 Y94.852 I0.0 J1.0
G1 Y99.852
G3 X82.0097 Y100.852 I-1.0 J0.0
G1 X69.5097
G1 X68.0097 Z-2.0
G1 X66.0097
G1 X64.5097 Z-3.0
G1 X33.5
G1 X32.0 Z-2.0
G1 X30.0
G1 X28.5 Z-3.0
G1 X22.0097
G3 X21.0097 Y99.852 I0.0 J-1.0
G1 Y91.5
G1 Y90.0 Z-2.0
G1 Y88.0
G1 Y86.5 Z-3.0
G1 Y79.852
G3 X22.0097 Y78.852 I1.0 J0.0
G1 X25.5
G1 X27.0 Z-2.0
G1 X29.0
G1 X30.5 Z-3.0
G1 X36.0097
G1 Y74.852
G3 X37.0097 Y73.852 I1.0 J0.0
G1 X67.0097
G3 X68.0097 Y74.852 I0.0 J1.0
G1 Y78.852
G1 X72.5
G1 X74.0 Z-2.0
G1 X76.0
G1 X77.5 Z-3.0
G1 X82.0097
G3 X83.0097 Y79.852 I0.0 J1.0
G1 Y84.852
G3 X82.0097 Y85.852 I-1.0 J0.0
G1 F20.0 Z-4.0
G1 F150.0 X78.0097
G1 Y93.852
G1 X82.0097
G3 X83.0097 Y94.852 I0.0 J1.0
G1 Y99.852
G3 X82.0097 Y100.852 I-1.0 J0.0
G1 X69.5097
G1 X68.0097 Z-2.0
G1 X66.0097
G1 X64.5097 Z-4.0
G1 X33.5
G1 X32.0 Z-2.0
G1 X30.0
G1 X28.5 Z-4.0
G1 X22.0097
G3 X21.0097 Y99.852 I0.0 J-1.0
G1 Y91.5
G1 Y90.0 Z-2.0
G1 Y88.0
G1 Y86.5 Z-4.0
G1 Y79.852
G3 X22.0097 Y78.852 I1.0 J0.0
G1 X25.5
G1 X27.0 Z-2.0
G1 X29.0
G1 X30.5 Z-4.0
G1 X36.0097
G1 Y74.852
G3 X37.0097 Y73.852 I1.0 J0.0
G1 X67.0097
G3 X68.0097 Y74.852 I0.0 J1.0
G1 Y78.852
G1 X72.5
G1 X74.0 Z-2.0
G1 X76.0
G1 X77.5 Z-4.0
G1 X82.0097
G3 X83.0097 Y79.852 I0.0 J1.0
G1 Y84.852
G3 X82.0097 Y85.852 I-1.0 J0.0
G1 F20.0 Z-5.0
G1 F150.0 X78.0097
G1 Y93.852
G1 X82.0097
G3 X83.0097 Y94.852 I0.0 J1.0
G1 Y99.852
G3 X82.0097 Y100.852 I-1.0 J0.0
G1 X69.5097
G1 X68.0097 Z-2.0
G1 X66.0097
G1 X64.5097 Z-5.0
G1 X33.5
G1 X32.0 Z-2.0
G1 X30.0
G1 X28.5 Z-5.0
G1 X22.0097
G3 X21.0097 Y99.852 I0.0 J-1.0
G1 Y91.5
G1 Y90.0 Z-2.0
G1 Y88.0
G1 Y86.5 Z-5.0
G1 Y79.852
G3 X22.0097 Y78.852 I1.0 J0.0
G1 X25.5
G1 X27.0 Z-2.0
G1 X29.0
G1 X30.5 Z-5.0
G1 X36.0097
G1 Y74.852
G3 X37.0097 Y73.852 I1.0 J0.0
G1 X67.0097
G3 X68.0097 Y74.852 I0.0 J1.0
G1 Y78.852
G1 X72.5
G1 X74.0 Z-2.0
G1 X76.0
G1 X77.5 Z-5.0
G1 X82.0097
G3 X83.0097 Y79.852 I0.0 J1.0
G1 Y84.852
G3 X82.0097 Y85.852 I-1.0 J0.0
G0 F200
( Contour18 )
S1000
G0 Z3.0
G0 X24.9698 Y109.8251
G0 Z1.0
G1 F20.0 Z-1.0
G1 F150.0 Y105.8251
G3 X25.9698 Y104.8251 I1.0 J0.0
G1 X45.9698
G3 X46.9698 Y105.8251 I0.0 J1.0
G1 Y109.8251
G1 X75.9698
G3 X76.0221 Y111.8237 I0.0 J1.0
G1 X6.0221 Y115.4923
G3 X4.9698 Y114.4936 I-0.0523 J-0.9986
G1 Y95.8251
G3 X5.9698 Y94.8251 I1.0 J0.0
G1 X15.9698
G3 X16.9698 Y95.8251 I0.0 J1.0
G1 Y109.8251
G1 X24.9698
G1 F20.0 Z-2.0
G1 F150.0 Y105.8251
G3 X25.9698 Y104.8251 I1.0 J0.0
G1 X45.9698
G3 X46.9698 Y105.8251 I0.0 J1.0
G1 Y109.8251
G1 X75.9698
G3 X76.0221 Y111.8237 I0.0 J1.0
G1 X6.0221 Y115.4923
G3 X4.9698 Y114.4936 I-0.0523 J-0.9986
G1 Y95.8251
G3 X5.9698 Y94.8251 I1.0 J0.0
G1 X15.9698
G3 X16.9698 Y95.8251 I0.0 J1.0
G1 Y109.8251
G1 X24.9698
G1 F20.0 Z-3.0
G1 F150.0 Y105.8251
G3 X25.9698 Y104.8251 I1.0 J0.0
G1 X28.5
G1 X30.0 Z-2.0
G1 X32.0
G1 X33.5 Z-3.0
G1 X45.9698
G3 X46.9698 Y105.8251 I0.0 J1.0
G1 Y109.8251
G1 X57.2344
G1 X58.7344 Z-2.0
G1 X60.7344
G1 X62.2344 Z-3.0
G1 X75.9698
G3 X76.0221 Y111.8237 I0.0 J1.0
G1 X62.5312 Y112.5307
G1 X61.0333 Y112.6092 Z-2.0
G1 X59.036 Y112.7139
G1 X57.5381 Y112.7924 Z-3.0
G1 X13.5609 Y115.0972
G1 X12.063 Y115.1757 Z-2.0
G1 X10.0657 Y115.2803
G1 X8.5678 Y115.3589 Z-3.0
G1 X6.0221 Y115.4923
G3 X4.9698 Y114.4936 I-0.0523 J-0.9986
G1 Y95.8251
G3 X5.9698 Y94.8251 I1.0 J0.0
G1 X8.5
G1 X10.0 Z-2.0
G1 X12.0
G1 X13.5 Z-3.0
G1 X15.9698
G3 X16.9698 Y95.8251 I0.0 J1.0
G1 Y109.8251
G1 X24.9698
G1 F20.0 Z-4.0
G1 F150.0 Y105.8251
G3 X25.9698 Y104.8251 I1.0 J0.0
G1 X28.5
G1 X30.0 Z-2.0
G1 X32.0
G1 X33.5 Z-4.0
G1 X45.9698
G3 X46.9698 Y105.8251 I0.0 J1.0
G1 Y109.8251
G1 X57.2344
G1 X58.7344 Z-2.0
G1 X60.7344
G1 X62.2344 Z-4.0
G1 X75.9698
G3 X76.0221 Y111.8237 I0.0 J1.0
G1 X62.5312 Y112.5307
G1 X61.0333 Y112.6092 Z-2.0
G1 X59.036 Y112.7139
G1 X57.5381 Y112.7924 Z-4.0
G1 X13.5609 Y115.0972
G1 X12.063 Y115.1757 Z-2.0
G1 X10.0657 Y115.2803
G1 X8.5678 Y115.3589 Z-4.0
G1 X6.0221 Y115.4923
G3 X4.9698 Y114.4936 I-0.0523 J-0.9986
G1 Y95.8251
G3 X5.9698 Y94.8251 I1.0 J0.0
G1 X8.5
G1 X10.0 Z-2.0
G1 X12.0
G1 X13.5 Z-4.0
G1 X15.9698
G3 X16.9698 Y95.8251 I0.0 J1.0
G1 Y109.8251
G1 X24.9698
G1 F20.0 Z-5.0
G1 F150.0 Y105.8251
G3 X25.9698 Y104.8251 I1.0 J0.0
G1 X28.5
G1 X30.0 Z-2.0
G1 X32.0
G1 X33.5 Z-5.0
G1 X45.9698
G3 X46.9698 Y105.8251 I0.0 J1.0
G1 Y109.8251
G1 X57.2344
G1 X58.7344 Z-2.0
G1 X60.7344
G1 X62.2344 Z-5.0
G1 X75.9698
G3 X76.0221 Y111.8237 I0.0 J1.0
G1 X62.5312 Y112.5307
G1 X61.0333 Y112.6092 Z-2.0
G1 X59.036 Y112.7139
G1 X57.5381 Y112.7924 Z-5.0
G1 X13.5609 Y115.0972
G1 X12.063 Y115.1757 Z-2.0
G1 X10.0657 Y115.2803
G1 X8.5678 Y115.3589 Z-5.0
G1 X6.0221 Y115.4923
G3 X4.9698 Y114.4936 I-0.0523 J-0.9986
G1 Y95.8251
G3 X5.9698 Y94.8251 I1.0 J0.0
G1 X8.5
G1 X10.0 Z-2.0
G1 X12.0
G1 X13.5 Z-5.0
G1 X15.9698
G3 X16.9698 Y95.8251 I0.0 J1.0
G1 Y109.8251
G1 X24.9698
G0 F200
( Contour19 )
S1000
G0 Z3.0
G0 X107.9239 Y110.9124
G0 Z1.0
G1 F20.0 Z-1.0
G1 F150.0 Y106.9124
G3 X108.9239 Y105.9124 I1.0 J0.0
G1 X128.9239
G3 X129.9239 Y106.9124 I0.0 J1.0
G1 Y110.9124
G1 X158.9239
G3 X158.9763 Y112.911 I0.0 J1.0
G1 X88.9763 Y116.5796
G3 X87.9239 Y115.5809 I-0.0523 J-0.9986
G1 Y96.9124
G3 X88.9239 Y95.9124 I1.0 J0.0
G1 X98.9239
G3 X99.9239 Y96.9124 I0.0 J1.0
G1 Y110.9124
G1 X107.9239
G1 F20.0 Z-2.0
G1 F150.0 Y106.9124
G3 X108.9239 Y105.9124 I1.0 J0.0
G1 X128.9239
G3 X129.9239 Y106.9124 I0.0 J1.0
G1 Y110.9124
G1 X158.9239
G3 X158.9763 Y112.911 I0.0 J1.0
G1 X88.9763 Y116.5796
G3 X87.9239 Y115.5809 I-0.0523 J-0.9986
G1 Y96.9124
G3 X88.9239 Y95.9124 I1.0 J0.0
G1 X98.9239
G3 X99.9239 Y96.9124 I0.0 J1.0
G1 Y110.9124
G1 X107.9239
G1 F20.0 Z-3.0
G1 F150.0 Y106.9124
G3 X108.9239 Y105.9124 I1.0 J0.0
G1 X114.5
G1 X116.0 Z-2.0
G1 X118.0
G1 X119.5 Z-3.0
G1 X128.9239
G3 X129.9239 Y106.9124 I0.0 J1.0
G1 Y110.9124
G1 X140.1885
G1 X141.6885 Z-2.0
G1 X143.6885
G1 X145.1885 Z-3.0
G1 X158.9239
G3 X158.9763 Y112.911 I0.0 J1.0
G1 X145.4312 Y113.6209
G1 X143.9332 Y113.6994 Z-2.0
G1 X141.936 Y113.8041
G1 X140.438 Y113.8826 Z-3.0
G1 X95.6204 Y116.2314
G1 X94.1224 Y116.3099 Z-2.0
G1 X92.1252 Y116.4145
G1 X90.6272 Y116.493 Z-3.0
G1 X88.9763 Y116.5796
G3 X87.9239 Y115.5809 I-0.0523 J-0.9986
G1 Y96.9124
G3 X88.9239 Y95.9124 I1.0 J0.0
G1 X91.5
G1 X93.0 Z-2.0
G1 X95.0
G1 X96.5 Z-3.0
G1 X98.9239
G3 X99.9239 Y96.9124 I0.0 J1.0
G1 Y110.9124
G1 X107.9239
G1 F20.0 Z-4.0
G1 F150.0 Y106.9124
G3 X108.9239 Y105.9124 I1.0 J0.0
G1 X114.5
G1 X116.0 Z-2.0
G1 X118.0
G1 X119.5 Z-4.0
G1 X128.9239
G3 X129.9239 Y106.9124 I0.0 J1.0
G1 Y110.9124
G1 X140.1885
G1 X141.6885 Z-2.0
G1 X143.6885
G1 X145.1885 Z-4.0
G1 X158.9239
G3 X158.9763 Y112.911 I0.0 J1.0
G1 X145.4312 Y113.6209
G1 X143.9332 Y113.6994 Z-2.0
G1 X141.936 Y113.8041
G1 X140.438 Y113.8826 Z-4.0
G1 X95.6204 Y116.2314
G1 X94.1224 Y116.3099 Z-2.0
G1 X92.1252 Y116.4145
G1 X90.6272 Y116.493 Z-4.0
G1 X88.9763 Y116.5796
G3 X87.9239 Y115.5809 I-0.0523 J-0.9986
G1 Y96.9124
G3 X88.9239 Y95.9124 I1.0 J0.0
G1 X91.5
G1 X93.0 Z-2.0
G1 X95.0
G1 X96.5 Z-4.0
G1 X98.9239
G3 X99.9239 Y96.9124 I0.0 J1.0
G1 Y110.9124
G1 X107.9239
G1 F20.0 Z-5.0
G1 F150.0 Y106.9124
G3 X108.9239 Y105.9124 I1.0 J0.0
G1 X114.5
G1 X116.0 Z-2.0
G1 X118.0
G1 X119.5 Z-5.0
G1 X128.9239
G3 X129.9239 Y106.9124 I0.0 J1.0
G1 Y110.9124
G1 X140.1885
G1 X141.6885 Z-2.0
G1 X143.6885
G1 X145.1885 Z-5.0
G1 X158.9239
G3 X158.9763 Y112.911 I0.0 J1.0
G1 X145.4312 Y113.6209
G1 X143.9332 Y113.6994 Z-2.0
G1 X141.936 Y113.8041
G1 X140.438 Y113.8826 Z-5.0
G1 X95.6204 Y116.2314
G1 X94.1224 Y116.3099 Z-2.0
G1 X92.1252 Y116.4145
G1 X90.6272 Y116.493 Z-5.0
G1 X88.9763 Y116.5796
G3 X87.9239 Y115.5809 I-0.0523 J-0.9986
G1 Y96.9124
G3 X88.9239 Y95.9124 I1.0 J0.0
G1 X91.5
G1 X93.0 Z-2.0
G1 X95.0
G1 X96.5 Z-5.0
G1 X98.9239
G3 X99.9239 Y96.9124 I0.0 J1.0
G1 Y110.9124
G1 X107.9239
G0 F200
( Contour20 )
S1000
G0 Z3.0
G0 X96.0328 Y135.6562
G0 Z1.0
G1 F20.0 Z-1.0
G2 F150.0 X95.7828 Y136.0892 I0.25 J0.433
G2 X96.0328 Y136.5222 I0.5 J0.0
G2 X96.5328 I0.25 J-0.433
G2 X96.7828 Y136.0892 I-0.25 J-0.433
G2 X96.5328 Y135.6562 I-0.5 J0.0
G2 X96.0328 I-0.25 J0.433
G1 F20.0 Z-2.0
G2 F150.0 X95.7828 Y136.0892 I0.25 J0.433
G2 X96.0328 Y136.5222 I0.5 J0.0
G2 X96.5328 I0.25 J-0.433
G2 X96.7828 Y136.0892 I-0.25 J-0.433
G2 X96.5328 Y135.6562 I-0.5 J0.0
G2 X96.0328 I-0.25 J0.433
G1 F20.0 Z-3.0
G2 F150.0 X95.7828 Y136.0892 I0.25 J0.433
G2 X96.0328 Y136.5222 I0.5 J0.0
G2 X96.5328 I0.25 J-0.433
G2 X96.7828 Y136.0892 I-0.25 J-0.433
G2 X96.5328 Y135.6562 I-0.5 J0.0
G2 X96.0328 I-0.25 J0.433
G1 F20.0 Z-4.0
G2 F150.0 X95.7828 Y136.0892 I0.25 J0.433
G2 X96.0328 Y136.5222 I0.5 J0.0
G2 X96.5328 I0.25 J-0.433
G2 X96.7828 Y136.0892 I-0.25 J-0.433
G2 X96.5328 Y135.6562 I-0.5 J0.0
G2 X96.0328 I-0.25 J0.433
G1 F20.0 Z-5.0
G2 F150.0 X95.7828 Y136.0892 I0.25 J0.433
G2 X96.0328 Y136.5222 I0.5 J0.0
G2 X96.5328 I0.25 J-0.433
G2 X96.7828 Y136.0892 I-0.25 J-0.433
G2 X96.5328 Y135.6562 I-0.5 J0.0
G2 X96.0328 I-0.25 J0.433
G0 Z3.0
G0 X36.7828 Y136.0856
G0 Z1.0
G1 F20.0 Z-1.0
G2 F150.0 X36.5328 Y135.6562 I-0.5 J0.0036
G2 X36.0328 I-0.25 J0.433
G2 X35.7828 Y136.0892 I0.25 J0.433
G2 X36.0328 Y136.5222 I0.5 J0.0
G2 X36.5328 I0.25 J-0.433
G2 X36.7828 Y136.0892 I-0.25 J-0.433
G2 Y136.0856 I-0.5 J0.0
G1 F20.0 Z-2.0
G2 F150.0 X36.5328 Y135.6562 I-0.5 J0.0036
G2 X36.0328 I-0.25 J0.433
G2 X35.7828 Y136.0892 I0.25 J0.433
G2 X36.0328 Y136.5222 I0.5 J0.0
G2 X36.5328 I0.25 J-0.433
G2 X36.7828 Y136.0892 I-0.25 J-0.433
G2 Y136.0856 I-0.5 J0.0
G1 F20.0 Z-3.0
G2 F150.0 X36.5328 Y135.6562 I-0.5 J0.0036
G2 X36.0328 I-0.25 J0.433
G2 X35.7828 Y136.0892 I0.25 J0.433
G2 X36.0328 Y136.5222 I0.5 J0.0
G2 X36.5328 I0.25 J-0.433
G2 X36.7828 Y136.0892 I-0.25 J-0.433
G2 Y136.0856 I-0.5 J0.0
G1 F20.0 Z-4.0
G2 F150.0 X36.5328 Y135.6562 I-0.5 J0.0036
G2 X36.0328 I-0.25 J0.433
G2 X35.7828 Y136.0892 I0.25 J0.433
G2 X36.0328 Y136.5222 I0.5 J0.0
G2 X36.5328 I0.25 J-0.433
G2 X36.7828 Y136.0892 I-0.25 J-0.433
G2 Y136.0856 I-0.5 J0.0
G1 F20.0 Z-5.0
G2 F150.0 X36.5328 Y135.6562 I-0.5 J0.0036
G2 X36.0328 I-0.25 J0.433
G2 X35.7828 Y136.0892 I0.25 J0.433
G2 X36.0328 Y136.5222 I0.5 J0.0
G2 X36.5328 I0.25 J-0.433
G2 X36.7828 Y136.0892 I-0.25 J-0.433
G2 Y136.0856 I-0.5 J0.0
G0 F200
( Contour21 )
S1000
G0 Z3.0
G0 X5.2828 Y145.5892
G0 Z1.0
G1 F20.0 Z-1.0
G1 F150.0 Y120.5892
G3 X6.2828 Y119.5892 I1.0 J0.0
G1 X126.2828
G3 X127.2828 Y120.5892 I0.0 J1.0
G1 Y145.5892
G3 X126.2828 Y146.5892 I-1.0 J0.0
G1 X6.2828
G3 X5.2828 Y145.5892 I0.0 J-1.0
G1 F20.0 Z-2.0
G1 F150.0 Y120.5892
G3 X6.2828 Y119.5892 I1.0 J0.0
G1 X126.2828
G3 X127.2828 Y120.5892 I0.0 J1.0
G1 Y145.5892
G3 X126.2828 Y146.5892 I-1.0 J0.0
G1 X6.2828
G3 X5.2828 Y145.5892 I0.0 J-1.0
G1 F20.0 Z-3.0
G1 F150.0 Y135.5
G1 Y134.0 Z-2.0
G1 Y132.0
G1 Y130.5 Z-3.0
G1 Y120.5892
G3 X6.2828 Y119.5892 I1.0 J0.0
G1 X27.5
G1 X29.0 Z-2.0
G1 X31.0
G1 X32.5 Z-3.0
G1 X99.5
G1 X101.0 Z-2.0
G1 X103.0
G1 X104.5 Z-3.0
G1 X126.2828
G3 X127.2828 Y120.5892 I0.0 J1.0
G1 Y131.5
G1 Y133.0 Z-2.0
G1 Y135.0
G1 Y136.5 Z-3.0
G1 Y145.5892
G3 X126.2828 Y146.5892 I-1.0 J0.0
G1 X102.5
G1 X101.0 Z-2.0
G1 X99.0
G1 X97.5 Z-3.0
G1 X32.9495
G1 X31.4495 Z-2.0
G1 X29.4495
G1 X27.9495 Z-3.0
G1 X6.2828
G3 X5.2828 Y145.5892 I0.0 J-1.0
G1 F20.0 Z-4.0
G1 F150.0 Y135.5
G1 Y134.0 Z-2.0
G1 Y132.0
G1 Y130.5 Z-4.0
G1 Y120.5892
G3 X6.2828 Y119.5892 I1.0 J0.0
G1 X27.5
G1 X29.0 Z-2.0
G1 X31.0
G1 X32.5 Z-4.0
G1 X99.5
G1 X101.0 Z-2.0
G1 X103.0
G1 X104.5 Z-4.0
G1 X126.2828
G3 X127.2828 Y120.5892 I0.0 J1.0
G1 Y131.5
G1 Y133.0 Z-2.0
G1 Y135.0
G1 Y136.5 Z-4.0
G1 Y145.5892
G3 X126.2828 Y146.5892 I-1.0 J0.0
G1 X102.5
G1 X101.0 Z-2.0
G1 X99.0
G1 X97.5 Z-4.0
G1 X32.9495
G1 X31.4495 Z-2.0
G1 X29.4495
G1 X27.9495 Z-4.0
G1 X6.2828
G3 X5.2828 Y145.5892 I0.0 J-1.0
G1 F20.0 Z-5.0
G1 F150.0 Y135.5
G1 Y134.0 Z-2.0
G1 Y132.0
G1 Y130.5 Z-5.0
G1 Y120.5892
G3 X6.2828 Y119.5892 I1.0 J0.0
G1 X27.5
G1 X29.0 Z-2.0
G1 X31.0
G1 X32.5 Z-5.0
G1 X99.5
G1 X101.0 Z-2.0
G1 X103.0
G1 X104.5 Z-5.0
G1 X126.2828
G3 X127.2828 Y120.5892 I0.0 J1.0
G1 Y131.5
G1 Y133.0 Z-2.0
G1 Y135.0
G1 Y136.5 Z-5.0
G1 Y145.5892
G3 X126.2828 Y146.5892 I-1.0 J0.0
G1 X102.5
G1 X101.0 Z-2.0
G1 X99.0
G1 X97.5 Z-5.0
G1 X32.9495
G1 X31.4495 Z-2.0
G1 X29.4495
G1 X27.9495 Z-5.0
G1 X6.2828
G3 X5.2828 Y145.5892 I0.0 J-1.0
G0 F200
G0 Z3.0
M5
M30
