( Made using CamBam - http://www.cambam.co.uk )
( PlancheMilieu 4/13/2020 5:24:03 PM )
( T0 : 2.0 )
G21 G90 G64 G40
G0 Z3.0
( T0 : 2.0 )
T0 M6
( Contour1 )
G17
M3 S1000
G0 X10.7976 Y46.0476
G0 Z1.0
G1 F20.0 Z-1.0
G1 F150.0 Y69.0476
G1 X14.2976
G1 Y46.0476
G1 X10.7976
G1 F20.0 Z-2.0
G1 F150.0 Y69.0476
G1 X14.2976
G1 Y46.0476
G1 X10.7976
G1 F20.0 Z-3.0
G1 F150.0 Y69.0476
G1 X14.2976
G1 Y46.0476
G1 X10.7976
G1 F20.0 Z-4.0
G1 F150.0 Y69.0476
G1 X14.2976
G1 Y46.0476
G1 X10.7976
G1 F20.0 Z-5.0
G1 F150.0 Y69.0476
G1 X14.2976
G1 Y46.0476
G1 X10.7976
G0 Z3.0
G0 X30.7976
G0 Z1.0
G1 F20.0 Z-1.0
G1 F150.0 Y69.0476
G1 X34.2976
G1 Y46.0476
G1 X30.7976
G1 F20.0 Z-2.0
G1 F150.0 Y69.0476
G1 X34.2976
G1 Y46.0476
G1 X30.7976
G1 F20.0 Z-3.0
G1 F150.0 Y69.0476
G1 X34.2976
G1 Y46.0476
G1 X30.7976
G1 F20.0 Z-4.0
G1 F150.0 Y69.0476
G1 X34.2976
G1 Y46.0476
G1 X30.7976
G1 F20.0 Z-5.0
G1 F150.0 Y69.0476
G1 X34.2976
G1 Y46.0476
G1 X30.7976
G0 Z3.0
G0 Y106.0476
G0 Z1.0
G1 F20.0 Z-1.0
G1 F150.0 Y129.0476
G1 X34.2976
G1 Y106.0476
G1 X30.7976
G1 F20.0 Z-2.0
G1 F150.0 Y129.0476
G1 X34.2976
G1 Y106.0476
G1 X30.7976
G1 F20.0 Z-3.0
G1 F150.0 Y129.0476
G1 X34.2976
G1 Y106.0476
G1 X30.7976
G1 F20.0 Z-4.0
G1 F150.0 Y129.0476
G1 X34.2976
G1 Y106.0476
G1 X30.7976
G1 F20.0 Z-5.0
G1 F150.0 Y129.0476
G1 X34.2976
G1 Y106.0476
G1 X30.7976
G0 Z3.0
G0 X14.2976
G0 Z1.0
G1 F20.0 Z-1.0
G1 F150.0 X10.7976
G1 Y129.0476
G1 X14.2976
G1 Y106.0476
G1 F20.0 Z-2.0
G1 F150.0 X10.7976
G1 Y129.0476
G1 X14.2976
G1 Y106.0476
G1 F20.0 Z-3.0
G1 F150.0 X10.7976
G1 Y129.0476
G1 X14.2976
G1 Y106.0476
G1 F20.0 Z-4.0
G1 F150.0 X10.7976
G1 Y129.0476
G1 X14.2976
G1 Y106.0476
G1 F20.0 Z-5.0
G1 F150.0 X10.7976
G1 Y129.0476
G1 X14.2976
G1 Y106.0476
G0 Z3.0
G0 X90.7976
G0 Z1.0
G1 F20.0 Z-1.0
G1 F150.0 Y129.0476
G1 X94.2976
G1 Y106.0476
G1 X90.7976
G1 F20.0 Z-2.0
G1 F150.0 Y129.0476
G1 X94.2976
G1 Y106.0476
G1 X90.7976
G1 F20.0 Z-3.0
G1 F150.0 Y129.0476
G1 X94.2976
G1 Y106.0476
G1 X90.7976
G1 F20.0 Z-4.0
G1 F150.0 Y129.0476
G1 X94.2976
G1 Y106.0476
G1 X90.7976
G1 F20.0 Z-5.0
G1 F150.0 Y129.0476
G1 X94.2976
G1 Y106.0476
G1 X90.7976
G0 Z3.0
G0 X110.7976
G0 Z1.0
G1 F20.0 Z-1.0
G1 F150.0 Y129.0476
G1 X114.2976
G1 Y106.0476
G1 X110.7976
G1 F20.0 Z-2.0
G1 F150.0 Y129.0476
G1 X114.2976
G1 Y106.0476
G1 X110.7976
G1 F20.0 Z-3.0
G1 F150.0 Y129.0476
G1 X114.2976
G1 Y106.0476
G1 X110.7976
G1 F20.0 Z-4.0
G1 F150.0 Y129.0476
G1 X114.2976
G1 Y106.0476
G1 X110.7976
G1 F20.0 Z-5.0
G1 F150.0 Y129.0476
G1 X114.2976
G1 Y106.0476
G1 X110.7976
G0 Z3.0
G0 Y69.0476
G0 Z1.0
G1 F20.0 Z-1.0
G1 F150.0 X114.2976
G1 Y46.0476
G1 X110.7976
G1 Y69.0476
G1 F20.0 Z-2.0
G1 F150.0 X114.2976
G1 Y46.0476
G1 X110.7976
G1 Y69.0476
G1 F20.0 Z-3.0
G1 F150.0 X114.2976
G1 Y46.0476
G1 X110.7976
G1 Y69.0476
G1 F20.0 Z-4.0
G1 F150.0 X114.2976
G1 Y46.0476
G1 X110.7976
G1 Y69.0476
G1 F20.0 Z-5.0
G1 F150.0 X114.2976
G1 Y46.0476
G1 X110.7976
G1 Y69.0476
G0 Z3.0
G0 X94.2976
G0 Z1.0
G1 F20.0 Z-1.0
G1 F150.0 Y46.0476
G1 X90.7976
G1 Y69.0476
G1 X94.2976
G1 F20.0 Z-2.0
G1 F150.0 Y46.0476
G1 X90.7976
G1 Y69.0476
G1 X94.2976
G1 F20.0 Z-3.0
G1 F150.0 Y46.0476
G1 X90.7976
G1 Y69.0476
G1 X94.2976
G1 F20.0 Z-4.0
G1 F150.0 Y46.0476
G1 X90.7976
G1 Y69.0476
G1 X94.2976
G1 F20.0 Z-5.0
G1 F150.0 Y46.0476
G1 X90.7976
G1 Y69.0476
G1 X94.2976
G0 Z3.0
G0 Y196.5476
G0 Z1.0
G1 F20.0 Z-1.0
G1 F150.0 X90.7976
G1 Y238.5476
G1 X94.2976
G1 Y196.5476
G1 F20.0 Z-2.0
G1 F150.0 X90.7976
G1 Y238.5476
G1 X94.2976
G1 Y196.5476
G1 F20.0 Z-3.0
G1 F150.0 X90.7976
G1 Y238.5476
G1 X94.2976
G1 Y196.5476
G1 F20.0 Z-4.0
G1 F150.0 X90.7976
G1 Y238.5476
G1 X94.2976
G1 Y196.5476
G1 F20.0 Z-5.0
G1 F150.0 X90.7976
G1 Y238.5476
G1 X94.2976
G1 Y196.5476
G0 Z3.0
G0 X34.2976
G0 Z1.0
G1 F20.0 Z-1.0
G1 F150.0 X30.7976
G1 Y238.5476
G1 X34.2976
G1 Y196.5476
G1 F20.0 Z-2.0
G1 F150.0 X30.7976
G1 Y238.5476
G1 X34.2976
G1 Y196.5476
G1 F20.0 Z-3.0
G1 F150.0 X30.7976
G1 Y238.5476
G1 X34.2976
G1 Y196.5476
G1 F20.0 Z-4.0
G1 F150.0 X30.7976
G1 Y238.5476
G1 X34.2976
G1 Y196.5476
G1 F20.0 Z-5.0
G1 F150.0 X30.7976
G1 Y238.5476
G1 X34.2976
G1 Y196.5476
G0 F200
( Contour2 )
S1000
G0 Z3.0
G0 X1.5476 Y196.0
G0 Z1.0
G1 F20.0 Z-1.0
G1 F150.0 Y2.5476
G3 X2.5476 Y1.5476 I1.0 J0.0
G1 X52.5476
G3 X53.5476 Y2.5476 I0.0 J1.0
G1 Y196.5476
G1 X71.5476
G1 Y2.5476
G3 X72.5476 Y1.5476 I1.0 J0.0
G1 X122.5476
G3 X123.5476 Y2.5476 I0.0 J1.0
G1 Y247.5476
G3 X122.5476 Y248.5476 I-1.0 J0.0
G1 X2.5476
G3 X1.5476 Y247.5476 I0.0 J-1.0
G1 Y196.0
G1 F20.0 Z-2.0
G1 F150.0 Y2.5476
G3 X2.5476 Y1.5476 I1.0 J0.0
G1 X52.5476
G3 X53.5476 Y2.5476 I0.0 J1.0
G1 Y196.5476
G1 X71.5476
G1 Y2.5476
G3 X72.5476 Y1.5476 I1.0 J0.0
G1 X122.5476
G3 X123.5476 Y2.5476 I0.0 J1.0
G1 Y247.5476
G3 X122.5476 Y248.5476 I-1.0 J0.0
G1 X2.5476
G3 X1.5476 Y247.5476 I0.0 J-1.0
G1 Y196.0
G1 F20.0 Z-3.0
G1 F150.0 Y168.5
G1 Y167.0 Z-2.0
G1 Y165.0
G1 Y163.5 Z-3.0
G1 Y17.5
G1 Y16.0 Z-2.0
G1 Y14.0
G1 Y12.5 Z-3.0
G1 Y2.5476
G3 X2.5476 Y1.5476 I1.0 J0.0
G1 X52.5476
G3 X53.5476 Y2.5476 I0.0 J1.0
G1 Y12.5
G1 Y14.0 Z-2.0
G1 Y16.0
G1 Y17.5 Z-3.0
G1 Y163.5
G1 Y165.0 Z-2.0
G1 Y167.0
G1 Y168.5 Z-3.0
G1 Y196.5476
G1 X71.5476
G1 Y168.5
G1 Y167.0 Z-2.0
G1 Y165.0
G1 Y163.5 Z-3.0
G1 Y17.2698
G1 Y15.7698 Z-2.0
G1 Y13.7698
G1 Y12.2698 Z-3.0
G1 Y2.5476
G3 X72.5476 Y1.5476 I1.0 J0.0
G1 X122.5476
G3 X123.5476 Y2.5476 I0.0 J1.0
G1 Y12.5
G1 Y14.0 Z-2.0
G1 Y16.0
G1 Y17.5 Z-3.0
G1 Y166.5
G1 Y168.0 Z-2.0
G1 Y170.0
G1 Y171.5 Z-3.0
G1 Y247.5476
G3 X122.5476 Y248.5476 I-1.0 J0.0
G1 X64.5
G1 X63.0 Z-2.0
G1 X61.0
G1 X59.5 Z-3.0
G1 X2.5476
G3 X1.5476 Y247.5476 I0.0 J-1.0
G1 Y196.0
G1 F20.0 Z-4.0
G1 F150.0 Y168.5
G1 Y167.0 Z-2.0
G1 Y165.0
G1 Y163.5 Z-4.0
G1 Y17.5
G1 Y16.0 Z-2.0
G1 Y14.0
G1 Y12.5 Z-4.0
G1 Y2.5476
G3 X2.5476 Y1.5476 I1.0 J0.0
G1 X52.5476
G3 X53.5476 Y2.5476 I0.0 J1.0
G1 Y12.5
G1 Y14.0 Z-2.0
G1 Y16.0
G1 Y17.5 Z-4.0
G1 Y163.5
G1 Y165.0 Z-2.0
G1 Y167.0
G1 Y168.5 Z-4.0
G1 Y196.5476
G1 X71.5476
G1 Y168.5
G1 Y167.0 Z-2.0
G1 Y165.0
G1 Y163.5 Z-4.0
G1 Y17.2698
G1 Y15.7698 Z-2.0
G1 Y13.7698
G1 Y12.2698 Z-4.0
G1 Y2.5476
G3 X72.5476 Y1.5476 I1.0 J0.0
G1 X122.5476
G3 X123.5476 Y2.5476 I0.0 J1.0
G1 Y12.5
G1 Y14.0 Z-2.0
G1 Y16.0
G1 Y17.5 Z-4.0
G1 Y166.5
G1 Y168.0 Z-2.0
G1 Y170.0
G1 Y171.5 Z-4.0
G1 Y247.5476
G3 X122.5476 Y248.5476 I-1.0 J0.0
G1 X64.5
G1 X63.0 Z-2.0
G1 X61.0
G1 X59.5 Z-4.0
G1 X2.5476
G3 X1.5476 Y247.5476 I0.0 J-1.0
G1 Y196.0
G1 F20.0 Z-5.0
G1 F150.0 Y168.5
G1 Y167.0 Z-2.0
G1 Y165.0
G1 Y163.5 Z-5.0
G1 Y17.5
G1 Y16.0 Z-2.0
G1 Y14.0
G1 Y12.5 Z-5.0
G1 Y2.5476
G3 X2.5476 Y1.5476 I1.0 J0.0
G1 X52.5476
G3 X53.5476 Y2.5476 I0.0 J1.0
G1 Y12.5
G1 Y14.0 Z-2.0
G1 Y16.0
G1 Y17.5 Z-5.0
G1 Y163.5
G1 Y165.0 Z-2.0
G1 Y167.0
G1 Y168.5 Z-5.0
G1 Y196.5476
G1 X71.5476
G1 Y168.5
G1 Y167.0 Z-2.0
G1 Y165.0
G1 Y163.5 Z-5.0
G1 Y17.2698
G1 Y15.7698 Z-2.0
G1 Y13.7698
G1 Y12.2698 Z-5.0
G1 Y2.5476
G3 X72.5476 Y1.5476 I1.0 J0.0
G1 X122.5476
G3 X123.5476 Y2.5476 I0.0 J1.0
G1 Y12.5
G1 Y14.0 Z-2.0
G1 Y16.0
G1 Y17.5 Z-5.0
G1 Y166.5
G1 Y168.0 Z-2.0
G1 Y170.0
G1 Y171.5 Z-5.0
G1 Y247.5476
G3 X122.5476 Y248.5476 I-1.0 J0.0
G1 X64.5
G1 X63.0 Z-2.0
G1 X61.0
G1 X59.5 Z-5.0
G1 X2.5476
G3 X1.5476 Y247.5476 I0.0 J-1.0
G1 Y196.0
G0 F200
( Contour3 )
S1000
G0 Z3.0
G0 X144.9223 Y194.9188
G0 Z1.0
G1 F20.0 Z-1.0
G1 F150.0 Y190.3
G1 X140.9223 Y187.9906
G1 X136.9223 Y190.3
G1 Y194.9188
G1 X140.9223 Y197.2282
G1 X144.9223 Y194.9188
G1 F20.0 Z-2.0
G1 F150.0 Y190.3
G1 X140.9223 Y187.9906
G1 X136.9223 Y190.3
G1 Y194.9188
G1 X140.9223 Y197.2282
G1 X144.9223 Y194.9188
G1 F20.0 Z-3.0
G1 F150.0 Y190.3
G1 X140.9223 Y187.9906
G1 X136.9223 Y190.3
G1 Y194.9188
G1 X140.9223 Y197.2282
G1 X144.9223 Y194.9188
G1 F20.0 Z-4.0
G1 F150.0 Y190.3
G1 X140.9223 Y187.9906
G1 X136.9223 Y190.3
G1 Y194.9188
G1 X140.9223 Y197.2282
G1 X144.9223 Y194.9188
G1 F20.0 Z-5.0
G1 F150.0 Y190.3
G1 X140.9223 Y187.9906
G1 X136.9223 Y190.3
G1 Y194.9188
G1 X140.9223 Y197.2282
G1 X144.9223 Y194.9188
G0 Z3.0
G0 X140.9223 Y77.2282
G0 Z1.0
G1 F20.0 Z-1.0
G1 F150.0 X144.9223 Y74.9188
G1 Y70.3
G1 X140.9223 Y67.9906
G1 X136.9223 Y70.3
G1 Y74.9188
G1 X140.9223 Y77.2282
G1 F20.0 Z-2.0
G1 F150.0 X144.9223 Y74.9188
G1 Y70.3
G1 X140.9223 Y67.9906
G1 X136.9223 Y70.3
G1 Y74.9188
G1 X140.9223 Y77.2282
G1 F20.0 Z-3.0
G1 F150.0 X144.9223 Y74.9188
G1 Y70.3
G1 X140.9223 Y67.9906
G1 X136.9223 Y70.3
G1 Y74.9188
G1 X140.9223 Y77.2282
G1 F20.0 Z-4.0
G1 F150.0 X144.9223 Y74.9188
G1 Y70.3
G1 X140.9223 Y67.9906
G1 X136.9223 Y70.3
G1 Y74.9188
G1 X140.9223 Y77.2282
G1 F20.0 Z-5.0
G1 F150.0 X144.9223 Y74.9188
G1 Y70.3
G1 X140.9223 Y67.9906
G1 X136.9223 Y70.3
G1 Y74.9188
G1 X140.9223 Y77.2282
G0 Z3.0
G0 Y8.1094
G0 Z1.0
G1 F20.0 Z-1.0
G2 F150.0 X141.1723 Y8.0424 I0.0 J-0.5
G2 X141.4223 Y7.6094 I-0.25 J-0.433
G2 X141.1723 Y7.1764 I-0.5 J0.0
G2 X140.6723 I-0.25 J0.433
G2 X140.4223 Y7.6094 I0.25 J0.433
G2 X140.6723 Y8.0424 I0.5 J0.0
G2 X140.9223 Y8.1094 I0.25 J-0.433
G1 F20.0 Z-2.0
G2 F150.0 X141.1723 Y8.0424 I0.0 J-0.5
G2 X141.4223 Y7.6094 I-0.25 J-0.433
G2 X141.1723 Y7.1764 I-0.5 J0.0
G2 X140.6723 I-0.25 J0.433
G2 X140.4223 Y7.6094 I0.25 J0.433
G2 X140.6723 Y8.0424 I0.5 J0.0
G2 X140.9223 Y8.1094 I0.25 J-0.433
G1 F20.0 Z-3.0
G2 F150.0 X141.1723 Y8.0424 I0.0 J-0.5
G2 X141.4223 Y7.6094 I-0.25 J-0.433
G2 X141.1723 Y7.1764 I-0.5 J0.0
G2 X140.6723 I-0.25 J0.433
G2 X140.4223 Y7.6094 I0.25 J0.433
G2 X140.6723 Y8.0424 I0.5 J0.0
G2 X140.9223 Y8.1094 I0.25 J-0.433
G1 F20.0 Z-4.0
G2 F150.0 X141.1723 Y8.0424 I0.0 J-0.5
G2 X141.4223 Y7.6094 I-0.25 J-0.433
G2 X141.1723 Y7.1764 I-0.5 J0.0
G2 X140.6723 I-0.25 J0.433
G2 X140.4223 Y7.6094 I0.25 J0.433
G2 X140.6723 Y8.0424 I0.5 J0.0
G2 X140.9223 Y8.1094 I0.25 J-0.433
G1 F20.0 Z-5.0
G2 F150.0 X141.1723 Y8.0424 I0.0 J-0.5
G2 X141.4223 Y7.6094 I-0.25 J-0.433
G2 X141.1723 Y7.1764 I-0.5 J0.0
G2 X140.6723 I-0.25 J0.433
G2 X140.4223 Y7.6094 I0.25 J0.433
G2 X140.6723 Y8.0424 I0.5 J0.0
G2 X140.9223 Y8.1094 I0.25 J-0.433
G0 F200
( Contour4 )
S1000
G0 Z3.0
G0 X129.9223 Y207.6094
G0 Z1.0
G1 F20.0 Z-1.0
G1 F150.0 Y2.6094
G3 X130.9223 Y1.6094 I1.0 J0.0
G1 X150.9223
G3 X151.9223 Y2.6094 I0.0 J1.0
G1 Y207.6094
G3 X150.9223 Y208.6094 I-1.0 J0.0
G1 X130.9223
G3 X129.9223 Y207.6094 I0.0 J-1.0
G1 F20.0 Z-2.0
G1 F150.0 Y2.6094
G3 X130.9223 Y1.6094 I1.0 J0.0
G1 X150.9223
G3 X151.9223 Y2.6094 I0.0 J1.0
G1 Y207.6094
G3 X150.9223 Y208.6094 I-1.0 J0.0
G1 X130.9223
G3 X129.9223 Y207.6094 I0.0 J-1.0
G1 F20.0 Z-3.0
G1 F150.0 Y195.5
G1 Y194.0 Z-2.0
G1 Y192.0
G1 Y190.5 Z-3.0
G1 Y116.5
G1 Y115.0 Z-2.0
G1 Y113.0
G1 Y111.5 Z-3.0
G1 Y17.5
G1 Y16.0 Z-2.0
G1 Y14.0
G1 Y12.5 Z-3.0
G1 Y2.6094
G3 X130.9223 Y1.6094 I1.0 J0.0
G1 X150.9223
G3 X151.9223 Y2.6094 I0.0 J1.0
G1 Y12.5
G1 Y14.0 Z-2.0
G1 Y16.0
G1 Y17.5 Z-3.0
G1 Y111.5
G1 Y113.0 Z-2.0
G1 Y115.0
G1 Y116.5 Z-3.0
G1 Y191.5
G1 Y193.0 Z-2.0
G1 Y195.0
G1 Y196.5 Z-3.0
G1 Y207.6094
G3 X150.9223 Y208.6094 I-1.0 J0.0
G1 X130.9223
G3 X129.9223 Y207.6094 I0.0 J-1.0
G1 F20.0 Z-4.0
G1 F150.0 Y195.5
G1 Y194.0 Z-2.0
G1 Y192.0
G1 Y190.5 Z-4.0
G1 Y116.5
G1 Y115.0 Z-2.0
G1 Y113.0
G1 Y111.5 Z-4.0
G1 Y17.5
G1 Y16.0 Z-2.0
G1 Y14.0
G1 Y12.5 Z-4.0
G1 Y2.6094
G3 X130.9223 Y1.6094 I1.0 J0.0
G1 X150.9223
G3 X151.9223 Y2.6094 I0.0 J1.0
G1 Y12.5
G1 Y14.0 Z-2.0
G1 Y16.0
G1 Y17.5 Z-4.0
G1 Y111.5
G1 Y113.0 Z-2.0
G1 Y115.0
G1 Y116.5 Z-4.0
G1 Y191.5
G1 Y193.0 Z-2.0
G1 Y195.0
G1 Y196.5 Z-4.0
G1 Y207.6094
G3 X150.9223 Y208.6094 I-1.0 J0.0
G1 X130.9223
G3 X129.9223 Y207.6094 I0.0 J-1.0
G1 F20.0 Z-5.0
G1 F150.0 Y195.5
G1 Y194.0 Z-2.0
G1 Y192.0
G1 Y190.5 Z-5.0
G1 Y116.5
G1 Y115.0 Z-2.0
G1 Y113.0
G1 Y111.5 Z-5.0
G1 Y17.5
G1 Y16.0 Z-2.0
G1 Y14.0
G1 Y12.5 Z-5.0
G1 Y2.6094
G3 X130.9223 Y1.6094 I1.0 J0.0
G1 X150.9223
G3 X151.9223 Y2.6094 I0.0 J1.0
G1 Y12.5
G1 Y14.0 Z-2.0
G1 Y16.0
G1 Y17.5 Z-5.0
G1 Y111.5
G1 Y113.0 Z-2.0
G1 Y115.0
G1 Y116.5 Z-5.0
G1 Y191.5
G1 Y193.0 Z-2.0
G1 Y195.0
G1 Y196.5 Z-5.0
G1 Y207.6094
G3 X150.9223 Y208.6094 I-1.0 J0.0
G1 X130.9223
G3 X129.9223 Y207.6094 I0.0 J-1.0
G0 F200
G0 Z3.0
M5
M30
