( Made using CamBam - http://www.cambam.co.uk )
( PlancheDuBas 4/13/2020 3:24:55 PM )
( T0 : 2.0 )
G21 G90 G64 G40
G0 Z3.0
( T0 : 2.0 )
T0 M6
( Contour1 )
G17
M3 S1000
G0 X33.9151 Y12.6079
G0 Z1.0
G1 F20.0 Z-1.0
G2 F150.0 X33.6655 Y13.0412 I0.2504 J0.4328
G3 Y13.0417 I-1.0 J0.0011
G1 X33.6928 Y53.0414
G2 X34.1931 Y53.5407 I0.5 J-0.0007
G2 X34.6928 Y53.0407 I-0.0003 J-0.5
G1 X34.6655 Y13.041
G3 Y13.0406 I1.0 J-0.0007
G2 X34.4153 Y12.6075 I-0.5 J0.0001
G2 X33.9151 Y12.6079 I-0.2498 J0.4331
G1 F20.0 Z-2.0
G2 F150.0 X33.6655 Y13.0412 I0.2504 J0.4328
G3 Y13.0417 I-1.0 J0.0011
G1 X33.6928 Y53.0414
G2 X34.1931 Y53.5407 I0.5 J-0.0007
G2 X34.6928 Y53.0407 I-0.0003 J-0.5
G1 X34.6655 Y13.041
G3 Y13.0406 I1.0 J-0.0007
G2 X34.4153 Y12.6075 I-0.5 J0.0001
G2 X33.9151 Y12.6079 I-0.2498 J0.4331
G1 F20.0 Z-3.0
G2 F150.0 X33.6655 Y13.0412 I0.2504 J0.4328
G3 Y13.0417 I-1.0 J0.0011
G1 X33.6928 Y53.0414
G2 X34.1931 Y53.5407 I0.5 J-0.0007
G2 X34.6928 Y53.0407 I-0.0003 J-0.5
G1 X34.6655 Y13.041
G3 Y13.0406 I1.0 J-0.0007
G2 X34.4153 Y12.6075 I-0.5 J0.0001
G2 X33.9151 Y12.6079 I-0.2498 J0.4331
G1 F20.0 Z-4.0
G2 F150.0 X33.6655 Y13.0412 I0.2504 J0.4328
G3 Y13.0417 I-1.0 J0.0011
G1 X33.6928 Y53.0414
G2 X34.1931 Y53.5407 I0.5 J-0.0007
G2 X34.6928 Y53.0407 I-0.0003 J-0.5
G1 X34.6655 Y13.041
G3 Y13.0406 I1.0 J-0.0007
G2 X34.4153 Y12.6075 I-0.5 J0.0001
G2 X33.9151 Y12.6079 I-0.2498 J0.4331
G1 F20.0 Z-5.0
G2 F150.0 X33.6655 Y13.0412 I0.2504 J0.4328
G3 Y13.0417 I-1.0 J0.0011
G1 X33.6928 Y53.0414
G2 X34.1931 Y53.5407 I0.5 J-0.0007
G2 X34.6928 Y53.0407 I-0.0003 J-0.5
G1 X34.6655 Y13.041
G3 Y13.0406 I1.0 J-0.0007
G2 X34.4153 Y12.6075 I-0.5 J0.0001
G2 X33.9151 Y12.6079 I-0.2498 J0.4331
G0 Z3.0
G0 X93.6655 Y12.9978
G0 Z1.0
G1 F20.0 Z-1.0
G2 F150.0 Y13.001 I0.5 J0.0033
G1 X93.6928 Y53.0004
G2 X94.1931 Y53.4997 I0.5 J-0.0007
G2 X94.6928 Y52.9998 I-0.0003 J-0.5
G1 X94.6655 Y13.0004
G2 X94.1651 Y12.5011 I-0.5 J0.0007
G2 X93.6655 Y12.9978 I0.0003 J0.5
G1 F20.0 Z-2.0
G2 F150.0 Y13.001 I0.5 J0.0033
G1 X93.6928 Y53.0004
G2 X94.1931 Y53.4997 I0.5 J-0.0007
G2 X94.6928 Y52.9998 I-0.0003 J-0.5
G1 X94.6655 Y13.0004
G2 X94.1651 Y12.5011 I-0.5 J0.0007
G2 X93.6655 Y12.9978 I0.0003 J0.5
G1 F20.0 Z-3.0
G2 F150.0 Y13.001 I0.5 J0.0033
G1 X93.6928 Y53.0004
G2 X94.1931 Y53.4997 I0.5 J-0.0007
G2 X94.6928 Y52.9998 I-0.0003 J-0.5
G1 X94.6655 Y13.0004
G2 X94.1651 Y12.5011 I-0.5 J0.0007
G2 X93.6655 Y12.9978 I0.0003 J0.5
G1 F20.0 Z-4.0
G2 F150.0 Y13.001 I0.5 J0.0033
G1 X93.6928 Y53.0004
G2 X94.1931 Y53.4997 I0.5 J-0.0007
G2 X94.6928 Y52.9998 I-0.0003 J-0.5
G1 X94.6655 Y13.0004
G2 X94.1651 Y12.5011 I-0.5 J0.0007
G2 X93.6655 Y12.9978 I0.0003 J0.5
G1 F20.0 Z-5.0
G2 F150.0 Y13.001 I0.5 J0.0033
G1 X93.6928 Y53.0004
G2 X94.1931 Y53.4997 I0.5 J-0.0007
G2 X94.6928 Y52.9998 I-0.0003 J-0.5
G1 X94.6655 Y13.0004
G2 X94.1651 Y12.5011 I-0.5 J0.0007
G2 X93.6655 Y12.9978 I0.0003 J0.5
G0 Z3.0
G0 X65.0876 Y71.2254
G0 Z1.0
G1 F20.0 Z-1.0
G2 F150.0 X64.2051 Y71.0208 I-0.8812 J1.7954
G2 X62.2065 Y73.0222 I0.0014 J2.0
G1 X62.2235 Y98.0222
G2 X63.2247 Y99.7536 I2.0 J-0.0014
G2 X65.2247 Y99.7522 I0.9988 J-1.7327
G2 X66.2235 Y98.0195 I-1.0012 J-1.7314
G1 X66.2065 Y73.0195
G2 X65.0876 Y71.2254 I-2.0 J0.0014
G1 F20.0 Z-2.0
G2 F150.0 X64.2051 Y71.0208 I-0.8812 J1.7954
G2 X62.2065 Y73.0222 I0.0014 J2.0
G1 X62.2235 Y98.0222
G2 X63.2247 Y99.7536 I2.0 J-0.0014
G2 X65.2247 Y99.7522 I0.9988 J-1.7327
G2 X66.2235 Y98.0195 I-1.0012 J-1.7314
G1 X66.2065 Y73.0195
G2 X65.0876 Y71.2254 I-2.0 J0.0014
G1 F20.0 Z-3.0
G2 F150.0 X64.2051 Y71.0208 I-0.8812 J1.7954
G2 X62.2065 Y73.0222 I0.0014 J2.0
G1 X62.2235 Y98.0222
G2 X63.2247 Y99.7536 I2.0 J-0.0014
G2 X65.2247 Y99.7522 I0.9988 J-1.7327
G2 X66.2235 Y98.0195 I-1.0012 J-1.7314
G1 X66.2065 Y73.0195
G2 X65.0876 Y71.2254 I-2.0 J0.0014
G1 F20.0 Z-4.0
G2 F150.0 X64.2051 Y71.0208 I-0.8812 J1.7954
G2 X62.2065 Y73.0222 I0.0014 J2.0
G1 X62.2235 Y98.0222
G2 X63.2247 Y99.7536 I2.0 J-0.0014
G2 X65.2247 Y99.7522 I0.9988 J-1.7327
G2 X66.2235 Y98.0195 I-1.0012 J-1.7314
G1 X66.2065 Y73.0195
G2 X65.0876 Y71.2254 I-2.0 J0.0014
G1 F20.0 Z-5.0
G2 F150.0 X64.2051 Y71.0208 I-0.8812 J1.7954
G2 X62.2065 Y73.0222 I0.0014 J2.0
G1 X62.2235 Y98.0222
G2 X63.2247 Y99.7536 I2.0 J-0.0014
G2 X65.2247 Y99.7522 I0.9988 J-1.7327
G2 X66.2235 Y98.0195 I-1.0012 J-1.7314
G1 X66.2065 Y73.0195
G2 X65.0876 Y71.2254 I-2.0 J0.0014
G0 Z3.0
G0 X93.9953 Y122.564
G0 Z1.0
G1 F20.0 Z-1.0
G2 F150.0 X93.9902 Y122.5669 I0.2453 J0.4357
G2 X93.7406 Y123.0002 I0.2504 J0.4328
G3 Y123.0007 I-1.0 J0.0011
G1 X93.7542 Y143.0004
G2 X94.2546 Y143.4997 I0.5 J-0.0007
G2 X94.7542 Y142.9997 I-0.0003 J-0.5
G1 X94.7406 Y123.0001
G3 Y122.9996 I1.0 J-0.0007
G2 X94.4904 Y122.5665 I-0.5 J0.0001
G2 X93.9953 Y122.564 I-0.2498 J0.4331
G1 F20.0 Z-2.0
G2 F150.0 X93.9902 Y122.5669 I0.2453 J0.4357
G2 X93.7406 Y123.0002 I0.2504 J0.4328
G3 Y123.0007 I-1.0 J0.0011
G1 X93.7542 Y143.0004
G2 X94.2546 Y143.4997 I0.5 J-0.0007
G2 X94.7542 Y142.9997 I-0.0003 J-0.5
G1 X94.7406 Y123.0001
G3 Y122.9996 I1.0 J-0.0007
G2 X94.4904 Y122.5665 I-0.5 J0.0001
G2 X93.9953 Y122.564 I-0.2498 J0.4331
G1 F20.0 Z-3.0
G2 F150.0 X93.9902 Y122.5669 I0.2453 J0.4357
G2 X93.7406 Y123.0002 I0.2504 J0.4328
G3 Y123.0007 I-1.0 J0.0011
G1 X93.7542 Y143.0004
G2 X94.2546 Y143.4997 I0.5 J-0.0007
G2 X94.7542 Y142.9997 I-0.0003 J-0.5
G1 X94.7406 Y123.0001
G3 Y122.9996 I1.0 J-0.0007
G2 X94.4904 Y122.5665 I-0.5 J0.0001
G2 X93.9953 Y122.564 I-0.2498 J0.4331
G1 F20.0 Z-4.0
G2 F150.0 X93.9902 Y122.5669 I0.2453 J0.4357
G2 X93.7406 Y123.0002 I0.2504 J0.4328
G3 Y123.0007 I-1.0 J0.0011
G1 X93.7542 Y143.0004
G2 X94.2546 Y143.4997 I0.5 J-0.0007
G2 X94.7542 Y142.9997 I-0.0003 J-0.5
G1 X94.7406 Y123.0001
G3 Y122.9996 I1.0 J-0.0007
G2 X94.4904 Y122.5665 I-0.5 J0.0001
G2 X93.9953 Y122.564 I-0.2498 J0.4331
G1 F20.0 Z-5.0
G2 F150.0 X93.9902 Y122.5669 I0.2453 J0.4357
G2 X93.7406 Y123.0002 I0.2504 J0.4328
G3 Y123.0007 I-1.0 J0.0011
G1 X93.7542 Y143.0004
G2 X94.2546 Y143.4997 I0.5 J-0.0007
G2 X94.7542 Y142.9997 I-0.0003 J-0.5
G1 X94.7406 Y123.0001
G3 Y122.9996 I1.0 J-0.0007
G2 X94.4904 Y122.5665 I-0.5 J0.0001
G2 X93.9953 Y122.564 I-0.2498 J0.4331
G0 Z3.0
G0 X113.7407 Y122.977
G0 Z1.0
G1 F20.0 Z-1.0
G2 F150.0 X113.7406 Y122.9873 I0.4999 J0.0105
G1 X113.7542 Y142.9867
G2 X114.2546 Y143.486 I0.5 J-0.0007
G2 X114.7542 Y142.9861 I-0.0003 J-0.5
G1 X114.7406 Y122.9867
G2 X114.2402 Y122.4874 I-0.5 J0.0007
G2 X113.7407 Y122.977 I0.0003 J0.5
G1 F20.0 Z-2.0
G2 F150.0 X113.7406 Y122.9873 I0.4999 J0.0105
G1 X113.7542 Y142.9867
G2 X114.2546 Y143.486 I0.5 J-0.0007
G2 X114.7542 Y142.9861 I-0.0003 J-0.5
G1 X114.7406 Y122.9867
G2 X114.2402 Y122.4874 I-0.5 J0.0007
G2 X113.7407 Y122.977 I0.0003 J0.5
G1 F20.0 Z-3.0
G2 F150.0 X113.7406 Y122.9873 I0.4999 J0.0105
G1 X113.7542 Y142.9867
G2 X114.2546 Y143.486 I0.5 J-0.0007
G2 X114.7542 Y142.9861 I-0.0003 J-0.5
G1 X114.7406 Y122.9867
G2 X114.2402 Y122.4874 I-0.5 J0.0007
G2 X113.7407 Y122.977 I0.0003 J0.5
G1 F20.0 Z-4.0
G2 F150.0 X113.7406 Y122.9873 I0.4999 J0.0105
G1 X113.7542 Y142.9867
G2 X114.2546 Y143.486 I0.5 J-0.0007
G2 X114.7542 Y142.9861 I-0.0003 J-0.5
G1 X114.7406 Y122.9867
G2 X114.2402 Y122.4874 I-0.5 J0.0007
G2 X113.7407 Y122.977 I0.0003 J0.5
G1 F20.0 Z-5.0
G2 F150.0 X113.7406 Y122.9873 I0.4999 J0.0105
G1 X113.7542 Y142.9867
G2 X114.2546 Y143.486 I0.5 J-0.0007
G2 X114.7542 Y142.9861 I-0.0003 J-0.5
G1 X114.7406 Y122.9867
G2 X114.2402 Y122.4874 I-0.5 J0.0007
G2 X113.7407 Y122.977 I0.0003 J0.5
G0 Z3.0
G0 X114.277 Y182.4874
G0 Z1.0
G1 F20.0 Z-1.0
G2 F150.0 X113.7815 Y182.9873 I0.0045 J0.5
G1 X113.7952 Y202.987
G2 X114.0455 Y203.4199 I0.5 J-0.0003
G2 X114.5455 Y203.4196 I0.2497 J-0.4332
G2 X114.7952 Y202.9864 I-0.2503 J-0.4328
G1 X114.7815 Y182.9867
G2 X114.2812 Y182.4874 I-0.5 J0.0007
G2 X114.277 I0.0003 J0.5
G1 F20.0 Z-2.0
G2 F150.0 X113.7815 Y182.9873 I0.0045 J0.5
G1 X113.7952 Y202.987
G2 X114.0455 Y203.4199 I0.5 J-0.0003
G2 X114.5455 Y203.4196 I0.2497 J-0.4332
G2 X114.7952 Y202.9864 I-0.2503 J-0.4328
G1 X114.7815 Y182.9867
G2 X114.2812 Y182.4874 I-0.5 J0.0007
G2 X114.277 I0.0003 J0.5
G1 F20.0 Z-3.0
G2 F150.0 X113.7815 Y182.9873 I0.0045 J0.5
G1 X113.7952 Y202.987
G2 X114.0455 Y203.4199 I0.5 J-0.0003
G2 X114.5455 Y203.4196 I0.2497 J-0.4332
G2 X114.7952 Y202.9864 I-0.2503 J-0.4328
G1 X114.7815 Y182.9867
G2 X114.2812 Y182.4874 I-0.5 J0.0007
G2 X114.277 I0.0003 J0.5
G1 F20.0 Z-4.0
G2 F150.0 X113.7815 Y182.9873 I0.0045 J0.5
G1 X113.7952 Y202.987
G2 X114.0455 Y203.4199 I0.5 J-0.0003
G2 X114.5455 Y203.4196 I0.2497 J-0.4332
G2 X114.7952 Y202.9864 I-0.2503 J-0.4328
G1 X114.7815 Y182.9867
G2 X114.2812 Y182.4874 I-0.5 J0.0007
G2 X114.277 I0.0003 J0.5
G1 F20.0 Z-5.0
G2 F150.0 X113.7815 Y182.9873 I0.0045 J0.5
G1 X113.7952 Y202.987
G2 X114.0455 Y203.4199 I0.5 J-0.0003
G2 X114.5455 Y203.4196 I0.2497 J-0.4332
G2 X114.7952 Y202.9864 I-0.2503 J-0.4328
G1 X114.7815 Y182.9867
G2 X114.2812 Y182.4874 I-0.5 J0.0007
G2 X114.277 I0.0003 J0.5
G0 Z3.0
G0 X94.7814 Y182.9875
G0 Z1.0
G1 F20.0 Z-1.0
G2 F150.0 X94.5313 Y182.5672 I-0.4998 J0.0128
G2 X94.0313 Y182.5675 I-0.2497 J0.4332
G2 X93.7815 Y183.0007 I0.2503 J0.4328
G1 X93.7952 Y203.0007
G3 Y203.0012 I-1.0 J0.0007
G2 X94.0454 Y203.4342 I0.5 J-0.0001
G2 X94.5456 Y203.4339 I0.2498 J-0.4331
G2 X94.7952 Y203.0005 I-0.2503 J-0.4328
G3 Y203.0 I1.0 J-0.0011
G1 X94.7815 Y183.0
G2 X94.7814 Y182.9875 I-0.5 J0.0003
G1 F20.0 Z-2.0
G2 F150.0 X94.5313 Y182.5672 I-0.4998 J0.0128
G2 X94.0313 Y182.5675 I-0.2497 J0.4332
G2 X93.7815 Y183.0007 I0.2503 J0.4328
G1 X93.7952 Y203.0007
G3 Y203.0012 I-1.0 J0.0007
G2 X94.0454 Y203.4342 I0.5 J-0.0001
G2 X94.5456 Y203.4339 I0.2498 J-0.4331
G2 X94.7952 Y203.0005 I-0.2503 J-0.4328
G3 Y203.0 I1.0 J-0.0011
G1 X94.7815 Y183.0
G2 X94.7814 Y182.9875 I-0.5 J0.0003
G1 F20.0 Z-3.0
G2 F150.0 X94.5313 Y182.5672 I-0.4998 J0.0128
G2 X94.0313 Y182.5675 I-0.2497 J0.4332
G2 X93.7815 Y183.0007 I0.2503 J0.4328
G1 X93.7952 Y203.0007
G3 Y203.0012 I-1.0 J0.0007
G2 X94.0454 Y203.4342 I0.5 J-0.0001
G2 X94.5456 Y203.4339 I0.2498 J-0.4331
G2 X94.7952 Y203.0005 I-0.2503 J-0.4328
G3 Y203.0 I1.0 J-0.0011
G1 X94.7815 Y183.0
G2 X94.7814 Y182.9875 I-0.5 J0.0003
G1 F20.0 Z-4.0
G2 F150.0 X94.5313 Y182.5672 I-0.4998 J0.0128
G2 X94.0313 Y182.5675 I-0.2497 J0.4332
G2 X93.7815 Y183.0007 I0.2503 J0.4328
G1 X93.7952 Y203.0007
G3 Y203.0012 I-1.0 J0.0007
G2 X94.0454 Y203.4342 I0.5 J-0.0001
G2 X94.5456 Y203.4339 I0.2498 J-0.4331
G2 X94.7952 Y203.0005 I-0.2503 J-0.4328
G3 Y203.0 I1.0 J-0.0011
G1 X94.7815 Y183.0
G2 X94.7814 Y182.9875 I-0.5 J0.0003
G1 F20.0 Z-5.0
G2 F150.0 X94.5313 Y182.5672 I-0.4998 J0.0128
G2 X94.0313 Y182.5675 I-0.2497 J0.4332
G2 X93.7815 Y183.0007 I0.2503 J0.4328
G1 X93.7952 Y203.0007
G3 Y203.0012 I-1.0 J0.0007
G2 X94.0454 Y203.4342 I0.5 J-0.0001
G2 X94.5456 Y203.4339 I0.2498 J-0.4331
G2 X94.7952 Y203.0005 I-0.2503 J-0.4328
G3 Y203.0 I1.0 J-0.0011
G1 X94.7815 Y183.0
G2 X94.7814 Y182.9875 I-0.5 J0.0003
G0 Z3.0
G0 X66.1882 Y192.3962
G0 Z1.0
G1 F20.0 Z-1.0
G2 F150.0 X64.287 Y191.0213 I-1.8998 J0.6251
G2 X62.2884 Y193.0223 I0.0013 J2.0
G1 X62.3054 Y218.0221
G1 Y218.0222
G1 Y218.022
G1 Y218.0221
G2 X64.3068 Y220.0204 I2.0 J-0.0017
G2 X66.3054 Y218.0195 I-0.0013 J-2.0
G1 X66.2884 Y193.0196
G1 Y193.0197
G1 Y193.0196
G2 X66.1882 Y192.3962 I-2.0 J0.0017
G1 F20.0 Z-2.0
G2 F150.0 X64.287 Y191.0213 I-1.8998 J0.6251
G2 X62.2884 Y193.0223 I0.0013 J2.0
G1 X62.3054 Y218.0221
G1 Y218.0222
G1 Y218.022
G1 Y218.0221
G2 X64.3068 Y220.0204 I2.0 J-0.0017
G2 X66.3054 Y218.0195 I-0.0013 J-2.0
G1 X66.2884 Y193.0196
G1 Y193.0197
G1 Y193.0196
G2 X66.1882 Y192.3962 I-2.0 J0.0017
G1 F20.0 Z-3.0
G2 F150.0 X64.287 Y191.0213 I-1.8998 J0.6251
G2 X62.2884 Y193.0223 I0.0013 J2.0
G1 X62.3054 Y218.0221
G1 Y218.0222
G1 Y218.022
G1 Y218.0221
G2 X64.3068 Y220.0204 I2.0 J-0.0017
G2 X66.3054 Y218.0195 I-0.0013 J-2.0
G1 X66.2884 Y193.0196
G1 Y193.0197
G1 Y193.0196
G2 X66.1882 Y192.3962 I-2.0 J0.0017
G1 F20.0 Z-4.0
G2 F150.0 X64.287 Y191.0213 I-1.8998 J0.6251
G2 X62.2884 Y193.0223 I0.0013 J2.0
G1 X62.3054 Y218.0221
G1 Y218.0222
G1 Y218.022
G1 Y218.0221
G2 X64.3068 Y220.0204 I2.0 J-0.0017
G2 X66.3054 Y218.0195 I-0.0013 J-2.0
G1 X66.2884 Y193.0196
G1 Y193.0197
G1 Y193.0196
G2 X66.1882 Y192.3962 I-2.0 J0.0017
G1 F20.0 Z-5.0
G2 F150.0 X64.287 Y191.0213 I-1.8998 J0.6251
G2 X62.2884 Y193.0223 I0.0013 J2.0
G1 X62.3054 Y218.0221
G1 Y218.0222
G1 Y218.022
G1 Y218.0221
G2 X64.3068 Y220.0204 I2.0 J-0.0017
G2 X66.3054 Y218.0195 I-0.0013 J-2.0
G1 X66.2884 Y193.0196
G1 Y193.0197
G1 Y193.0196
G2 X66.1882 Y192.3962 I-2.0 J0.0017
G0 Z3.0
G0 X34.788 Y192.4176
G0 Z1.0
G1 F20.0 Z-1.0
G1 F150.0 X34.7816 Y183.041
G3 Y183.0405 I1.0 J-0.0007
G2 X34.5313 Y182.6075 I-0.5 J0.0001
G2 X34.0312 Y182.6078 I-0.2498 J0.4331
G2 X33.7816 Y183.0412 I0.2503 J0.4328
G3 Y183.0416 I-1.0 J0.0011
G1 X33.7952 Y203.0413
G2 X34.2955 Y203.5406 I0.5 J-0.0007
G2 X34.7952 Y203.0407 I-0.0003 J-0.5
G1 X34.788 Y192.4176
G1 F20.0 Z-2.0
G1 F150.0 X34.7816 Y183.041
G3 Y183.0405 I1.0 J-0.0007
G2 X34.5313 Y182.6075 I-0.5 J0.0001
G2 X34.0312 Y182.6078 I-0.2498 J0.4331
G2 X33.7816 Y183.0412 I0.2503 J0.4328
G3 Y183.0416 I-1.0 J0.0011
G1 X33.7952 Y203.0413
G2 X34.2955 Y203.5406 I0.5 J-0.0007
G2 X34.7952 Y203.0407 I-0.0003 J-0.5
G1 X34.788 Y192.4176
G1 F20.0 Z-3.0
G1 F150.0 X34.7816 Y183.041
G3 Y183.0405 I1.0 J-0.0007
G2 X34.5313 Y182.6075 I-0.5 J0.0001
G2 X34.0312 Y182.6078 I-0.2498 J0.4331
G2 X33.7816 Y183.0412 I0.2503 J0.4328
G3 Y183.0416 I-1.0 J0.0011
G1 X33.7952 Y203.0413
G2 X34.2955 Y203.5406 I0.5 J-0.0007
G2 X34.7952 Y203.0407 I-0.0003 J-0.5
G1 X34.788 Y192.4176
G1 F20.0 Z-4.0
G1 F150.0 X34.7816 Y183.041
G3 Y183.0405 I1.0 J-0.0007
G2 X34.5313 Y182.6075 I-0.5 J0.0001
G2 X34.0312 Y182.6078 I-0.2498 J0.4331
G2 X33.7816 Y183.0412 I0.2503 J0.4328
G3 Y183.0416 I-1.0 J0.0011
G1 X33.7952 Y203.0413
G2 X34.2955 Y203.5406 I0.5 J-0.0007
G2 X34.7952 Y203.0407 I-0.0003 J-0.5
G1 X34.788 Y192.4176
G1 F20.0 Z-5.0
G1 F150.0 X34.7816 Y183.041
G3 Y183.0405 I1.0 J-0.0007
G2 X34.5313 Y182.6075 I-0.5 J0.0001
G2 X34.0312 Y182.6078 I-0.2498 J0.4331
G2 X33.7816 Y183.0412 I0.2503 J0.4328
G3 Y183.0416 I-1.0 J0.0011
G1 X33.7952 Y203.0413
G2 X34.2955 Y203.5406 I0.5 J-0.0007
G2 X34.7952 Y203.0407 I-0.0003 J-0.5
G1 X34.788 Y192.4176
G0 Z3.0
G0 X14.788 Y192.4313
G0 Z1.0
G1 F20.0 Z-1.0
G1 F150.0 X14.7816 Y183.0549
G2 X14.2812 Y182.5557 I-0.5 J0.0007
G2 X13.7816 Y183.0556 I0.0003 J0.5
G1 X13.7952 Y203.0553
G3 Y203.0558 I-1.0 J0.0007
G2 X14.0454 Y203.4888 I0.5 J-0.0001
G2 X14.5456 Y203.4885 I0.2498 J-0.4331
G2 X14.7952 Y203.0551 I-0.2504 J-0.4328
G3 Y203.0547 I1.0 J-0.0011
G1 X14.788 Y192.4313
G1 F20.0 Z-2.0
G1 F150.0 X14.7816 Y183.0549
G2 X14.2812 Y182.5557 I-0.5 J0.0007
G2 X13.7816 Y183.0556 I0.0003 J0.5
G1 X13.7952 Y203.0553
G3 Y203.0558 I-1.0 J0.0007
G2 X14.0454 Y203.4888 I0.5 J-0.0001
G2 X14.5456 Y203.4885 I0.2498 J-0.4331
G2 X14.7952 Y203.0551 I-0.2504 J-0.4328
G3 Y203.0547 I1.0 J-0.0011
G1 X14.788 Y192.4313
G1 F20.0 Z-3.0
G1 F150.0 X14.7816 Y183.0549
G2 X14.2812 Y182.5557 I-0.5 J0.0007
G2 X13.7816 Y183.0556 I0.0003 J0.5
G1 X13.7952 Y203.0553
G3 Y203.0558 I-1.0 J0.0007
G2 X14.0454 Y203.4888 I0.5 J-0.0001
G2 X14.5456 Y203.4885 I0.2498 J-0.4331
G2 X14.7952 Y203.0551 I-0.2504 J-0.4328
G3 Y203.0547 I1.0 J-0.0011
G1 X14.788 Y192.4313
G1 F20.0 Z-4.0
G1 F150.0 X14.7816 Y183.0549
G2 X14.2812 Y182.5557 I-0.5 J0.0007
G2 X13.7816 Y183.0556 I0.0003 J0.5
G1 X13.7952 Y203.0553
G3 Y203.0558 I-1.0 J0.0007
G2 X14.0454 Y203.4888 I0.5 J-0.0001
G2 X14.5456 Y203.4885 I0.2498 J-0.4331
G2 X14.7952 Y203.0551 I-0.2504 J-0.4328
G3 Y203.0547 I1.0 J-0.0011
G1 X14.788 Y192.4313
G1 F20.0 Z-5.0
G1 F150.0 X14.7816 Y183.0549
G2 X14.2812 Y182.5557 I-0.5 J0.0007
G2 X13.7816 Y183.0556 I0.0003 J0.5
G1 X13.7952 Y203.0553
G3 Y203.0558 I-1.0 J0.0007
G2 X14.0454 Y203.4888 I0.5 J-0.0001
G2 X14.5456 Y203.4885 I0.2498 J-0.4331
G2 X14.7952 Y203.0551 I-0.2504 J-0.4328
G3 Y203.0547 I1.0 J-0.0011
G1 X14.788 Y192.4313
G0 Z3.0
G0 X14.2597 Y143.5543
G0 Z1.0
G1 F20.0 Z-1.0
G2 F150.0 X14.7543 Y143.0544 I-0.0054 J-0.5
G1 X14.7406 Y123.0547
G2 X14.4903 Y122.6218 I-0.5 J0.0003
G2 X13.9903 Y122.6221 I-0.2497 J0.4332
G2 X13.7406 Y123.0553 I0.2503 J0.4329
G1 X13.7543 Y143.055
G2 X14.2546 Y143.5543 I0.5 J-0.0007
G2 X14.2597 I-0.0003 J-0.5
G1 F20.0 Z-2.0
G2 F150.0 X14.7543 Y143.0544 I-0.0054 J-0.5
G1 X14.7406 Y123.0547
G2 X14.4903 Y122.6218 I-0.5 J0.0003
G2 X13.9903 Y122.6221 I-0.2497 J0.4332
G2 X13.7406 Y123.0553 I0.2503 J0.4329
G1 X13.7543 Y143.055
G2 X14.2546 Y143.5543 I0.5 J-0.0007
G2 X14.2597 I-0.0003 J-0.5
G1 F20.0 Z-3.0
G2 F150.0 X14.7543 Y143.0544 I-0.0054 J-0.5
G1 X14.7406 Y123.0547
G2 X14.4903 Y122.6218 I-0.5 J0.0003
G2 X13.9903 Y122.6221 I-0.2497 J0.4332
G2 X13.7406 Y123.0553 I0.2503 J0.4329
G1 X13.7543 Y143.055
G2 X14.2546 Y143.5543 I0.5 J-0.0007
G2 X14.2597 I-0.0003 J-0.5
G1 F20.0 Z-4.0
G2 F150.0 X14.7543 Y143.0544 I-0.0054 J-0.5
G1 X14.7406 Y123.0547
G2 X14.4903 Y122.6218 I-0.5 J0.0003
G2 X13.9903 Y122.6221 I-0.2497 J0.4332
G2 X13.7406 Y123.0553 I0.2503 J0.4329
G1 X13.7543 Y143.055
G2 X14.2546 Y143.5543 I0.5 J-0.0007
G2 X14.2597 I-0.0003 J-0.5
G1 F20.0 Z-5.0
G2 F150.0 X14.7543 Y143.0544 I-0.0054 J-0.5
G1 X14.7406 Y123.0547
G2 X14.4903 Y122.6218 I-0.5 J0.0003
G2 X13.9903 Y122.6221 I-0.2497 J0.4332
G2 X13.7406 Y123.0553 I0.2503 J0.4329
G1 X13.7543 Y143.055
G2 X14.2546 Y143.5543 I0.5 J-0.0007
G2 X14.2597 I-0.0003 J-0.5
G0 Z3.0
G0 X33.7544 Y143.0542
G0 Z1.0
G1 F20.0 Z-1.0
G2 F150.0 X34.0045 Y143.4745 I0.4998 J-0.0128
G2 X34.5045 Y143.4742 I0.2497 J-0.4332
G2 X34.7542 Y143.041 I-0.2503 J-0.4329
G1 X34.7406 Y123.041
G3 Y123.0405 I1.0 J-0.0007
G2 X34.4904 Y122.6075 I-0.5 J0.0001
G2 X33.9902 Y122.6078 I-0.2498 J0.4331
G2 X33.7406 Y123.0412 I0.2504 J0.4328
G3 Y123.0417 I-1.0 J0.0011
G1 X33.7542 Y143.0417
G2 X33.7544 Y143.0542 I0.5 J-0.0003
G1 F20.0 Z-2.0
G2 F150.0 X34.0045 Y143.4745 I0.4998 J-0.0128
G2 X34.5045 Y143.4742 I0.2497 J-0.4332
G2 X34.7542 Y143.041 I-0.2503 J-0.4329
G1 X34.7406 Y123.041
G3 Y123.0405 I1.0 J-0.0007
G2 X34.4904 Y122.6075 I-0.5 J0.0001
G2 X33.9902 Y122.6078 I-0.2498 J0.4331
G2 X33.7406 Y123.0412 I0.2504 J0.4328
G3 Y123.0417 I-1.0 J0.0011
G1 X33.7542 Y143.0417
G2 X33.7544 Y143.0542 I0.5 J-0.0003
G1 F20.0 Z-3.0
G2 F150.0 X34.0045 Y143.4745 I0.4998 J-0.0128
G2 X34.5045 Y143.4742 I0.2497 J-0.4332
G2 X34.7542 Y143.041 I-0.2503 J-0.4329
G1 X34.7406 Y123.041
G3 Y123.0405 I1.0 J-0.0007
G2 X34.4904 Y122.6075 I-0.5 J0.0001
G2 X33.9902 Y122.6078 I-0.2498 J0.4331
G2 X33.7406 Y123.0412 I0.2504 J0.4328
G3 Y123.0417 I-1.0 J0.0011
G1 X33.7542 Y143.0417
G2 X33.7544 Y143.0542 I0.5 J-0.0003
G1 F20.0 Z-4.0
G2 F150.0 X34.0045 Y143.4745 I0.4998 J-0.0128
G2 X34.5045 Y143.4742 I0.2497 J-0.4332
G2 X34.7542 Y143.041 I-0.2503 J-0.4329
G1 X34.7406 Y123.041
G3 Y123.0405 I1.0 J-0.0007
G2 X34.4904 Y122.6075 I-0.5 J0.0001
G2 X33.9902 Y122.6078 I-0.2498 J0.4331
G2 X33.7406 Y123.0412 I0.2504 J0.4328
G3 Y123.0417 I-1.0 J0.0011
G1 X33.7542 Y143.0417
G2 X33.7544 Y143.0542 I0.5 J-0.0003
G1 F20.0 Z-5.0
G2 F150.0 X34.0045 Y143.4745 I0.4998 J-0.0128
G2 X34.5045 Y143.4742 I0.2497 J-0.4332
G2 X34.7542 Y143.041 I-0.2503 J-0.4329
G1 X34.7406 Y123.041
G3 Y123.0405 I1.0 J-0.0007
G2 X34.4904 Y122.6075 I-0.5 J0.0001
G2 X33.9902 Y122.6078 I-0.2498 J0.4331
G2 X33.7406 Y123.0412 I0.2504 J0.4328
G3 Y123.0417 I-1.0 J0.0011
G1 X33.7542 Y143.0417
G2 X33.7544 Y143.0542 I0.5 J-0.0003
G0 Z3.0
G0 X64.2042 Y257.5379
G0 Z1.0
G1 F20.0 Z-1.0
G2 F150.0 X63.8328 Y258.0212 I0.1285 J0.4832
G1 X63.8498 Y283.0211
G1 Y283.021
G1 Y283.0211
G2 X64.3502 Y283.5206 I0.5 J-0.0005
G2 X64.8498 Y283.0204 I-0.0003 J-0.5
G1 X64.8328 Y258.0206
G1 Y258.0205
G1 Y258.0206
G2 X64.3324 Y257.5211 I-0.5 J0.0005
G2 X64.2042 Y257.5379 I0.0003 J0.5
G1 F20.0 Z-2.0
G2 F150.0 X63.8328 Y258.0212 I0.1285 J0.4832
G1 X63.8498 Y283.0211
G1 Y283.021
G1 Y283.0211
G2 X64.3502 Y283.5206 I0.5 J-0.0005
G2 X64.8498 Y283.0204 I-0.0003 J-0.5
G1 X64.8328 Y258.0206
G1 Y258.0205
G1 Y258.0206
G2 X64.3324 Y257.5211 I-0.5 J0.0005
G2 X64.2042 Y257.5379 I0.0003 J0.5
G1 F20.0 Z-3.0
G2 F150.0 X63.8328 Y258.0212 I0.1285 J0.4832
G1 X63.8498 Y283.0211
G1 Y283.021
G1 Y283.0211
G2 X64.3502 Y283.5206 I0.5 J-0.0005
G2 X64.8498 Y283.0204 I-0.0003 J-0.5
G1 X64.8328 Y258.0206
G1 Y258.0205
G1 Y258.0206
G2 X64.3324 Y257.5211 I-0.5 J0.0005
G2 X64.2042 Y257.5379 I0.0003 J0.5
G1 F20.0 Z-4.0
G2 F150.0 X63.8328 Y258.0212 I0.1285 J0.4832
G1 X63.8498 Y283.0211
G1 Y283.021
G1 Y283.0211
G2 X64.3502 Y283.5206 I0.5 J-0.0005
G2 X64.8498 Y283.0204 I-0.0003 J-0.5
G1 X64.8328 Y258.0206
G1 Y258.0205
G1 Y258.0206
G2 X64.3324 Y257.5211 I-0.5 J0.0005
G2 X64.2042 Y257.5379 I0.0003 J0.5
G1 F20.0 Z-5.0
G2 F150.0 X63.8328 Y258.0212 I0.1285 J0.4832
G1 X63.8498 Y283.0211
G1 Y283.021
G1 Y283.0211
G2 X64.3502 Y283.5206 I0.5 J-0.0005
G2 X64.8498 Y283.0204 I-0.0003 J-0.5
G1 X64.8328 Y258.0206
G1 Y258.0205
G1 Y258.0206
G2 X64.3324 Y257.5211 I-0.5 J0.0005
G2 X64.2042 Y257.5379 I0.0003 J0.5
G0 F200
( Contour2 )
S1000
G0 Z3.0
G0 X53.3368 Y264.0005
G0 Z1.0
G1 F20.0 Z-1.0
G1 F150.0 X53.33 Y254.0282
G1 X49.33 Y254.0306
G3 X48.3294 Y253.0313 I-0.0006 J-1.0
G1 X48.3266 Y249.0313
G1 X20.3266 Y249.0504
G1 X20.3294 Y253.0504
G3 X19.33 Y254.0511 I-1.0 J0.0007
G1 X4.33 Y254.0613
G3 X3.3294 Y253.062 I-0.0007 J-1.0
G1 X3.1587 Y3.062
G3 X4.158 Y2.0613 I1.0 J-0.0007
G1 X124.158 Y1.9794
G3 X125.1586 Y2.9787 I0.0007 J1.0
G1 X125.3293 Y252.9787
G3 X124.33 Y253.9793 I-1.0 J0.0007
G1 X109.33 Y253.9895
G3 X108.3293 Y252.9902 I-0.0007 J-1.0
G1 X108.3266 Y248.9902
G1 X80.3266 Y249.0094
G1 X80.3293 Y253.0094
G3 X79.3299 Y254.01 I-1.0 J0.0007
G1 X75.33 Y254.0124
G1 X75.3532 Y288.0133
G3 X74.3539 Y289.014 I-1.0 J0.0007
G1 X54.3539 Y289.0276
G3 X53.3532 Y288.0283 I-0.0007 J-1.0
G1 X53.3368 Y264.0005
G1 F20.0 Z-2.0
G1 F150.0 X53.33 Y254.0282
G1 X49.33 Y254.0306
G3 X48.3294 Y253.0313 I-0.0006 J-1.0
G1 X48.3266 Y249.0313
G1 X20.3266 Y249.0504
G1 X20.3294 Y253.0504
G3 X19.33 Y254.0511 I-1.0 J0.0007
G1 X4.33 Y254.0613
G3 X3.3294 Y253.062 I-0.0007 J-1.0
G1 X3.1587 Y3.062
G3 X4.158 Y2.0613 I1.0 J-0.0007
G1 X124.158 Y1.9794
G3 X125.1586 Y2.9787 I0.0007 J1.0
G1 X125.3293 Y252.9787
G3 X124.33 Y253.9793 I-1.0 J0.0007
G1 X109.33 Y253.9895
G3 X108.3293 Y252.9902 I-0.0007 J-1.0
G1 X108.3266 Y248.9902
G1 X80.3266 Y249.0094
G1 X80.3293 Y253.0094
G3 X79.3299 Y254.01 I-1.0 J0.0007
G1 X75.33 Y254.0124
G1 X75.3532 Y288.0133
G3 X74.3539 Y289.014 I-1.0 J0.0007
G1 X54.3539 Y289.0276
G3 X53.3532 Y288.0283 I-0.0007 J-1.0
G1 X53.3368 Y264.0005
G1 F20.0 Z-3.0
G1 F150.0 X53.33 Y254.0282
G1 X49.33 Y254.0306
G3 X48.3294 Y253.0313 I-0.0006 J-1.0
G1 X48.3266 Y249.0313
G1 X20.3266 Y249.0504
G1 X20.3294 Y253.0504
G3 X19.33 Y254.0511 I-1.0 J0.0007
G1 X4.33 Y254.0613
G3 X3.3294 Y253.062 I-0.0007 J-1.0
G1 X3.2969 Y205.4991
G1 X3.2959 Y203.9991 Z-2.0
G1 X3.2945 Y201.9991
G1 X3.2935 Y200.4991 Z-3.0
G1 X3.2184 Y90.5012
G1 X3.2174 Y89.0012 Z-2.0
G1 X3.216 Y87.0012
G1 X3.215 Y85.5012 Z-3.0
G1 X3.1587 Y3.062
G3 X4.158 Y2.0613 I1.0 J-0.0007
G1 X62.498 Y2.0215
G1 X63.998 Y2.0205 Z-2.0
G1 X65.998 Y2.0191
G1 X67.498 Y2.0181 Z-3.0
G1 X124.158 Y1.9794
G3 X125.1586 Y2.9787 I0.0007 J1.0
G1 X125.2157 Y86.4992
G1 X125.2167 Y87.9992 Z-2.0
G1 X125.2181 Y89.9992
G1 X125.2191 Y91.4992 Z-3.0
G1 X125.2942 Y201.4998
G1 X125.2952 Y202.9998 Z-2.0
G1 X125.2966 Y204.9998
G1 X125.2976 Y206.4998 Z-3.0
G1 X125.3293 Y252.9787
G3 X124.33 Y253.9793 I-1.0 J0.0007
G1 X109.33 Y253.9895
G3 X108.3293 Y252.9902 I-0.0007 J-1.0
G1 X108.3266 Y248.9902
G1 X80.3266 Y249.0094
G1 X80.3293 Y253.0094
G3 X79.3299 Y254.01 I-1.0 J0.0007
G1 X75.33 Y254.0124
G1 X75.3532 Y288.0133
G3 X74.3539 Y289.014 I-1.0 J0.0007
G1 X67.5007 Y289.0186
G1 X66.0007 Y289.0196 Z-2.0
G1 X64.0007 Y289.021
G1 X62.5007 Y289.022 Z-3.0
G1 X54.3539 Y289.0276
G3 X53.3532 Y288.0283 I-0.0007 J-1.0
G1 X53.3368 Y264.0005
G1 F20.0 Z-4.0
G1 F150.0 X53.33 Y254.0282
G1 X49.33 Y254.0306
G3 X48.3294 Y253.0313 I-0.0006 J-1.0
G1 X48.3266 Y249.0313
G1 X20.3266 Y249.0504
G1 X20.3294 Y253.0504
G3 X19.33 Y254.0511 I-1.0 J0.0007
G1 X4.33 Y254.0613
G3 X3.3294 Y253.062 I-0.0007 J-1.0
G1 X3.2969 Y205.4991
G1 X3.2959 Y203.9991 Z-2.0
G1 X3.2945 Y201.9991
G1 X3.2935 Y200.4991 Z-4.0
G1 X3.2184 Y90.5012
G1 X3.2174 Y89.0012 Z-2.0
G1 X3.216 Y87.0012
G1 X3.215 Y85.5012 Z-4.0
G1 X3.1587 Y3.062
G3 X4.158 Y2.0613 I1.0 J-0.0007
G1 X62.498 Y2.0215
G1 X63.998 Y2.0205 Z-2.0
G1 X65.998 Y2.0191
G1 X67.498 Y2.0181 Z-4.0
G1 X124.158 Y1.9794
G3 X125.1586 Y2.9787 I0.0007 J1.0
G1 X125.2157 Y86.4992
G1 X125.2167 Y87.9992 Z-2.0
G1 X125.2181 Y89.9992
G1 X125.2191 Y91.4992 Z-4.0
G1 X125.2942 Y201.4998
G1 X125.2952 Y202.9998 Z-2.0
G1 X125.2966 Y204.9998
G1 X125.2976 Y206.4998 Z-4.0
G1 X125.3293 Y252.9787
G3 X124.33 Y253.9793 I-1.0 J0.0007
G1 X109.33 Y253.9895
G3 X108.3293 Y252.9902 I-0.0007 J-1.0
G1 X108.3266 Y248.9902
G1 X80.3266 Y249.0094
G1 X80.3293 Y253.0094
G3 X79.3299 Y254.01 I-1.0 J0.0007
G1 X75.33 Y254.0124
G1 X75.3532 Y288.0133
G3 X74.3539 Y289.014 I-1.0 J0.0007
G1 X67.5007 Y289.0186
G1 X66.0007 Y289.0196 Z-2.0
G1 X64.0007 Y289.021
G1 X62.5007 Y289.022 Z-4.0
G1 X54.3539 Y289.0276
G3 X53.3532 Y288.0283 I-0.0007 J-1.0
G1 X53.3368 Y264.0005
G1 F20.0 Z-5.0
G1 F150.0 X53.33 Y254.0282
G1 X49.33 Y254.0306
G3 X48.3294 Y253.0313 I-0.0006 J-1.0
G1 X48.3266 Y249.0313
G1 X20.3266 Y249.0504
G1 X20.3294 Y253.0504
G3 X19.33 Y254.0511 I-1.0 J0.0007
G1 X4.33 Y254.0613
G3 X3.3294 Y253.062 I-0.0007 J-1.0
G1 X3.2969 Y205.4991
G1 X3.2959 Y203.9991 Z-2.0
G1 X3.2945 Y201.9991
G1 X3.2935 Y200.4991 Z-5.0
G1 X3.2184 Y90.5012
G1 X3.2174 Y89.0012 Z-2.0
G1 X3.216 Y87.0012
G1 X3.215 Y85.5012 Z-5.0
G1 X3.1587 Y3.062
G3 X4.158 Y2.0613 I1.0 J-0.0007
G1 X62.498 Y2.0215
G1 X63.998 Y2.0205 Z-2.0
G1 X65.998 Y2.0191
G1 X67.498 Y2.0181 Z-5.0
G1 X124.158 Y1.9794
G3 X125.1586 Y2.9787 I0.0007 J1.0
G1 X125.2157 Y86.4992
G1 X125.2167 Y87.9992 Z-2.0
G1 X125.2181 Y89.9992
G1 X125.2191 Y91.4992 Z-5.0
G1 X125.2942 Y201.4998
G1 X125.2952 Y202.9998 Z-2.0
G1 X125.2966 Y204.9998
G1 X125.2976 Y206.4998 Z-5.0
G1 X125.3293 Y252.9787
G3 X124.33 Y253.9793 I-1.0 J0.0007
G1 X109.33 Y253.9895
G3 X108.3293 Y252.9902 I-0.0007 J-1.0
G1 X108.3266 Y248.9902
G1 X80.3266 Y249.0094
G1 X80.3293 Y253.0094
G3 X79.3299 Y254.01 I-1.0 J0.0007
G1 X75.33 Y254.0124
G1 X75.3532 Y288.0133
G3 X74.3539 Y289.014 I-1.0 J0.0007
G1 X67.5007 Y289.0186
G1 X66.0007 Y289.0196 Z-2.0
G1 X64.0007 Y289.021
G1 X62.5007 Y289.022 Z-5.0
G1 X54.3539 Y289.0276
G3 X53.3532 Y288.0283 I-0.0007 J-1.0
G1 X53.3368 Y264.0005
G0 F200
( Contour3 )
S1000
G0 Z3.0
G0 X47.0 Y291.5863
G0 Z1.0
G1 F20.0 Z-1.0
G1 F150.0 X124.256
G3 X125.256 Y292.5863 I0.0 J1.0
G1 Y327.5863
G3 X124.256 Y328.5863 I-1.0 J0.0
G1 X110.256
G1 Y332.5863
G3 X109.256 Y333.5863 I-1.0 J0.0
G1 X79.256
G3 X78.256 Y332.5863 I0.0 J-1.0
G1 Y328.5863
G1 X74.256
G3 X73.256 Y327.5863 I0.0 J-1.0
G1 Y323.5863
G1 X55.256
G1 Y327.5863
G3 X54.256 Y328.5863 I-1.0 J0.0
G1 X50.256
G1 Y332.5863
G3 X49.256 Y333.5863 I-1.0 J0.0
G1 X19.256
G3 X18.256 Y332.5863 I0.0 J-1.0
G1 Y328.5863
G1 X4.256
G3 X3.256 Y327.5863 I0.0 J-1.0
G1 Y292.5863
G3 X4.256 Y291.5863 I1.0 J0.0
G1 X47.0
G1 F20.0 Z-2.0
G1 F150.0 X124.256
G3 X125.256 Y292.5863 I0.0 J1.0
G1 Y327.5863
G3 X124.256 Y328.5863 I-1.0 J0.0
G1 X110.256
G1 Y332.5863
G3 X109.256 Y333.5863 I-1.0 J0.0
G1 X79.256
G3 X78.256 Y332.5863 I0.0 J-1.0
G1 Y328.5863
G1 X74.256
G3 X73.256 Y327.5863 I0.0 J-1.0
G1 Y323.5863
G1 X55.256
G1 Y327.5863
G3 X54.256 Y328.5863 I-1.0 J0.0
G1 X50.256
G1 Y332.5863
G3 X49.256 Y333.5863 I-1.0 J0.0
G1 X19.256
G3 X18.256 Y332.5863 I0.0 J-1.0
G1 Y328.5863
G1 X4.256
G3 X3.256 Y327.5863 I0.0 J-1.0
G1 Y292.5863
G3 X4.256 Y291.5863 I1.0 J0.0
G1 X47.0
G1 F20.0 Z-3.0
G1 F150.0 X94.5
G1 X96.0 Z-2.0
G1 X98.0
G1 X99.5 Z-3.0
G1 X124.256
G3 X125.256 Y292.5863 I0.0 J1.0
G1 Y310.5
G1 Y312.0 Z-2.0
G1 Y314.0
G1 Y315.5 Z-3.0
G1 Y327.5863
G3 X124.256 Y328.5863 I-1.0 J0.0
G1 X110.256
G1 Y332.5863
G3 X109.256 Y333.5863 I-1.0 J0.0
G1 X97.5
G1 X96.0 Z-2.0
G1 X94.0
G1 X92.5 Z-3.0
G1 X79.256
G3 X78.256 Y332.5863 I0.0 J-1.0
G1 Y328.5863
G1 X74.256
G3 X73.256 Y327.5863 I0.0 J-1.0
G1 Y323.5863
G1 X55.256
G1 Y327.5863
G3 X54.256 Y328.5863 I-1.0 J0.0
G1 X50.256
G1 Y332.5863
G3 X49.256 Y333.5863 I-1.0 J0.0
G1 X36.5
G1 X35.0 Z-2.0
G1 X33.0
G1 X31.5 Z-3.0
G1 X19.256
G3 X18.256 Y332.5863 I0.0 J-1.0
G1 Y328.5863
G1 X4.256
G3 X3.256 Y327.5863 I0.0 J-1.0
G1 Y311.5
G1 Y310.0 Z-2.0
G1 Y308.0
G1 Y306.5 Z-3.0
G1 Y292.5863
G3 X4.256 Y291.5863 I1.0 J0.0
G1 X29.5
G1 X31.0 Z-2.0
G1 X33.0
G1 X34.5 Z-3.0
G1 X47.0
G1 F20.0 Z-4.0
G1 F150.0 X94.5
G1 X96.0 Z-2.0
G1 X98.0
G1 X99.5 Z-4.0
G1 X124.256
G3 X125.256 Y292.5863 I0.0 J1.0
G1 Y310.5
G1 Y312.0 Z-2.0
G1 Y314.0
G1 Y315.5 Z-4.0
G1 Y327.5863
G3 X124.256 Y328.5863 I-1.0 J0.0
G1 X110.256
G1 Y332.5863
G3 X109.256 Y333.5863 I-1.0 J0.0
G1 X97.5
G1 X96.0 Z-2.0
G1 X94.0
G1 X92.5 Z-4.0
G1 X79.256
G3 X78.256 Y332.5863 I0.0 J-1.0
G1 Y328.5863
G1 X74.256
G3 X73.256 Y327.5863 I0.0 J-1.0
G1 Y323.5863
G1 X55.256
G1 Y327.5863
G3 X54.256 Y328.5863 I-1.0 J0.0
G1 X50.256
G1 Y332.5863
G3 X49.256 Y333.5863 I-1.0 J0.0
G1 X36.5
G1 X35.0 Z-2.0
G1 X33.0
G1 X31.5 Z-4.0
G1 X19.256
G3 X18.256 Y332.5863 I0.0 J-1.0
G1 Y328.5863
G1 X4.256
G3 X3.256 Y327.5863 I0.0 J-1.0
G1 Y311.5
G1 Y310.0 Z-2.0
G1 Y308.0
G1 Y306.5 Z-4.0
G1 Y292.5863
G3 X4.256 Y291.5863 I1.0 J0.0
G1 X29.5
G1 X31.0 Z-2.0
G1 X33.0
G1 X34.5 Z-4.0
G1 X47.0
G1 F20.0 Z-5.0
G1 F150.0 X94.5
G1 X96.0 Z-2.0
G1 X98.0
G1 X99.5 Z-5.0
G1 X124.256
G3 X125.256 Y292.5863 I0.0 J1.0
G1 Y310.5
G1 Y312.0 Z-2.0
G1 Y314.0
G1 Y315.5 Z-5.0
G1 Y327.5863
G3 X124.256 Y328.5863 I-1.0 J0.0
G1 X110.256
G1 Y332.5863
G3 X109.256 Y333.5863 I-1.0 J0.0
G1 X97.5
G1 X96.0 Z-2.0
G1 X94.0
G1 X92.5 Z-5.0
G1 X79.256
G3 X78.256 Y332.5863 I0.0 J-1.0
G1 Y328.5863
G1 X74.256
G3 X73.256 Y327.5863 I0.0 J-1.0
G1 Y323.5863
G1 X55.256
G1 Y327.5863
G3 X54.256 Y328.5863 I-1.0 J0.0
G1 X50.256
G1 Y332.5863
G3 X49.256 Y333.5863 I-1.0 J0.0
G1 X36.5
G1 X35.0 Z-2.0
G1 X33.0
G1 X31.5 Z-5.0
G1 X19.256
G3 X18.256 Y332.5863 I0.0 J-1.0
G1 Y328.5863
G1 X4.256
G3 X3.256 Y327.5863 I0.0 J-1.0
G1 Y311.5
G1 Y310.0 Z-2.0
G1 Y308.0
G1 Y306.5 Z-5.0
G1 Y292.5863
G3 X4.256 Y291.5863 I1.0 J0.0
G1 X29.5
G1 X31.0 Z-2.0
G1 X33.0
G1 X34.5 Z-5.0
G1 X47.0
G0 F200
G0 Z3.0
M5
M30
