( Made using CamBam - http://www.cambam.co.uk )
( PlancheHaut 4/13/2020 6:47:24 PM )
( T0 : 2.0 )
G21 G90 G64 G40
G0 Z3.0
( T0 : 2.0 )
T0 M6
( Contour1 )
G17
M3 S1000
G0 X15.5179 Y70.689
G0 Z1.0
G1 F20.0 Z-1.0
G2 F150.0 X16.0179 I0.25 J-0.433
G2 X16.2679 Y70.256 I-0.25 J-0.433
G1 Y70.2559
G1 Y50.256
G2 X16.0179 Y49.8229 I-0.5 J0.0
G2 X15.5179 I-0.25 J0.433
G2 X15.2679 Y50.256 I0.25 J0.433
G1 Y70.2559
G2 X15.5179 Y70.689 I0.5 J0.0
G1 F20.0 Z-2.0
G2 F150.0 X16.0179 I0.25 J-0.433
G2 X16.2679 Y70.256 I-0.25 J-0.433
G1 Y70.2559
G1 Y50.256
G2 X16.0179 Y49.8229 I-0.5 J0.0
G2 X15.5179 I-0.25 J0.433
G2 X15.2679 Y50.256 I0.25 J0.433
G1 Y70.2559
G2 X15.5179 Y70.689 I0.5 J0.0
G1 F20.0 Z-3.0
G2 F150.0 X16.0179 I0.25 J-0.433
G2 X16.2679 Y70.256 I-0.25 J-0.433
G1 Y70.2559
G1 Y50.256
G2 X16.0179 Y49.8229 I-0.5 J0.0
G2 X15.5179 I-0.25 J0.433
G2 X15.2679 Y50.256 I0.25 J0.433
G1 Y70.2559
G2 X15.5179 Y70.689 I0.5 J0.0
G1 F20.0 Z-4.0
G2 F150.0 X16.0179 I0.25 J-0.433
G2 X16.2679 Y70.256 I-0.25 J-0.433
G1 Y70.2559
G1 Y50.256
G2 X16.0179 Y49.8229 I-0.5 J0.0
G2 X15.5179 I-0.25 J0.433
G2 X15.2679 Y50.256 I0.25 J0.433
G1 Y70.2559
G2 X15.5179 Y70.689 I0.5 J0.0
G1 F20.0 Z-5.0
G2 F150.0 X16.0179 I0.25 J-0.433
G2 X16.2679 Y70.256 I-0.25 J-0.433
G1 Y70.2559
G1 Y50.256
G2 X16.0179 Y49.8229 I-0.5 J0.0
G2 X15.5179 I-0.25 J0.433
G2 X15.2679 Y50.256 I0.25 J0.433
G1 Y70.2559
G2 X15.5179 Y70.689 I0.5 J0.0
G0 Z3.0
G0 X16.7679 Y88.7559
G0 Z1.0
G1 F20.0 Z-1.0
G1 F150.0 Y91.7559
G1 X34.7679
G1 Y88.7559
G1 X16.7679
G1 F20.0 Z-2.0
G1 F150.0 Y91.7559
G1 X34.7679
G1 Y88.7559
G1 X16.7679
G1 F20.0 Z-3.0
G1 F150.0 Y91.7559
G1 X34.7679
G1 Y88.7559
G1 X16.7679
G1 F20.0 Z-4.0
G1 F150.0 Y91.7559
G1 X34.7679
G1 Y88.7559
G1 X16.7679
G1 F20.0 Z-5.0
G1 F150.0 Y91.7559
G1 X34.7679
G1 Y88.7559
G1 X16.7679
G0 Z3.0
G0 X15.7911 Y109.7565
G0 Z1.0
G1 F20.0 Z-1.0
G2 F150.0 X15.5179 Y109.8229 I-0.0232 J0.4995
G2 X15.2679 Y110.256 I0.25 J0.433
G1 Y110.2559
G1 Y130.2559
G1 Y130.256
G2 X15.5179 Y130.689 I0.5 J0.0
G2 X16.0179 I0.25 J-0.433
G2 X16.2679 Y130.2559 I-0.25 J-0.433
G1 Y110.2559
G2 X16.0179 Y109.8229 I-0.5 J0.0
G2 X15.7911 Y109.7565 I-0.25 J0.433
G1 F20.0 Z-2.0
G2 F150.0 X15.5179 Y109.8229 I-0.0232 J0.4995
G2 X15.2679 Y110.256 I0.25 J0.433
G1 Y110.2559
G1 Y130.2559
G1 Y130.256
G2 X15.5179 Y130.689 I0.5 J0.0
G2 X16.0179 I0.25 J-0.433
G2 X16.2679 Y130.2559 I-0.25 J-0.433
G1 Y110.2559
G2 X16.0179 Y109.8229 I-0.5 J0.0
G2 X15.7911 Y109.7565 I-0.25 J0.433
G1 F20.0 Z-3.0
G2 F150.0 X15.5179 Y109.8229 I-0.0232 J0.4995
G2 X15.2679 Y110.256 I0.25 J0.433
G1 Y110.2559
G1 Y130.2559
G1 Y130.256
G2 X15.5179 Y130.689 I0.5 J0.0
G2 X16.0179 I0.25 J-0.433
G2 X16.2679 Y130.2559 I-0.25 J-0.433
G1 Y110.2559
G2 X16.0179 Y109.8229 I-0.5 J0.0
G2 X15.7911 Y109.7565 I-0.25 J0.433
G1 F20.0 Z-4.0
G2 F150.0 X15.5179 Y109.8229 I-0.0232 J0.4995
G2 X15.2679 Y110.256 I0.25 J0.433
G1 Y110.2559
G1 Y130.2559
G1 Y130.256
G2 X15.5179 Y130.689 I0.5 J0.0
G2 X16.0179 I0.25 J-0.433
G2 X16.2679 Y130.2559 I-0.25 J-0.433
G1 Y110.2559
G2 X16.0179 Y109.8229 I-0.5 J0.0
G2 X15.7911 Y109.7565 I-0.25 J0.433
G1 F20.0 Z-5.0
G2 F150.0 X15.5179 Y109.8229 I-0.0232 J0.4995
G2 X15.2679 Y110.256 I0.25 J0.433
G1 Y110.2559
G1 Y130.2559
G1 Y130.256
G2 X15.5179 Y130.689 I0.5 J0.0
G2 X16.0179 I0.25 J-0.433
G2 X16.2679 Y130.2559 I-0.25 J-0.433
G1 Y110.2559
G2 X16.0179 Y109.8229 I-0.5 J0.0
G2 X15.7911 Y109.7565 I-0.25 J0.433
G0 Z3.0
G0 X35.268 Y110.2435
G0 Z1.0
G1 F20.0 Z-1.0
G2 F150.0 X35.2679 Y110.2559 I0.4998 J0.0125
G1 Y130.2559
G2 X35.5179 Y130.689 I0.5 J0.0
G2 X36.0179 I0.25 J-0.433
G2 X36.2679 Y130.2559 I-0.25 J-0.433
G1 Y110.2559
G2 X36.0179 Y109.8229 I-0.5 J0.0
G2 X35.5179 I-0.25 J0.433
G2 X35.268 Y110.2435 I0.25 J0.433
G1 F20.0 Z-2.0
G2 F150.0 X35.2679 Y110.2559 I0.4998 J0.0125
G1 Y130.2559
G2 X35.5179 Y130.689 I0.5 J0.0
G2 X36.0179 I0.25 J-0.433
G2 X36.2679 Y130.2559 I-0.25 J-0.433
G1 Y110.2559
G2 X36.0179 Y109.8229 I-0.5 J0.0
G2 X35.5179 I-0.25 J0.433
G2 X35.268 Y110.2435 I0.25 J0.433
G1 F20.0 Z-3.0
G2 F150.0 X35.2679 Y110.2559 I0.4998 J0.0125
G1 Y130.2559
G2 X35.5179 Y130.689 I0.5 J0.0
G2 X36.0179 I0.25 J-0.433
G2 X36.2679 Y130.2559 I-0.25 J-0.433
G1 Y110.2559
G2 X36.0179 Y109.8229 I-0.5 J0.0
G2 X35.5179 I-0.25 J0.433
G2 X35.268 Y110.2435 I0.25 J0.433
G1 F20.0 Z-4.0
G2 F150.0 X35.2679 Y110.2559 I0.4998 J0.0125
G1 Y130.2559
G2 X35.5179 Y130.689 I0.5 J0.0
G2 X36.0179 I0.25 J-0.433
G2 X36.2679 Y130.2559 I-0.25 J-0.433
G1 Y110.2559
G2 X36.0179 Y109.8229 I-0.5 J0.0
G2 X35.5179 I-0.25 J0.433
G2 X35.268 Y110.2435 I0.25 J0.433
G1 F20.0 Z-5.0
G2 F150.0 X35.2679 Y110.2559 I0.4998 J0.0125
G1 Y130.2559
G2 X35.5179 Y130.689 I0.5 J0.0
G2 X36.0179 I0.25 J-0.433
G2 X36.2679 Y130.2559 I-0.25 J-0.433
G1 Y110.2559
G2 X36.0179 Y109.8229 I-0.5 J0.0
G2 X35.5179 I-0.25 J0.433
G2 X35.268 Y110.2435 I0.25 J0.433
G0 Z3.0
G0 X35.7616 Y70.7559
G0 Z1.0
G1 F20.0 Z-1.0
G2 F150.0 X36.0179 Y70.689 I0.0062 J-0.5
G2 X36.2679 Y70.256 I-0.25 J-0.433
G1 Y70.2559
G1 Y50.256
G2 X36.0179 Y49.8229 I-0.5 J0.0
G2 X35.5179 I-0.25 J0.433
G2 X35.2679 Y50.2559 I0.25 J0.433
G1 Y70.2559
G2 X35.5179 Y70.689 I0.5 J0.0
G2 X35.7616 Y70.7559 I0.25 J-0.433
G1 F20.0 Z-2.0
G2 F150.0 X36.0179 Y70.689 I0.0062 J-0.5
G2 X36.2679 Y70.256 I-0.25 J-0.433
G1 Y70.2559
G1 Y50.256
G2 X36.0179 Y49.8229 I-0.5 J0.0
G2 X35.5179 I-0.25 J0.433
G2 X35.2679 Y50.2559 I0.25 J0.433
G1 Y70.2559
G2 X35.5179 Y70.689 I0.5 J0.0
G2 X35.7616 Y70.7559 I0.25 J-0.433
G1 F20.0 Z-3.0
G2 F150.0 X36.0179 Y70.689 I0.0062 J-0.5
G2 X36.2679 Y70.256 I-0.25 J-0.433
G1 Y70.2559
G1 Y50.256
G2 X36.0179 Y49.8229 I-0.5 J0.0
G2 X35.5179 I-0.25 J0.433
G2 X35.2679 Y50.2559 I0.25 J0.433
G1 Y70.2559
G2 X35.5179 Y70.689 I0.5 J0.0
G2 X35.7616 Y70.7559 I0.25 J-0.433
G1 F20.0 Z-4.0
G2 F150.0 X36.0179 Y70.689 I0.0062 J-0.5
G2 X36.2679 Y70.256 I-0.25 J-0.433
G1 Y70.2559
G1 Y50.256
G2 X36.0179 Y49.8229 I-0.5 J0.0
G2 X35.5179 I-0.25 J0.433
G2 X35.2679 Y50.2559 I0.25 J0.433
G1 Y70.2559
G2 X35.5179 Y70.689 I0.5 J0.0
G2 X35.7616 Y70.7559 I0.25 J-0.433
G1 F20.0 Z-5.0
G2 F150.0 X36.0179 Y70.689 I0.0062 J-0.5
G2 X36.2679 Y70.256 I-0.25 J-0.433
G1 Y70.2559
G1 Y50.256
G2 X36.0179 Y49.8229 I-0.5 J0.0
G2 X35.5179 I-0.25 J0.433
G2 X35.2679 Y50.2559 I0.25 J0.433
G1 Y70.2559
G2 X35.5179 Y70.689 I0.5 J0.0
G2 X35.7616 Y70.7559 I0.25 J-0.433
G0 Z3.0
G0 X63.8801 Y60.9165
G0 Z1.0
G1 F20.0 Z-1.0
G2 F150.0 X64.7679 Y61.988 I1.8878 J-0.6606
G2 X66.7679 I1.0 J-1.7321
G2 X67.7679 Y60.2559 I-1.0 J-1.7321
G1 Y35.256
G2 X66.7679 Y33.5239 I-2.0 J0.0
G2 X64.7679 I-1.0 J1.732
G2 X63.7679 Y35.2559 I1.0 J1.732
G1 Y35.256
G1 Y60.2559
G2 X63.8801 Y60.9165 I2.0 J0.0
G1 F20.0 Z-2.0
G2 F150.0 X64.7679 Y61.988 I1.8878 J-0.6606
G2 X66.7679 I1.0 J-1.7321
G2 X67.7679 Y60.2559 I-1.0 J-1.7321
G1 Y35.256
G2 X66.7679 Y33.5239 I-2.0 J0.0
G2 X64.7679 I-1.0 J1.732
G2 X63.7679 Y35.2559 I1.0 J1.732
G1 Y35.256
G1 Y60.2559
G2 X63.8801 Y60.9165 I2.0 J0.0
G1 F20.0 Z-3.0
G2 F150.0 X64.7679 Y61.988 I1.8878 J-0.6606
G2 X66.7679 I1.0 J-1.7321
G2 X67.7679 Y60.2559 I-1.0 J-1.7321
G1 Y35.256
G2 X66.7679 Y33.5239 I-2.0 J0.0
G2 X64.7679 I-1.0 J1.732
G2 X63.7679 Y35.2559 I1.0 J1.732
G1 Y35.256
G1 Y60.2559
G2 X63.8801 Y60.9165 I2.0 J0.0
G1 F20.0 Z-4.0
G2 F150.0 X64.7679 Y61.988 I1.8878 J-0.6606
G2 X66.7679 I1.0 J-1.7321
G2 X67.7679 Y60.2559 I-1.0 J-1.7321
G1 Y35.256
G2 X66.7679 Y33.5239 I-2.0 J0.0
G2 X64.7679 I-1.0 J1.732
G2 X63.7679 Y35.2559 I1.0 J1.732
G1 Y35.256
G1 Y60.2559
G2 X63.8801 Y60.9165 I2.0 J0.0
G1 F20.0 Z-5.0
G2 F150.0 X64.7679 Y61.988 I1.8878 J-0.6606
G2 X66.7679 I1.0 J-1.7321
G2 X67.7679 Y60.2559 I-1.0 J-1.7321
G1 Y35.256
G2 X66.7679 Y33.5239 I-2.0 J0.0
G2 X64.7679 I-1.0 J1.732
G2 X63.7679 Y35.2559 I1.0 J1.732
G1 Y35.256
G1 Y60.2559
G2 X63.8801 Y60.9165 I2.0 J0.0
G0 Z3.0
G0 X95.2679
G0 Z1.0
G1 F20.0 Z-1.0
G1 F150.0 Y70.2559
G2 X95.5179 Y70.689 I0.5 J0.0
G2 X96.0179 I0.25 J-0.433
G2 X96.2679 Y70.256 I-0.25 J-0.433
G1 Y70.2559
G1 Y50.256
G2 X96.0179 Y49.8229 I-0.5 J0.0
G2 X95.5179 I-0.25 J0.433
G2 X95.2679 Y50.256 I0.25 J0.433
G1 Y60.9165
G1 F20.0 Z-2.0
G1 F150.0 Y70.2559
G2 X95.5179 Y70.689 I0.5 J0.0
G2 X96.0179 I0.25 J-0.433
G2 X96.2679 Y70.256 I-0.25 J-0.433
G1 Y70.2559
G1 Y50.256
G2 X96.0179 Y49.8229 I-0.5 J0.0
G2 X95.5179 I-0.25 J0.433
G2 X95.2679 Y50.256 I0.25 J0.433
G1 Y60.9165
G1 F20.0 Z-3.0
G1 F150.0 Y70.2559
G2 X95.5179 Y70.689 I0.5 J0.0
G2 X96.0179 I0.25 J-0.433
G2 X96.2679 Y70.256 I-0.25 J-0.433
G1 Y70.2559
G1 Y50.256
G2 X96.0179 Y49.8229 I-0.5 J0.0
G2 X95.5179 I-0.25 J0.433
G2 X95.2679 Y50.256 I0.25 J0.433
G1 Y60.9165
G1 F20.0 Z-4.0
G1 F150.0 Y70.2559
G2 X95.5179 Y70.689 I0.5 J0.0
G2 X96.0179 I0.25 J-0.433
G2 X96.2679 Y70.256 I-0.25 J-0.433
G1 Y70.2559
G1 Y50.256
G2 X96.0179 Y49.8229 I-0.5 J0.0
G2 X95.5179 I-0.25 J0.433
G2 X95.2679 Y50.256 I0.25 J0.433
G1 Y60.9165
G1 F20.0 Z-5.0
G1 F150.0 Y70.2559
G2 X95.5179 Y70.689 I0.5 J0.0
G2 X96.0179 I0.25 J-0.433
G2 X96.2679 Y70.256 I-0.25 J-0.433
G1 Y70.2559
G1 Y50.256
G2 X96.0179 Y49.8229 I-0.5 J0.0
G2 X95.5179 I-0.25 J0.433
G2 X95.2679 Y50.256 I0.25 J0.433
G1 Y60.9165
G0 Z3.0
G0 X115.2679
G0 Z1.0
G1 F20.0 Z-1.0
G1 F150.0 Y70.2559
G2 X115.5179 Y70.689 I0.5 J0.0
G2 X116.0179 I0.25 J-0.433
G2 X116.2679 Y70.256 I-0.25 J-0.433
G1 Y70.2559
G1 Y50.256
G2 X116.0179 Y49.8229 I-0.5 J0.0
G2 X115.5179 I-0.25 J0.433
G2 X115.2679 Y50.256 I0.25 J0.433
G1 Y60.9165
G1 F20.0 Z-2.0
G1 F150.0 Y70.2559
G2 X115.5179 Y70.689 I0.5 J0.0
G2 X116.0179 I0.25 J-0.433
G2 X116.2679 Y70.256 I-0.25 J-0.433
G1 Y70.2559
G1 Y50.256
G2 X116.0179 Y49.8229 I-0.5 J0.0
G2 X115.5179 I-0.25 J0.433
G2 X115.2679 Y50.256 I0.25 J0.433
G1 Y60.9165
G1 F20.0 Z-3.0
G1 F150.0 Y70.2559
G2 X115.5179 Y70.689 I0.5 J0.0
G2 X116.0179 I0.25 J-0.433
G2 X116.2679 Y70.256 I-0.25 J-0.433
G1 Y70.2559
G1 Y50.256
G2 X116.0179 Y49.8229 I-0.5 J0.0
G2 X115.5179 I-0.25 J0.433
G2 X115.2679 Y50.256 I0.25 J0.433
G1 Y60.9165
G1 F20.0 Z-4.0
G1 F150.0 Y70.2559
G2 X115.5179 Y70.689 I0.5 J0.0
G2 X116.0179 I0.25 J-0.433
G2 X116.2679 Y70.256 I-0.25 J-0.433
G1 Y70.2559
G1 Y50.256
G2 X116.0179 Y49.8229 I-0.5 J0.0
G2 X115.5179 I-0.25 J0.433
G2 X115.2679 Y50.256 I0.25 J0.433
G1 Y60.9165
G1 F20.0 Z-5.0
G1 F150.0 Y70.2559
G2 X115.5179 Y70.689 I0.5 J0.0
G2 X116.0179 I0.25 J-0.433
G2 X116.2679 Y70.256 I-0.25 J-0.433
G1 Y70.2559
G1 Y50.256
G2 X116.0179 Y49.8229 I-0.5 J0.0
G2 X115.5179 I-0.25 J0.433
G2 X115.2679 Y50.256 I0.25 J0.433
G1 Y60.9165
G0 Z3.0
G0 X114.7679 Y88.7559
G0 Z1.0
G1 F20.0 Z-1.0
G1 F150.0 X96.7679
G1 Y91.7559
G1 X114.7679
G1 Y88.7559
G1 F20.0 Z-2.0
G1 F150.0 X96.7679
G1 Y91.7559
G1 X114.7679
G1 Y88.7559
G1 F20.0 Z-3.0
G1 F150.0 X96.7679
G1 Y91.7559
G1 X114.7679
G1 Y88.7559
G1 F20.0 Z-4.0
G1 F150.0 X96.7679
G1 Y91.7559
G1 X114.7679
G1 Y88.7559
G1 F20.0 Z-5.0
G1 F150.0 X96.7679
G1 Y91.7559
G1 X114.7679
G1 Y88.7559
G0 Z3.0
G0 X115.7446 Y109.7565
G0 Z1.0
G1 F20.0 Z-1.0
G2 F150.0 X115.5179 Y109.8229 I0.0232 J0.4995
G2 X115.2679 Y110.256 I0.25 J0.433
G1 Y110.2559
G1 Y130.2559
G1 Y130.256
G2 X115.5179 Y130.689 I0.5 J0.0
G2 X116.0179 I0.25 J-0.433
G2 X116.2679 Y130.2559 I-0.25 J-0.433
G1 Y110.2559
G2 X116.0179 Y109.8229 I-0.5 J0.0
G2 X115.7446 Y109.7565 I-0.25 J0.433
G1 F20.0 Z-2.0
G2 F150.0 X115.5179 Y109.8229 I0.0232 J0.4995
G2 X115.2679 Y110.256 I0.25 J0.433
G1 Y110.2559
G1 Y130.2559
G1 Y130.256
G2 X115.5179 Y130.689 I0.5 J0.0
G2 X116.0179 I0.25 J-0.433
G2 X116.2679 Y130.2559 I-0.25 J-0.433
G1 Y110.2559
G2 X116.0179 Y109.8229 I-0.5 J0.0
G2 X115.7446 Y109.7565 I-0.25 J0.433
G1 F20.0 Z-3.0
G2 F150.0 X115.5179 Y109.8229 I0.0232 J0.4995
G2 X115.2679 Y110.256 I0.25 J0.433
G1 Y110.2559
G1 Y130.2559
G1 Y130.256
G2 X115.5179 Y130.689 I0.5 J0.0
G2 X116.0179 I0.25 J-0.433
G2 X116.2679 Y130.2559 I-0.25 J-0.433
G1 Y110.2559
G2 X116.0179 Y109.8229 I-0.5 J0.0
G2 X115.7446 Y109.7565 I-0.25 J0.433
G1 F20.0 Z-4.0
G2 F150.0 X115.5179 Y109.8229 I0.0232 J0.4995
G2 X115.2679 Y110.256 I0.25 J0.433
G1 Y110.2559
G1 Y130.2559
G1 Y130.256
G2 X115.5179 Y130.689 I0.5 J0.0
G2 X116.0179 I0.25 J-0.433
G2 X116.2679 Y130.2559 I-0.25 J-0.433
G1 Y110.2559
G2 X116.0179 Y109.8229 I-0.5 J0.0
G2 X115.7446 Y109.7565 I-0.25 J0.433
G1 F20.0 Z-5.0
G2 F150.0 X115.5179 Y109.8229 I0.0232 J0.4995
G2 X115.2679 Y110.256 I0.25 J0.433
G1 Y110.2559
G1 Y130.2559
G1 Y130.256
G2 X115.5179 Y130.689 I0.5 J0.0
G2 X116.0179 I0.25 J-0.433
G2 X116.2679 Y130.2559 I-0.25 J-0.433
G1 Y110.2559
G2 X116.0179 Y109.8229 I-0.5 J0.0
G2 X115.7446 Y109.7565 I-0.25 J0.433
G0 Z3.0
G0 X96.2677 Y110.2435
G0 Z1.0
G1 F20.0 Z-1.0
G2 F150.0 X96.0179 Y109.8229 I-0.4998 J0.0125
G2 X95.5179 I-0.25 J0.433
G2 X95.2679 Y110.256 I0.25 J0.433
G1 Y110.2559
G1 Y130.2559
G1 Y130.256
G2 X95.5179 Y130.689 I0.5 J0.0
G2 X96.0179 I0.25 J-0.433
G2 X96.2679 Y130.2559 I-0.25 J-0.433
G1 Y110.2559
G1 Y110.256
G2 X96.2677 Y110.2435 I-0.5 J0.0
G1 F20.0 Z-2.0
G2 F150.0 X96.0179 Y109.8229 I-0.4998 J0.0125
G2 X95.5179 I-0.25 J0.433
G2 X95.2679 Y110.256 I0.25 J0.433
G1 Y110.2559
G1 Y130.2559
G1 Y130.256
G2 X95.5179 Y130.689 I0.5 J0.0
G2 X96.0179 I0.25 J-0.433
G2 X96.2679 Y130.2559 I-0.25 J-0.433
G1 Y110.2559
G1 Y110.256
G2 X96.2677 Y110.2435 I-0.5 J0.0
G1 F20.0 Z-3.0
G2 F150.0 X96.0179 Y109.8229 I-0.4998 J0.0125
G2 X95.5179 I-0.25 J0.433
G2 X95.2679 Y110.256 I0.25 J0.433
G1 Y110.2559
G1 Y130.2559
G1 Y130.256
G2 X95.5179 Y130.689 I0.5 J0.0
G2 X96.0179 I0.25 J-0.433
G2 X96.2679 Y130.2559 I-0.25 J-0.433
G1 Y110.2559
G1 Y110.256
G2 X96.2677 Y110.2435 I-0.5 J0.0
G1 F20.0 Z-4.0
G2 F150.0 X96.0179 Y109.8229 I-0.4998 J0.0125
G2 X95.5179 I-0.25 J0.433
G2 X95.2679 Y110.256 I0.25 J0.433
G1 Y110.2559
G1 Y130.2559
G1 Y130.256
G2 X95.5179 Y130.689 I0.5 J0.0
G2 X96.0179 I0.25 J-0.433
G2 X96.2679 Y130.2559 I-0.25 J-0.433
G1 Y110.2559
G1 Y110.256
G2 X96.2677 Y110.2435 I-0.5 J0.0
G1 F20.0 Z-5.0
G2 F150.0 X96.0179 Y109.8229 I-0.4998 J0.0125
G2 X95.5179 I-0.25 J0.433
G2 X95.2679 Y110.256 I0.25 J0.433
G1 Y110.2559
G1 Y130.2559
G1 Y130.256
G2 X95.5179 Y130.689 I0.5 J0.0
G2 X96.0179 I0.25 J-0.433
G2 X96.2679 Y130.2559 I-0.25 J-0.433
G1 Y110.2559
G1 Y110.256
G2 X96.2677 Y110.2435 I-0.5 J0.0
G0 Z3.0
G0 X66.8897 Y153.6002
G0 Z1.0
G1 F20.0 Z-1.0
G2 F150.0 X66.7679 Y153.5239 I-1.1219 J1.6557
G2 X64.7679 I-1.0 J1.7321
G2 X63.7679 Y155.2559 I1.0 J1.7321
G1 Y180.2559
G2 X64.7679 Y181.988 I2.0 J0.0
G2 X66.7679 I1.0 J-1.732
G2 X67.7679 Y180.2559 I-1.0 J-1.732
G1 Y155.2559
G2 X66.8897 Y153.6002 I-2.0 J0.0
G1 F20.0 Z-2.0
G2 F150.0 X66.7679 Y153.5239 I-1.1219 J1.6557
G2 X64.7679 I-1.0 J1.7321
G2 X63.7679 Y155.2559 I1.0 J1.7321
G1 Y180.2559
G2 X64.7679 Y181.988 I2.0 J0.0
G2 X66.7679 I1.0 J-1.732
G2 X67.7679 Y180.2559 I-1.0 J-1.732
G1 Y155.2559
G2 X66.8897 Y153.6002 I-2.0 J0.0
G1 F20.0 Z-3.0
G2 F150.0 X66.7679 Y153.5239 I-1.1219 J1.6557
G2 X64.7679 I-1.0 J1.7321
G2 X63.7679 Y155.2559 I1.0 J1.7321
G1 Y180.2559
G2 X64.7679 Y181.988 I2.0 J0.0
G2 X66.7679 I1.0 J-1.732
G2 X67.7679 Y180.2559 I-1.0 J-1.732
G1 Y155.2559
G2 X66.8897 Y153.6002 I-2.0 J0.0
G1 F20.0 Z-4.0
G2 F150.0 X66.7679 Y153.5239 I-1.1219 J1.6557
G2 X64.7679 I-1.0 J1.7321
G2 X63.7679 Y155.2559 I1.0 J1.7321
G1 Y180.2559
G2 X64.7679 Y181.988 I2.0 J0.0
G2 X66.7679 I1.0 J-1.732
G2 X67.7679 Y180.2559 I-1.0 J-1.732
G1 Y155.2559
G2 X66.8897 Y153.6002 I-2.0 J0.0
G1 F20.0 Z-5.0
G2 F150.0 X66.7679 Y153.5239 I-1.1219 J1.6557
G2 X64.7679 I-1.0 J1.7321
G2 X63.7679 Y155.2559 I1.0 J1.7321
G1 Y180.2559
G2 X64.7679 Y181.988 I2.0 J0.0
G2 X66.7679 I1.0 J-1.732
G2 X67.7679 Y180.2559 I-1.0 J-1.732
G1 Y155.2559
G2 X66.8897 Y153.6002 I-2.0 J0.0
G0 Z3.0
G0 X95.5047 Y199.8308
G0 Z1.0
G1 F20.0 Z-1.0
G2 F150.0 X95.2679 Y200.2559 I0.2632 J0.4252
G1 Y240.2559
G2 X95.5179 Y240.689 I0.5 J0.0
G2 X96.0179 I0.25 J-0.433
G2 X96.2679 Y240.2559 I-0.25 J-0.433
G1 Y200.2559
G2 X96.0179 Y199.8229 I-0.5 J0.0
G2 X95.5179 I-0.25 J0.433
G2 X95.5047 Y199.8308 I0.25 J0.433
G1 F20.0 Z-2.0
G2 F150.0 X95.2679 Y200.2559 I0.2632 J0.4252
G1 Y240.2559
G2 X95.5179 Y240.689 I0.5 J0.0
G2 X96.0179 I0.25 J-0.433
G2 X96.2679 Y240.2559 I-0.25 J-0.433
G1 Y200.2559
G2 X96.0179 Y199.8229 I-0.5 J0.0
G2 X95.5179 I-0.25 J0.433
G2 X95.5047 Y199.8308 I0.25 J0.433
G1 F20.0 Z-3.0
G2 F150.0 X95.2679 Y200.2559 I0.2632 J0.4252
G1 Y240.2559
G2 X95.5179 Y240.689 I0.5 J0.0
G2 X96.0179 I0.25 J-0.433
G2 X96.2679 Y240.2559 I-0.25 J-0.433
G1 Y200.2559
G2 X96.0179 Y199.8229 I-0.5 J0.0
G2 X95.5179 I-0.25 J0.433
G2 X95.5047 Y199.8308 I0.25 J0.433
G1 F20.0 Z-4.0
G2 F150.0 X95.2679 Y200.2559 I0.2632 J0.4252
G1 Y240.2559
G2 X95.5179 Y240.689 I0.5 J0.0
G2 X96.0179 I0.25 J-0.433
G2 X96.2679 Y240.2559 I-0.25 J-0.433
G1 Y200.2559
G2 X96.0179 Y199.8229 I-0.5 J0.0
G2 X95.5179 I-0.25 J0.433
G2 X95.5047 Y199.8308 I0.25 J0.433
G1 F20.0 Z-5.0
G2 F150.0 X95.2679 Y200.2559 I0.2632 J0.4252
G1 Y240.2559
G2 X95.5179 Y240.689 I0.5 J0.0
G2 X96.0179 I0.25 J-0.433
G2 X96.2679 Y240.2559 I-0.25 J-0.433
G1 Y200.2559
G2 X96.0179 Y199.8229 I-0.5 J0.0
G2 X95.5179 I-0.25 J0.433
G2 X95.5047 Y199.8308 I0.25 J0.433
G0 Z3.0
G0 X36.2678 Y200.2524
G0 Z1.0
G1 F20.0 Z-1.0
G2 F150.0 X36.0179 Y199.8229 I-0.5 J0.0036
G2 X35.5179 I-0.25 J0.433
G2 X35.2679 Y200.2559 I0.25 J0.433
G1 Y240.2559
G2 X35.5179 Y240.689 I0.5 J0.0
G2 X36.0179 I0.25 J-0.433
G2 X36.2679 Y240.2559 I-0.25 J-0.433
G1 Y200.2559
G2 X36.2678 Y200.2524 I-0.5 J0.0
G1 F20.0 Z-2.0
G2 F150.0 X36.0179 Y199.8229 I-0.5 J0.0036
G2 X35.5179 I-0.25 J0.433
G2 X35.2679 Y200.2559 I0.25 J0.433
G1 Y240.2559
G2 X35.5179 Y240.689 I0.5 J0.0
G2 X36.0179 I0.25 J-0.433
G2 X36.2679 Y240.2559 I-0.25 J-0.433
G1 Y200.2559
G2 X36.2678 Y200.2524 I-0.5 J0.0
G1 F20.0 Z-3.0
G2 F150.0 X36.0179 Y199.8229 I-0.5 J0.0036
G2 X35.5179 I-0.25 J0.433
G2 X35.2679 Y200.2559 I0.25 J0.433
G1 Y240.2559
G2 X35.5179 Y240.689 I0.5 J0.0
G2 X36.0179 I0.25 J-0.433
G2 X36.2679 Y240.2559 I-0.25 J-0.433
G1 Y200.2559
G2 X36.2678 Y200.2524 I-0.5 J0.0
G1 F20.0 Z-4.0
G2 F150.0 X36.0179 Y199.8229 I-0.5 J0.0036
G2 X35.5179 I-0.25 J0.433
G2 X35.2679 Y200.2559 I0.25 J0.433
G1 Y240.2559
G2 X35.5179 Y240.689 I0.5 J0.0
G2 X36.0179 I0.25 J-0.433
G2 X36.2679 Y240.2559 I-0.25 J-0.433
G1 Y200.2559
G2 X36.2678 Y200.2524 I-0.5 J0.0
G1 F20.0 Z-5.0
G2 F150.0 X36.0179 Y199.8229 I-0.5 J0.0036
G2 X35.5179 I-0.25 J0.433
G2 X35.2679 Y200.2559 I0.25 J0.433
G1 Y240.2559
G2 X35.5179 Y240.689 I0.5 J0.0
G2 X36.0179 I0.25 J-0.433
G2 X36.2679 Y240.2559 I-0.25 J-0.433
G1 Y200.2559
G2 X36.2678 Y200.2524 I-0.5 J0.0
G0 F200
( Contour2 )
S1000
G0 Z3.0
G0 X5.7679 Y4.256
G0 Z1.0
G1 F20.0 Z-1.0
G1 F150.0 X125.7679
G3 X126.7679 Y5.256 I0.0 J1.0
G1 Y250.2559
G3 X125.7679 Y251.2559 I-1.0 J0.0
G1 X5.7679
G3 X4.7679 Y250.2559 I0.0 J-1.0
G1 Y5.256
G3 X5.7679 Y4.256 I1.0 J0.0
G1 F20.0 Z-2.0
G1 F150.0 X125.7679
G3 X126.7679 Y5.256 I0.0 J1.0
G1 Y250.2559
G3 X125.7679 Y251.2559 I-1.0 J0.0
G1 X5.7679
G3 X4.7679 Y250.2559 I0.0 J-1.0
G1 Y5.256
G3 X5.7679 Y4.256 I1.0 J0.0
G1 F20.0 Z-3.0
G1 F150.0 X64.1012
G1 X65.6012 Z-2.0
G1 X67.6012
G1 X69.1012 Z-3.0
G1 X125.7679
G3 X126.7679 Y5.256 I0.0 J1.0
G1 Y65.256
G1 Y66.756 Z-2.0
G1 Y68.7559
G1 Y70.2559 Z-3.0
G1 Y186.9226
G1 Y188.4226 Z-2.0
G1 Y190.4226
G1 Y191.9226 Z-3.0
G1 Y250.2559
G3 X125.7679 Y251.2559 I-1.0 J0.0
G1 X67.4345
G1 X65.9345 Z-2.0
G1 X63.9345
G1 X62.4345 Z-3.0
G1 X5.7679
G3 X4.7679 Y250.2559 I0.0 J-1.0
G1 Y190.2559
G1 Y188.7559 Z-2.0
G1 Y186.7559
G1 Y185.2559 Z-3.0
G1 Y68.5893
G1 Y67.0893 Z-2.0
G1 Y65.0893
G1 Y63.5893 Z-3.0
G1 Y5.256
G3 X5.7679 Y4.256 I1.0 J0.0
G1 F20.0 Z-4.0
G1 F150.0 X64.1012
G1 X65.6012 Z-2.0
G1 X67.6012
G1 X69.1012 Z-4.0
G1 X125.7679
G3 X126.7679 Y5.256 I0.0 J1.0
G1 Y65.256
G1 Y66.756 Z-2.0
G1 Y68.7559
G1 Y70.2559 Z-4.0
G1 Y186.9226
G1 Y188.4226 Z-2.0
G1 Y190.4226
G1 Y191.9226 Z-4.0
G1 Y250.2559
G3 X125.7679 Y251.2559 I-1.0 J0.0
G1 X67.4345
G1 X65.9345 Z-2.0
G1 X63.9345
G1 X62.4345 Z-4.0
G1 X5.7679
G3 X4.7679 Y250.2559 I0.0 J-1.0
G1 Y190.2559
G1 Y188.7559 Z-2.0
G1 Y186.7559
G1 Y185.2559 Z-4.0
G1 Y68.5893
G1 Y67.0893 Z-2.0
G1 Y65.0893
G1 Y63.5893 Z-4.0
G1 Y5.256
G3 X5.7679 Y4.256 I1.0 J0.0
G1 F20.0 Z-5.0
G1 F150.0 X64.1012
G1 X65.6012 Z-2.0
G1 X67.6012
G1 X69.1012 Z-5.0
G1 X125.7679
G3 X126.7679 Y5.256 I0.0 J1.0
G1 Y65.256
G1 Y66.756 Z-2.0
G1 Y68.7559
G1 Y70.2559 Z-5.0
G1 Y186.9226
G1 Y188.4226 Z-2.0
G1 Y190.4226
G1 Y191.9226 Z-5.0
G1 Y250.2559
G3 X125.7679 Y251.2559 I-1.0 J0.0
G1 X67.4345
G1 X65.9345 Z-2.0
G1 X63.9345
G1 X62.4345 Z-5.0
G1 X5.7679
G3 X4.7679 Y250.2559 I0.0 J-1.0
G1 Y190.2559
G1 Y188.7559 Z-2.0
G1 Y186.7559
G1 Y185.2559 Z-5.0
G1 Y68.5893
G1 Y67.0893 Z-2.0
G1 Y65.0893
G1 Y63.5893 Z-5.0
G1 Y5.256
G3 X5.7679 Y4.256 I1.0 J0.0
G0 F200
G0 Z3.0
M5
M30
